DSAA
94   100
-99.25   -98.85
19.1747   19.60000001
0.18559060822576   1.10988650390732
0.49  0.490000000472409  0.489999999166836  0.490000000100852  0.490000000321595  0.489999999982681  0.489999999981399  0.489999999915729  0.489999999692335  0.49000000010097  0.489999999798494  0.49000000001997  0.49000000024257  0.490000002390463  0.490000000002091  0.489999999938813  0.489999999854397  0.4900000011867  0.489999999446178  0.489999999132853  0.490000001379932  0.49000000050183  0.490000000577182  0.495947442793958  0.490000000176397  0.490000000304358  0.490000000964741  0.489999999601523  0.48999999979694  0.490000000223557  0.48999999926209  0.490000000155578  0.490000000528132  0.490000000532843  0.489999999921839  0.490000000241531  0.489999999991996  0.490000000902751  0.48999999984531  0.489999999241594  0.490000001588778  0.489999997884089  0.48999999922427  0.49000000125701  0.490000000690629  0.489999999739826  0.489999999776275  0.489999999854536  0.490000000917775  0.489999999671678  0.490000001558843  0.490000000341387  0.490000000224442  0.489999999530388  0.490000000249995  0.489999999199839  0.490000000921863  0.489999999742636  0.490000000302621  0.490000002511313  0.489999998602191  0.489999999983544  0.490000000287765  0.490000000181001  0.48999999965569  0.490000000490056  0.490000000124532  0.490000000914692  0.49000000051456  0.490000000376544  0.48999999978688  0.489999999709203  0.490000000377229  0.490000000262025  0.489999997738423  0.489999999509187  0.490000000018213  0.489999999949939  0.489999999875628  0.490000000452894  0.489999999616314  0.490000000578967  0.489999999463254  0.489999999802005  0.490000000283915  0.490000000541585  0.48999999990442  0.489999999117268  0.489999999021579  0.490000000140812  0.490000000102679  0.490000000065911  0.489999999976892  0.490000000015718  
0.490000000095336  0.490000000137668  0.489999987661243  0.490000000247839  0.490000000033583  0.490000000130442  0.490000000149161  0.489999999938662  0.489999999995594  0.489999999925817  0.490000000874466  0.489999999720966  0.489999999824065  0.48999999998579  0.490000000096262  0.489999998854324  0.490000000075964  0.490000000489181  0.49000000027101  0.489999999434696  0.490000000017236  0.490000000552024  0.49000000030565  0.496338013277775  0.490000000480262  0.489999999243161  0.490000000153316  0.489999998885906  0.490000000518514  0.489999999359129  0.489999999991704  0.489999999695819  0.489999999635546  0.490000000950522  0.490000000296371  0.490000000228293  0.490000001126037  0.490000000865479  0.49000000051998  0.48999999904727  0.489999999948426  0.489999999979022  0.490000000112986  0.490000000620835  0.490000000445241  0.490000000134484  0.489999999586551  0.490000000262232  0.490000000021796  0.490000001394483  0.490000000635097  0.489999999836566  0.489999999154081  0.490000000337246  0.490000001187852  0.489999998878564  0.489999999096405  0.490000000981929  0.489999998957162  0.490000001067062  0.489999998844505  0.490000001044292  0.489999999123831  0.49000000027102  0.490000000318108  0.490000000155898  0.490000000173382  0.490000000110903  0.489999999845495  0.489999999861517  0.489999999139815  0.490000000255125  0.490000000591671  0.489999999913836  0.48999999948861  0.489999999408942  0.490000000066501  0.490000000642936  0.490000000025905  0.490000002773976  0.489999999907329  0.489999999900532  0.490000000000911  0.489999999224468  0.490000000382508  0.489999999369288  0.490000000464843  0.490000000459449  0.490000005489471  0.490000006154692  0.490000006829523  0.49000000008141  0.490000000065002  0.489999999993571  
0.490000000007349  0.490000000306517  0.489999999749252  0.489999999082821  0.49000000020781  0.490000000269076  0.49000000110965  0.490000000363509  0.489999999466037  0.489999996541051  0.489999999543345  0.490000000495854  0.489999999895679  0.490000004955002  0.489999999090874  0.489999999889797  0.490000000172987  0.490000000076086  0.489999999505542  0.48999999985155  0.490000000839338  0.490000000129879  0.490000000004574  0.49673121998585  0.490000000134357  0.48999999989906  0.489999999063037  0.489999999052825  0.490000000079578  0.49000000041392  0.489999999736479  0.490000000066122  0.489999999296071  0.489999999896019  0.490000000073179  0.489999999825129  0.490000000218773  0.489999999936068  0.489999999824663  0.490000001693118  0.490000001698513  0.490000000885054  0.489999999423758  0.489999999825945  0.49000000003374  0.490000000959236  0.490000000091763  0.489999999546972  0.490000000323523  0.489999999211191  0.489999999778523  0.490000000428817  0.490000000183827  0.489999999777206  0.48999999877954  0.490000000157143  0.490000000882967  0.489999999612773  0.48999999952056  0.489999999990557  0.489999999764816  0.489999999905173  0.490000001255408  0.490000000145307  0.489999999656388  0.490000000555247  0.490000000954952  0.490000001069077  0.490000000514476  0.490000000413389  0.489999999801096  0.48999999976123  0.490000000602306  0.490000000248718  0.489999999876738  0.490000000846862  0.489999999851165  0.489999999830189  0.49000000161819  0.489999999518852  0.489999999607567  0.490000000734948  0.489999999621501  0.490000000229765  0.489999999290146  0.489999999896751  0.490000000368638  0.490000000214872  0.490000000171008  0.489999999836339  0.489999999864714  0.48999999997823  0.489999999980152  0.489999999980427  
0.489999999710596  0.490000000076937  0.490000000450604  0.490000003133592  0.489999998661046  0.490000000133192  0.490000002494669  0.490000000070985  0.490000000365919  0.490000000014537  0.490000000068781  0.489999999839843  0.48999999992093  0.489999999690577  0.490000000151752  0.489999999893379  0.490000000822925  0.489999999993426  0.489999999483309  0.489999999530182  0.490000000010112  0.490000000098833  0.490000000048833  0.496864480745734  0.490000000308213  0.489999999716327  0.490000000536615  0.489999999876093  0.490000000466131  0.490000000449992  0.490000000451331  0.490000000456756  0.489999999768483  0.490000000947893  0.48999999982384  0.490000000527264  0.490000000840601  0.489999998635274  0.49000000054343  0.490000001079283  0.489999999598357  0.489999999299666  0.489999999400441  0.489999998418218  0.490000000286949  0.490000000553017  0.489999999375613  0.489999999841215  0.490000000305697  0.489999999774475  0.489999998612109  0.48999999908577  0.490000000095979  0.490000001276496  0.490000002102154  0.490000000328375  0.489999999807675  0.489999999343325  0.490000000919264  0.490000000339753  0.489999999401974  0.490000001399202  0.489999999499037  0.490000000243517  0.490000000340557  0.490000000123426  0.490000000264819  0.490000000286625  0.490000000033929  0.490000000135114  0.489999999136837  0.490000000276353  0.490000000505134  0.490000000228158  0.4899999999137  0.489999999777866  0.490000000224445  0.490000000697934  0.489999999806519  0.490000002516934  0.48999999894144  0.490000000221294  0.489999999964518  0.489999998695192  0.489999999764025  0.489999999889105  0.489999999023889  0.490000004519296  0.49000000027652  0.490000000296274  0.489999999942778  0.489999999960968  0.489999999977457  0.489999999981432  
0.48999999987481  0.489999999866764  0.48999999989412  0.489999999871719  0.489999999483035  0.490000002697878  0.489999995218018  0.490000000212747  0.490000000046229  0.489999994399885  0.490000000290236  0.489999999954548  0.490000000465587  0.490000005160477  0.490000000461454  0.489999999983346  0.489999999604041  0.490000000079797  0.489999999820346  0.489999999722254  0.489999999692281  0.490000000242943  0.490000000490054  0.497287277225342  0.489999998786475  0.489999999919424  0.48999999931675  0.490000000937581  0.490000000168608  0.489999999040993  0.49000000135653  0.489999999904748  0.490000000901234  0.489999999525599  0.489999999714604  0.490000001078196  0.490000001427857  0.48999999993384  0.490000000539535  0.489999998281832  0.490000003220803  0.490000000486129  0.489999999563595  0.490000000900137  0.489999999718179  0.490000000216501  0.489999999962985  0.489999999897471  0.489999998251142  0.490000000008108  0.489999998847241  0.489999999921923  0.489999999554706  0.490000000661349  0.490000000838192  0.490000000638863  0.489999999891293  0.490000000017172  0.489999999836478  0.490000000496294  0.489999999043371  0.490000000816898  0.490000000535202  0.490000000131645  0.489999999675097  0.49000000030893  0.49000000071523  0.490000000942574  0.49000000062502  0.490000000399925  0.490000000878766  0.489999999761182  0.490000000464405  0.490000000160551  0.489999999848171  0.490000000170671  0.490000000565633  0.489999999817118  0.489999999780999  0.490000000263134  0.489999999670572  0.49000000022064  0.490000000276528  0.490000000262108  0.490000000632086  0.490000000121311  0.490000000490894  0.48999999972843  0.489999999911481  0.489999999927982  0.48999999994336  0.490000000505338  0.490000000030841  0.490000000314586  
0.490000000041314  0.489999999897402  0.489999999890203  0.489999999268193  0.490000000004697  0.490000000009179  0.489999999876824  0.489999999992658  0.490000000106413  0.490000000097285  0.490000000046046  0.490000000377394  0.49000000002154  0.489999999977161  0.489999999602549  0.489999999693085  0.489999999977447  0.489999999734041  0.490000000549624  0.490000000720782  0.490000000706972  0.490000000099925  0.490000000197545  0.497701975259679  0.489999999604814  0.489999999699133  0.489999999998304  0.489999999547751  0.490000000430629  0.490000000339788  0.490000000874153  0.490000000505191  0.490000000033994  0.490000000752353  0.489999999880232  0.489999999469376  0.490000000863474  0.490000001206294  0.490000000290026  0.490000001091867  0.489999998221886  0.489999999429505  0.49000000041047  0.49000000047221  0.489999999049621  0.489999997734094  0.489999998155406  0.489999999000808  0.490000002039349  0.489999999907591  0.490000000081567  0.490000000642642  0.490000000960429  0.490000000985232  0.490000000666829  0.489999999729974  0.490000000128853  0.489999999971969  0.489999998187481  0.489999999935857  0.489999998333004  0.490000001360835  0.4899999994575  0.490000000287379  0.49000000021426  0.49000000006628  0.49000000030192  0.489999999847139  0.49000000011257  0.490000000379628  0.489999998925224  0.490000000311602  0.490000000442639  0.49000000008474  0.489999999799303  0.489999999881191  0.489999999973087  0.490000000477137  0.489999999992495  0.490000001296078  0.490000000486603  0.490000000787127  0.490000001779053  0.489999999979884  0.4899999991448  0.489999999342123  0.489999999304798  0.489999999845717  0.489999999777817  0.489999999968189  0.490000000273611  0.490000000105442  0.490000000058545  0.489999999999507  
0.490000000042892  0.490000000107902  0.489999999980452  0.48999999997746  0.489999999850829  0.48999999968081  0.48999999862896  0.48999999744735  0.489999999703558  0.490000000474764  0.489999999955006  0.490000000422694  0.489999999507245  0.489999999691052  0.490000001208544  0.490000000147513  0.48999999842282  0.489999999767021  0.4899999999045  0.489999999750787  0.490000000097277  0.489999999009219  0.490000000486458  0.498102935175758  0.489999999777483  0.489999998500232  0.489999997904142  0.490000000582415  0.490000000173169  0.490000000536932  0.489999998896977  0.489999999893331  0.490000000144468  0.490000000228347  0.490000001155936  0.489999999440262  0.489999999772904  0.489999999919726  0.490000000365226  0.489999998404014  0.489999999170141  0.49000000002855  0.490000000036295  0.489999999795058  0.490000000000046  0.489999999709739  0.489999999757188  0.490000002029147  0.490000000409186  0.490000000038105  0.490000001322668  0.489999999413411  0.489999999861805  0.489999999171667  0.489999999384649  0.490000000500952  0.489999999357671  0.489999999397024  0.49000000027411  0.489999998315226  0.490000000900442  0.49000000077633  0.490000000482315  0.490000000505276  0.489999999814437  0.490000000300425  0.4900000002685  0.490000000701927  0.490000000490766  0.490000000326009  0.489999999793581  0.489999999996143  0.490000000129603  0.489999999656171  0.490000000619027  0.490000000279911  0.490000000981353  0.489999999671695  0.490000000107827  0.490000000114392  0.489999999242892  0.490000000633284  0.489999999830241  0.490000000887506  0.48999999844763  0.490000000700424  0.489999998820493  0.490000000750155  0.4900000001853  0.489999998946084  0.490000000105937  0.490000000075648  0.489999999873343  0.489999999594558  
0.490000000218569  0.490000000111122  0.490000000182344  0.490000000259249  0.489999999741318  0.48999999951938  0.49000000155614  0.49000000161874  0.489999999439978  0.490000000178373  0.489999999984708  0.489999999668037  0.489999998759908  0.490000001653999  0.48999999992368  0.489999999807386  0.489999999821346  0.489999999716472  0.490000000042757  0.489999999787171  0.489999998845852  0.489999999914687  0.489999999969893  0.500145690231045  0.490000000012207  0.489999999479709  0.490000000177668  0.490000001520077  0.490000000013539  0.490000000590022  0.489999999809438  0.490000000339389  0.48999999981963  0.490000001172734  0.490000000091503  0.490000000154469  0.49000000207958  0.489999999280432  0.489999998048176  0.490000000640442  0.490000000069204  0.489999999547638  0.490000000979083  0.489999999641617  0.490000000378033  0.489999999577048  0.489999998950333  0.49000000202225  0.490000000984693  0.489999998965423  0.489999999114021  0.489999999886468  0.489999999790448  0.48999999980693  0.489999998485468  0.490000000000082  0.490000000866005  0.490000000164229  0.489999999680334  0.489999998729878  0.489999999642472  0.490000001260389  0.489999999903595  0.490000000803181  0.490000000146853  0.489999999905668  0.489999999914873  0.489999999597797  0.490000000655625  0.49000000028897  0.489999998928996  0.489999999273658  0.489999999170978  0.49000000003723  0.489999999745729  0.490000000072083  0.489999998714872  0.489999999636044  0.490000000140731  0.48999999946428  0.490000000131499  0.489999999360409  0.489999999958833  0.489999999495203  0.490000000315484  0.489999999581301  0.489999999966396  0.490000000288217  0.489999999780879  0.490000000158237  0.489999998650039  0.49000000014191  0.489999999948275  0.490000000322848  
0.489999996426456  0.490000000224254  0.489999999573211  0.489999999637715  0.49000000091929  0.490000000008445  0.490000000762924  0.489999996390052  0.490000000206826  0.4899999998882  0.48999999956592  0.490000000084638  0.489999999531001  0.490000001303084  0.489999999233326  0.490000003120761  0.489999999977539  0.490000001597523  0.490000001475935  0.489999999140748  0.489999999129941  0.489999998986293  0.490000000775887  0.500310677910089  0.489999999401636  0.490000000087862  0.489999999267049  0.490000000438099  0.490000000150589  0.490000000780866  0.490000000305994  0.490000000050568  0.490000000645416  0.489999999914759  0.490000000298951  0.489999999705251  0.489999999964616  0.48999999795213  0.490000000147604  0.489999998938951  0.489999999484906  0.490000000042153  0.489999999920502  0.489999999849333  0.489999999325065  0.490000001294597  0.489999999357574  0.490000000064471  0.490000000691548  0.490000000372247  0.49000000053234  0.489999999910639  0.490000001585422  0.490000001148239  0.490000000207101  0.489999999763826  0.490000000725289  0.489999998597306  0.489999999098614  0.489999999470858  0.489999999248167  0.49030291862897  0.490000000183847  0.490000000168753  0.490000000501595  0.489999999678966  0.490000001279378  0.489999998329137  0.489999999964833  0.490000001607063  0.490000000013614  0.489999998671861  0.489999999440883  0.489999999941654  0.490000000802696  0.49000000041435  0.490000000117669  0.490000000114364  0.489999999913306  0.490000000484275  0.489999999776933  0.489999999666356  0.489999999075786  0.490000001433579  0.490000002409476  0.490000000346465  0.49000000001403  0.490000002644983  0.49000000012709  0.490000000005557  0.489999999260151  0.49000000028066  0.489999999964169  0.489999999145399  
0.490000000835146  0.490000000102621  0.490000000311019  0.48999999937725  0.48999999944286  0.489999999512483  0.489999999357599  0.489999999312919  0.489999998884763  0.489999998656471  0.489999999668319  0.490000002042218  0.490000000036404  0.4899999991296  0.489999999869253  0.490000001941358  0.489999999844891  0.490000000252885  0.490000000868155  0.49000000001849  0.490000000072816  0.489999999543334  0.489999999486226  0.50029666312244  0.489999999855041  0.490000000365451  0.489999999336109  0.489999999011381  0.490000000547229  0.489999999589627  0.489999999680503  0.490000000163878  0.490000000769  0.490000001173535  0.490000000163668  0.490000000204966  0.490000000285736  0.48999999982255  0.490000000760201  0.490000000187454  0.490000001316004  0.490000000197862  0.489999999741396  0.489999999757072  0.490000000132895  0.489999999494432  0.490000000102094  0.490000000405817  0.490000000465387  0.490000000352181  0.489999999844537  0.49000000029304  0.489999999003349  0.489999999272705  0.490000000285018  0.490000000224695  0.490000000716516  0.489999999736257  0.490000000757519  0.489999999978675  0.489999999837879  0.490188951353821  0.490089321504147  0.490002284723033  0.489931617077103  0.489999999116582  0.490000001266545  0.489999999731962  0.489999998234657  0.490000000432567  0.489999999933419  0.490000000188729  0.490000000182679  0.490000000184239  0.490000000082314  0.49000000022511  0.490000000315634  0.489999999370645  0.49000000018858  0.48999999916701  0.489999999985534  0.489999999745424  0.489999999404248  0.490000000557483  0.490000001245593  0.490000000092211  0.490000001644662  0.489999998950132  0.48999999968687  0.489999999550148  0.489999999867586  0.490000000284027  0.49000000000318  0.490000000118459  
0.49000000087188  0.490000000915499  0.490000001034314  0.490000001161241  0.489999998809185  0.489999998784463  0.489999998760271  0.489999999392543  0.489999999396143  0.489999999807598  0.490000000467142  0.490000002040225  0.4900000014163  0.489999999762328  0.489999998621829  0.490000000435268  0.490000000962307  0.490000000430369  0.489999999231504  0.48999999962208  0.490000000438229  0.490000000208092  0.489999999490962  0.500423198261213  0.490000000203361  0.490000000078952  0.490000000567603  0.490000000693341  0.490000000155715  0.490000000071901  0.490000000212544  0.490000000616052  0.490000000214225  0.489999999563232  0.489999999417274  0.489999999844691  0.489999999610682  0.490000000184532  0.489999998880693  0.490000000139455  0.489999999951692  0.49000000009089  0.489999999005161  0.489999999126355  0.489999999853419  0.490000000302253  0.489999999105365  0.489999999794422  0.490000000775036  0.4900000004997  0.489999999869844  0.489999998932447  0.489999999364428  0.489999999413371  0.49000000028728  0.489999999195382  0.489999999576831  0.489999999928324  0.489999999833191  0.490467029555567  0.490263838125975  0.490048900581085  0.489998534763058  0.489922309459024  0.489819914669149  0.489742861084317  0.48999999966447  0.490000000136925  0.489999999615664  0.489999998253897  0.48999999947725  0.489999999772679  0.489999999983589  0.489999999518144  0.490000000368334  0.490000000385362  0.490000000256112  0.489999999844538  0.490000000638406  0.489999998804391  0.489999999785734  0.489999999307544  0.489999999338835  0.490000002093685  0.490000000342829  0.49000000037456  0.490000000665926  0.490000000246436  0.490000000740811  0.489999999643606  0.49000000168417  0.490000000069352  0.490000000115265  0.490000000080346  
0.489999999791177  0.489999999916326  0.490000000035969  0.490000000198736  0.49000000016657  0.489999997479125  0.489999997595323  0.489999997716516  0.490000000978631  0.489999999120232  0.489999999877872  0.489999999990063  0.489999998235582  0.489999998229624  0.490000002624146  0.489999999922201  0.490000000885408  0.490000000845728  0.489999999671759  0.490000001283743  0.489999999983736  0.48999999887547  0.489999998095743  0.500512753003756  0.489999999586303  0.489999998751737  0.490000000007221  0.489999999348726  0.490000000735298  0.490000000323383  0.490000000535465  0.490000000726949  0.490000000236591  0.490000000744212  0.489999999974948  0.489999999734516  0.490000001476159  0.490000000349058  0.489999999155181  0.489999999849969  0.490000002374144  0.489999999941226  0.490000000349228  0.490000000379883  0.489999999179617  0.490000000575253  0.489999999981785  0.490000000581248  0.489999999537624  0.489999999190519  0.490000000261851  0.490000000029353  0.490000000803975  0.489999999755188  0.489999999532511  0.490000000879558  0.489999999302786  0.489999999523896  0.490606789593026  0.490401721405794  0.490192984643837  0.489985691711374  0.489876524364306  0.489790236499915  0.489678870553243  0.489580592005266  0.48999999975512  0.490000001366688  0.48999999948137  0.490000000774826  0.490000000682047  0.489999999942873  0.489999999394599  0.489999999132826  0.490000000172712  0.490000000486734  0.49000000046428  0.490000000003325  0.489999999602563  0.489999999986569  0.489999999750717  0.48999999999842  0.490000000509372  0.489999999770648  0.490000001035307  0.490000000781256  0.490000000157525  0.489999999333007  0.489999999395036  0.490000001720678  0.49000000008319  0.490000000135125  0.490000000181007  0.489999997248556  
0.489999999805715  0.490000000250273  0.490000000256144  0.490000000262313  0.490000000978007  0.490000001054087  0.489999997253192  0.489999997357738  0.489999997467553  0.489999999304068  0.489999999908552  0.489999999809923  0.490000000216457  0.490000000135612  0.489999999279391  0.48999999914268  0.489999999897558  0.489999998806476  0.490000000065691  0.490000001186559  0.490000000323426  0.490000000994737  0.490000002023566  0.500317392275493  0.49000000012741  0.489999999571098  0.489999999061496  0.490000001042468  0.490000000072217  0.489999999849026  0.490000000465325  0.489999999537314  0.489999999365316  0.490000000848888  0.490000000017087  0.490000000267769  0.490000000522494  0.490000000097914  0.489999999295135  0.490000000302756  0.490000000051229  0.489999999993378  0.490000000764767  0.489999999349823  0.48999999979159  0.490000000569477  0.490000000067219  0.490000000812639  0.49000000022904  0.490000000676037  0.48999999919839  0.490000000274731  0.490000000721993  0.490000001116264  0.490000000387282  0.490000000085228  0.49085494430058  0.490718406728954  0.490530344446144  0.490322729672892  0.490127857748148  0.489936460245377  0.489733483381235  0.489574560271995  0.489433656576083  0.489384755382144  0.489999999405673  0.490000000726845  0.489999999612741  0.490000000026157  0.489999999982248  0.489999999861112  0.490000000087717  0.489999999889306  0.489999999969704  0.489999999800919  0.490000000943096  0.490000000787198  0.490000000347137  0.489999999671385  0.489999999910424  0.489999999715867  0.489999999374012  0.489999998568751  0.490000000781502  0.490000000021711  0.490000000386806  0.489999999260917  0.48999999981895  0.490000000291269  0.49000000067853  0.4900000003652  0.489999999973822  0.489999999950518  
0.489999999793399  0.489999999960287  0.489999999697617  0.489999999732953  0.489999999770678  0.489999999811007  0.490000000304782  0.490000000290006  0.489999999010506  0.490000000519902  0.48999999930375  0.490000000138377  0.490000000268148  0.48999999989865  0.489999999212812  0.490000001114591  0.490000003079335  0.490000000134254  0.489999998338787  0.490000001455471  0.490000000050108  0.489999999846047  0.489999998566243  0.50006612595302  0.490000000311946  0.48999999959777  0.490000000494434  0.489999999788877  0.490000001049771  0.489999999940995  0.490000000905838  0.49000000068327  0.489999999997415  0.489999999834313  0.489999999864154  0.489999999948747  0.490000000743123  0.490000000277856  0.489999998922571  0.48999999933029  0.489999997415655  0.489999999819232  0.490000000291564  0.490000000012645  0.489999999523302  0.490000000186587  0.490000001023825  0.489999999232034  0.489999999669654  0.489999999795972  0.489999999205223  0.490000000426702  0.4900000015172  0.490000000696203  0.490968845616148  0.490935585563738  0.490775363600923  0.490618479496504  0.490412039036372  0.490187287063438  0.489964407255142  0.489727302118261  0.489519685065274  0.489348456753698  0.489191266197769  0.489050464156171  0.490000000231064  0.490000001169928  0.489999999925774  0.490000000213712  0.490000000534124  0.489999999866227  0.48890394903136  0.488963420608714  0.489031720047851  0.489999999310932  0.489999999317455  0.489999999833052  0.490000000878716  0.490000000227288  0.489999998857275  0.489999999787198  0.490000000660946  0.490000000038777  0.490000001052518  0.489999999395021  0.490000000392966  0.490000001220442  0.490000001255767  0.490000001309209  0.490000001346161  0.490000001358115  0.490000001349141  0.490000001325807  
0.490000000042035  0.490000000023502  0.490000000020126  0.489999999983108  0.489999996399596  0.489999996530938  0.489999996668585  0.489999999972325  0.48999999997304  0.490000000689807  0.490000000909741  0.490000000464105  0.490000001111635  0.490000001104161  0.490000001495089  0.489999999369396  0.490000002724122  0.489999999705626  0.489999998172126  0.490000001871629  0.489999999939821  0.489999998445433  0.490000000351494  0.500328523102358  0.489999999202461  0.489999999428777  0.490000000178669  0.490000000189928  0.48999999953063  0.489999999622133  0.490000000185917  0.489999999934621  0.490000000446016  0.490000000088365  0.490000000890613  0.489999999662591  0.490000000286184  0.490000000341829  0.489999999860115  0.490000000742565  0.490000000180546  0.489999999826445  0.490000000809386  0.489999999983297  0.490000000458983  0.490000000068162  0.490000000164391  0.490000000811802  0.490000000707263  0.490000000565368  0.489999999259143  0.490000000856521  0.489999998088184  0.490930350616314  0.490897764094589  0.49079244187055  0.490670721028924  0.490485145111853  0.490244423393429  0.490002717357598  0.489707411807371  0.48944604518034  0.489247754369698  0.489077219027908  0.488913305126299  0.48876213014908  0.489460056480072  0.489999999942179  0.489999999601366  0.488593144566819  0.488611801471353  0.488647902116419  0.488715217043404  0.488795291956773  0.488894116932923  0.489999998310774  0.490000001065981  0.489999999672078  0.490000000387652  0.489999999785834  0.490000000302433  0.489999999615598  0.49000000037323  0.489999999834735  0.489999999554818  0.490000000146821  0.490000000117348  0.489999999981453  0.489999999488991  0.489999999149631  0.489999998917635  0.489999998884653  0.489999998818138  0.489999998773447  
0.490000005376732  0.490000000837517  0.49000000089634  0.490000000958517  0.490000000048574  0.490000000996228  0.490000001068249  0.490000001144397  0.490000001224804  0.490000000237509  0.49000000046018  0.490000000762448  0.490000000505105  0.490000000188951  0.489999999662691  0.489999999524523  0.489999999015135  0.489999999814005  0.490000000811932  0.490000000097147  0.489999999620256  0.490000001210137  0.489999999937795  0.499989186049351  0.490000000710906  0.48999999883391  0.489999998991298  0.490000001421966  0.489999999939966  0.490000000242274  0.490000000730337  0.489999999508405  0.489999999662518  0.489999999782728  0.489999996987498  0.490000002809619  0.490000000486901  0.490000000197181  0.489999999947247  0.490000001960193  0.490000001446025  0.490000000006663  0.490000000336913  0.489999999789101  0.490000000105436  0.489999999920592  0.490000000158983  0.489999999411547  0.489999999413157  0.489999999761645  0.489999998640107  0.489999999881892  0.490886106240962  0.490847322928921  0.490793505546858  0.490679174573294  0.490545815690175  0.490314919593147  0.490038529065968  0.489713345660014  0.489376326640941  0.489099885360745  0.48891626905626  0.488752729999997  0.48859045883224  0.488424771642474  0.488766929651074  0.488705271983484  0.488709895109534  0.488755033543117  0.488377568388634  0.488419860792329  0.48850221019355  0.48859826144723  0.488714085068448  0.490000000602076  0.490000000305602  0.490000000859518  0.489999999825726  0.490000000349748  0.489999999665521  0.49000000074081  0.489999999817405  0.490000000277847  0.49000000017313  0.490000000801091  0.490000000871049  0.489999998549904  0.489999998381174  0.489999998343273  0.489999998406145  0.489999998506184  0.489999998616088  0.48999999872518  
0.490000000103593  0.490000000193214  0.490000000194533  0.4900000001958  0.490000000196985  0.490000000198045  0.490000000800141  0.489999999028341  0.489999998986476  0.490000001029184  0.489999999836982  0.489999996286568  0.490000000270164  0.489999999827586  0.490000001157644  0.489999999150225  0.490000000260258  0.490000000614157  0.490000001049282  0.490000001030658  0.489999999813858  0.490000001490138  0.489999999638442  0.499543397492855  0.489999999330965  0.490000000293236  0.489999998962017  0.489999999099539  0.489999999828164  0.490000000373711  0.489999999123432  0.490000000536404  0.48988924526718  0.488930863868996  0.488115723448329  0.488056858443059  0.48946718288498  0.490836420564331  0.49030125655067  0.485871207526945  0.487066644930869  0.48676339477805  0.488341956513758  0.490981771671244  0.490000000197086  0.489999999627911  0.489999999600028  0.490000000350169  0.490000001320278  0.490000000735928  0.489999999753277  0.490000001668301  0.490751017039732  0.490724704633921  0.490652317587872  0.490521421166113  0.490350544323606  0.490073183623527  0.489707999093294  0.489337675146116  0.488973882593661  0.488693943615788  0.488532481761041  0.48838211045021  0.487878037106721  0.487719972048752  0.488488507398971  0.488470576985318  0.488511376144753  0.488553839949018  0.488630748327934  0.488712279004732  0.488820921713477  0.488955245334798  0.488507226588739  0.490000000348934  0.489999999415564  0.489999999949871  0.489999998264054  0.490000001810162  0.490000000863522  0.490000001440027  0.490000000591743  0.490000000053124  0.49000000103166  0.490000000007389  0.489999999992563  0.489999999570737  0.489999999518862  0.489999999447557  0.489999999402175  0.489999999366665  0.489999999337002  0.489999999312902  
0.49000000092983  0.489999998348654  0.4899999982958  0.490000001079744  0.490000001148237  0.490000001219972  0.490000001294863  0.490000001372793  0.4900000001294  0.490000000000684  0.490000000349984  0.490000000635284  0.48999999987653  0.489999999886933  0.49000000075438  0.490000001252771  0.489999999162236  0.490000000260442  0.48999999933784  0.490000003878738  0.489999999850296  0.489999999901493  0.489999998148266  0.499717341195373  0.490000000521514  0.489999999975691  0.489999999333146  0.490000000229526  0.489999999252327  0.489999999363553  0.492178043401738  0.491176576368347  0.490041309193448  0.487933350351537  0.48541507805865  0.483360084358012  0.481929877914986  0.480124972669986  0.476405640942067  0.47137304273027  0.469696964475649  0.474092905618471  0.486332536907239  0.492590982152805  0.491332589861587  0.489999999972699  0.489999999378063  0.489999999885701  0.489999999895497  0.489999999527202  0.489999999316381  0.49051744289096  0.490551110394521  0.490519361703089  0.490422037141699  0.490257635756528  0.490015015231918  0.489676295936114  0.489263638522167  0.488867343745839  0.488497359152576  0.488223368079054  0.487870317697829  0.487623932458151  0.487401608470365  0.487271675928373  0.488167631617962  0.488187796146572  0.488237971660035  0.488335494892417  0.488389533364253  0.488272753335237  0.48811578288778  0.488439500475719  0.488535685222841  0.489999998806643  0.489999999522723  0.489999999516856  0.489999999279901  0.490000000005213  0.490000000327179  0.490000001548634  0.490000000199682  0.489999999255077  0.489999999950958  0.489999999557593  0.490000000508223  0.489999999750234  0.489999999297666  0.489999999259444  0.489999999286524  0.489999999321855  0.489999999354763  0.489999999383742  
0.489999999991623  0.49000000052307  0.489999998892487  0.489999999404958  0.48999999941189  0.490000000192701  0.490000000420959  0.490000000388409  0.490000000353981  0.489999999716935  0.489999998431015  0.489999999976279  0.490000001239528  0.490000000441644  0.489999999087752  0.490000000606865  0.4900000008952  0.490000001918668  0.490000000953631  0.490000001132631  0.489999999355364  0.490000000377479  0.490000004721609  0.499490073418079  0.489999998363388  0.490000000932207  0.490000001739359  0.490000000391367  0.490000000801995  0.490000000208055  0.491458007926124  0.490553825392952  0.490025603273208  0.487117008815791  0.48342804657241  0.479607573715329  0.475286595208592  0.469825845538193  0.462233692675676  0.452518880224943  0.445950945583364  0.452690552745129  0.472931593490373  0.488405158143327  0.48725299162505  0.487001724551442  0.489491307555416  0.4894707962588  0.489906931880287  0.490243493032151  0.490332542520012  0.49065779091186  0.490307931820897  0.490222089790016  0.490072236298668  0.489830281192293  0.48947205978972  0.489109339664625  0.488700379734047  0.488307113970498  0.487947893588413  0.487604854344424  0.487338742789545  0.48710464335562  0.486898539615209  0.486784811754587  0.486812507455098  0.487937374573485  0.488031343847074  0.488077877490891  0.488203478669201  0.488132531471227  0.488045002400043  0.488256847824222  0.488373953051052  0.489999999296037  0.490000001009549  0.490000000527487  0.490000000053395  0.489999999535566  0.489999999778507  0.489999999785315  0.489999999312154  0.49000000017258  0.490000001063117  0.489999998727414  0.489999998822404  0.490000001225225  0.49000000124913  0.490000001301415  0.49000000139122  0.490000001505698  0.490000001630925  0.49000000175724  
0.489999999995471  0.490000000481032  0.490000000527764  0.490000000559878  0.490000000289987  0.49000000155765  0.489999997570176  0.489999997467443  0.490000000521889  0.490000000716567  0.490000000573312  0.490000001426755  0.490000000984725  0.490000000170531  0.489999999911952  0.489999999406706  0.489999999475927  0.490000000083399  0.49000000393652  0.489999999317016  0.489999999440715  0.490000005393581  0.489999999404549  0.499020535647079  0.489999998546358  0.489999999476335  0.489999998036853  0.490000000214018  0.490000000537407  0.490000001138375  0.490246668908179  0.489201318529042  0.487914206168935  0.484948089437373  0.480873698070345  0.475872914706724  0.469704862433658  0.462036290504282  0.451718223669221  0.436020227243571  0.421481254490158  0.425956455692046  0.452128553304515  0.470371350523103  0.478742975726203  0.482879029044391  0.486812937134578  0.487063629725738  0.487419544020546  0.488221989927194  0.48916059307667  0.490005622189291  0.489882527066504  0.489676671765997  0.489432539689417  0.489154920088575  0.488759380920058  0.488373438869162  0.487984814236845  0.487639149238118  0.487265410578351  0.487071583495814  0.486841766437124  0.486636308503782  0.486437126559235  0.486344616312051  0.486306903881295  0.487576444090537  0.487717591865336  0.487838741012811  0.487989504880422  0.488103813671023  0.487879765977139  0.488079426123493  0.489999999675366  0.490000000074295  0.489999999927979  0.490000000018672  0.489999999939036  0.48999999980636  0.490000000630237  0.489999999303345  0.490000000954343  0.490000000816445  0.489999999371693  0.489999999456924  0.490000001020871  0.490000001749084  0.490000000882984  0.490000000600635  0.490000000499946  0.490000000473664  0.490000000485689  0.49000000051966  
0.490000000133697  0.490000000077087  0.490000000098676  0.490000000121643  0.490000000146085  0.490000000172102  0.489999999210294  0.489999999234256  0.489999999728964  0.490000001759847  0.49000000074891  0.490000001138901  0.489999999382179  0.490000000705823  0.490000000646719  0.490000000320531  0.489999999760624  0.49000000198004  0.490000000642799  0.490000001274929  0.490000002819943  0.490000000704591  0.490000002402276  0.49863115854966  0.490000000624768  0.489999999752512  0.490000000493794  0.490000000705725  0.489999999288422  0.490000000076381  0.489974340451707  0.489803715684014  0.489626919285731  0.489329425365412  0.489153277418184  0.472008616081469  0.464833996480603  0.456017962973885  0.445138961769187  0.429973307858347  0.420032671006216  0.423794649404157  0.441704047179038  0.458856608316793  0.470259980440915  0.48846213632435  0.488445133167944  0.488527937255716  0.488654073027174  0.488771489464761  0.488999112437739  0.489085998832078  0.489027853882214  0.488846056467609  0.488602172173284  0.488344801264287  0.488023765156415  0.487586265272208  0.487239142950211  0.486948597495451  0.486621091173434  0.486374859640078  0.486182346301931  0.486006839922952  0.485824853620255  0.485750501037594  0.485755708680331  0.487198723806935  0.487393205220043  0.487590692111403  0.48746359413295  0.487873034527147  0.48805547749607  0.487920336904482  0.490000001895181  0.489999999908238  0.489999999672021  0.489999999899824  0.489999999315789  0.490000000278061  0.489999999211741  0.490000000169787  0.490000000288157  0.489999999445214  0.490000000820372  0.490000000143479  0.490000001910972  0.490000002088188  0.490000001332395  0.490000000831427  0.490000000478869  0.49000000021513  0.490000000006733  0.489999999834063  
0.489999997639676  0.489999999949799  0.489999999947307  0.489999999944507  0.489999999941343  0.489999999937749  0.489999999933645  0.489999999928935  0.4899999999235  0.49000000047078  0.489999999753487  0.490000000607049  0.490000000221989  0.489999998880648  0.489999999795444  0.489999998847043  0.490000001042201  0.490000000452081  0.489999999030997  0.490000002818049  0.490000000617781  0.490000000399462  0.490000000662911  0.497650555296174  0.490000000328352  0.489999998492076  0.490000000551875  0.49013076237057  0.490039086371953  0.489994551126163  0.48993181790407  0.489603975945525  0.48935826790441  0.48898025823803  0.475054661096066  0.469126755738122  0.461568828454403  0.453152420037706  0.440724528396936  0.431955188112855  0.427508914094583  0.430479018116502  0.438918125091282  0.452173225269544  0.464670137677403  0.487630774947443  0.487606995085779  0.487686774575608  0.487801538364338  0.487957732210503  0.488088601546933  0.488063151097062  0.488015074147339  0.487877523022566  0.487655829400989  0.48744928615568  0.487163358013116  0.486732455820206  0.486415310457858  0.486156948181285  0.485860124855239  0.485638962590289  0.485483781324173  0.485342492875441  0.48519198691066  0.485137106712622  0.485170025368089  0.486791467790237  0.487033860256314  0.487297957663146  0.487481819893701  0.487623789473015  0.487818950383336  0.488042333065285  0.489999999491178  0.490000000493907  0.490000000561148  0.489999998536118  0.49000000079284  0.490000000364482  0.49000000032752  0.490000000514006  0.489999999505531  0.489999999827022  0.489999999997404  0.490000000320192  0.489999998690346  0.490000000384214  0.490000000586993  0.490000000735393  0.490000000843799  0.49000000091698  0.490000000966119  0.490000000999908  
0.489999999755482  0.489999999769723  0.489999999780359  0.489999999792178  0.489999999805368  0.48999999982015  0.489999999836785  0.489999999855581  0.489999999876902  0.490000001248638  0.490000002050982  0.490000000677351  0.490000000067165  0.490000000031648  0.489999999559305  0.489999999439013  0.489999999877579  0.490000001075541  0.489999998870365  0.490000000944871  0.490000001648743  0.489999999467312  0.490000002007548  0.496545348084956  0.489999999809392  0.490000000802704  0.490193701396894  0.490048511083822  0.489978845380073  0.48985870328137  0.489640295842847  0.489310510165185  0.489053488337798  0.476224718567681  0.473127913281204  0.467547090619786  0.460076621019483  0.452019915533096  0.442504791818015  0.436370229106092  0.434188388855409  0.435470057018724  0.439611699870738  0.450309899803087  0.46198129830153  0.46982647771825  0.486680312283727  0.48682045513098  0.486860525891798  0.48698975702828  0.487102583354505  0.486999086310209  0.486950697934918  0.486843471405567  0.486640644356425  0.486503638590969  0.486244340806792  0.485829488304067  0.485544299674185  0.48532312572786  0.485057178178163  0.484874431519364  0.484748384169177  0.484652926585932  0.484536467645412  0.484510127505036  0.484574245152696  0.486425126922118  0.48665680919037  0.486934232170861  0.487159071172158  0.487400766641985  0.487624715984735  0.48791990964076  0.490000001543686  0.489999999970155  0.490000000722301  0.490000000604856  0.490000001337967  0.489999999178893  0.48999999971017  0.489999999278134  0.489999999919988  0.490000000938593  0.489999999410269  0.489999998979886  0.489999999586583  0.489999998883683  0.489999998714503  0.489999998497833  0.489999998266767  0.489999998028158  0.489999997785863  0.489999997542126  
0.489999999642245  0.489999999998545  0.490000000359925  0.490000000052164  0.490000000037929  0.490000000022868  0.490000000006914  0.489999999989987  0.489999999971985  0.489999999255892  0.490000000133076  0.490000002434196  0.489999999899794  0.489999999242879  0.489999998937656  0.489999999784615  0.489999999138463  0.490000000264782  0.489999999672928  0.490000002177844  0.489999999935175  0.489999995852973  0.490000000895546  0.495548540899391  0.489999999822587  0.49019630771407  0.490143757588375  0.489991307670878  0.489852915165029  0.489590512590944  0.489273331879034  0.488906318260345  0.488649279501159  0.47452788360643  0.471931312259523  0.46693175104107  0.460156893398006  0.451212239155186  0.445708895419243  0.441445097693483  0.439208339125624  0.44106309137368  0.442689409455816  0.449911300763956  0.461412433090813  0.468592241248935  0.48575917989621  0.485827777303124  0.48585413953481  0.485973641599379  0.486080047878598  0.485920985626079  0.485868611892112  0.485765337938424  0.485597621929622  0.48553195023336  0.485301789543883  0.484905233742999  0.484642596359679  0.484457681983772  0.484221004269858  0.48409734396798  0.484003800307763  0.48394097153844  0.483856995574013  0.483866311073653  0.483980165644268  0.485989684821642  0.485749747841275  0.486532103728453  0.486851786153389  0.487182217868482  0.487477825293988  0.490000000620676  0.490000000217242  0.489999999803432  0.489999999972687  0.490000000379192  0.489999999747336  0.489999998940658  0.489999999950936  0.490000001826454  0.489999999296398  0.489999997863287  0.490000000022293  0.48999999941934  0.489999996511333  0.490000000934634  0.490000000953383  0.490000000961096  0.490000000938492  0.490000000885975  0.490000000811119  0.49000000072198  
0.489999999041039  0.489999999771936  0.490000000186384  0.490000000172561  0.490000004575908  0.490000001165263  0.490000001164123  0.490000001161584  0.490000001157298  0.490000001536327  0.490000001380923  0.489999999596421  0.490000000117237  0.489999998312779  0.490000000529801  0.490000000112321  0.489999998376013  0.489999998556156  0.489999998571666  0.490000001238463  0.49000000051205  0.490000000170829  0.489999997789588  0.494073631309797  0.490000001608347  0.490112557056509  0.490076087688981  0.489980261768499  0.489635914918275  0.489261898998299  0.488874361119505  0.4884692472969  0.48819483197627  0.473571359306058  0.468708804812947  0.466828646304319  0.46080528258511  0.453880242185152  0.450332061030054  0.444867921042079  0.444759130071592  0.446243852106037  0.447356832344023  0.452283262712605  0.46226792409426  0.468212400235242  0.473483911051515  0.484829642191264  0.484834562484688  0.484916062944812  0.485037105346862  0.48483677226102  0.484779006151511  0.484692048137157  0.484547516316756  0.484532467149336  0.484326599882057  0.483971141861663  0.483714605294445  0.48356947995811  0.483361167852414  0.483284082466587  0.483258906458542  0.483244579292281  0.483177055867146  0.483223807447982  0.483381550131125  0.485690173239286  0.48577233324324  0.4861518936758  0.486532545018132  0.486943890359818  0.487329625901881  0.490000000965596  0.490000001812545  0.489999998471923  0.49000000063903  0.490000000362258  0.490000001662726  0.489999999753004  0.489999999672823  0.489999999089323  0.490000001233374  0.489999999324351  0.489999999341397  0.489999999717709  0.490000003098736  0.490000001526286  0.490000000481238  0.489999999684744  0.489999999110748  0.489999998699964  0.489999998401731  0.489999998179295  
0.490000001903422  0.490000000569685  0.490000000297746  0.489999999728071  0.490000000755407  0.490000000692026  0.490000001153218  0.490000001255894  0.490000001235102  0.490000000933413  0.490000000073491  0.490000003044678  0.489999999125816  0.490000000008051  0.49000000048083  0.49000000084738  0.490000000846817  0.490000001547449  0.489999999062545  0.490000001593818  0.489999999983928  0.490000000260334  0.490000000161802  0.492311886334363  0.489999999657295  0.490012841426003  0.489877757052488  0.489671392213417  0.489313858890896  0.48888408404488  0.488447939501328  0.488197816496219  0.487934997769292  0.473057247211006  0.468613093541825  0.464418478010363  0.45994235367855  0.456662891066343  0.45406976051813  0.44955144907314  0.449785493417708  0.451429272152759  0.453582415054663  0.455948305822355  0.464087364944432  0.469449428155678  0.473838303324207  0.483776895879676  0.483769952634864  0.483855140599796  0.483982408580255  0.483765524412177  0.483709108187816  0.48363092893466  0.483516312466335  0.483514444097276  0.483335034359274  0.483074689788838  0.48277877027502  0.482661248311017  0.482489098897089  0.48247972658814  0.48250457373917  0.482537536584592  0.482521282980539  0.482621675761801  0.482821640820619  0.485374344067069  0.485295539421084  0.485761087990646  0.48622042646165  0.486709745937828  0.487173004951897  0.490000000323097  0.489999999806448  0.48999999922786  0.489999998439348  0.48999999973459  0.489999999168455  0.490000000202296  0.490000000695675  0.489999999342755  0.490000000038012  0.489999999963414  0.49000000009184  0.489999999965857  0.489999998012173  0.490000000203993  0.490000000195164  0.49000000016518  0.490000000137701  0.490000000112535  0.490000000086907  0.490000000059495  
0.490000002751945  0.489999999724159  0.489999999707272  0.489999999636125  0.489999999711963  0.490000000222072  0.490000000226317  0.489999999560233  0.490000000377052  0.490000000133852  0.490000002096261  0.490000000423386  0.489999999494328  0.490000000459732  0.49000000039058  0.490000000872069  0.489999999384496  0.489999997918976  0.49000000030365  0.489999999999356  0.489999997816033  0.490000000785442  0.489999998129206  0.490628369945894  0.489997154002555  0.489928165718797  0.489781116417695  0.489548804714492  0.489210633829481  0.488787168153906  0.488296601959057  0.487842244808864  0.477816972076954  0.473304611775607  0.469065521124455  0.465700310555538  0.461907656419034  0.459710336632129  0.457752425229427  0.45691493182464  0.454591422702794  0.456149863545061  0.451575606557001  0.461531695144663  0.466559493169499  0.4712227476253  0.474644902665109  0.482721905316374  0.482711425307559  0.482791925159432  0.482922079340774  0.482728647074013  0.482658876783225  0.482602847034738  0.482509434919478  0.482505019906225  0.48234710821757  0.482134875494438  0.481849432711311  0.481747501756941  0.481609981678648  0.481678374020165  0.481771616602293  0.481845363027392  0.481893541434212  0.482037202845034  0.482683786427352  0.484866990301117  0.484866632157833  0.485394663963884  0.485910563042376  0.486479188667458  0.487114309935601  0.489999999849266  0.489999999969271  0.490000000779235  0.490000000192553  0.489999999808312  0.48999999932533  0.490000001357578  0.490000000686999  0.489999999360219  0.48999999974753  0.489999999943712  0.489999999526282  0.489999999340579  0.489999999678832  0.489999996605129  0.489999996899434  0.489999997241398  0.489999997489855  0.489999997649838  0.489999997748581  0.489999997808917  
0.489999999073215  0.490000000406695  0.490000000476737  0.49000000116857  0.490000001259796  0.490000000119855  0.490000000122938  0.489999999665183  0.48999999918503  0.490000000026628  0.490000000424762  0.490000000040347  0.489999999839698  0.489999999065159  0.49000000061705  0.489999999105745  0.490000000100365  0.490000000261265  0.489999998851551  0.490000001671438  0.489999998677768  0.489999997301186  0.490000001760312  0.490332633764809  0.489965019392048  0.4898557902189  0.489637588268467  0.48933707217664  0.488929258558796  0.488464176493356  0.487921061407647  0.487373402056861  0.477809331487166  0.473501528905307  0.469975912448232  0.465278719947729  0.462443780238842  0.462349439302563  0.461451277942044  0.460967647603177  0.458928477181337  0.460607135498356  0.4564031300683  0.46050147996894  0.469602657389187  0.473577694078164  0.476340373181336  0.478586411737039  0.48169410098257  0.481762675513543  0.481863583442954  0.481715408550477  0.481669707182898  0.48162891927518  0.481547652613128  0.481506597278005  0.481361835998891  0.481183573738305  0.48098594810755  0.480849135527565  0.480756121261259  0.480902783527805  0.481059282982167  0.481202324650416  0.481335212860063  0.481822881641197  0.482839058383571  0.484323624752848  0.484458996862995  0.485101861251353  0.485851180303546  0.486270644414351  0.490000000253041  0.490000000853245  0.489999999602025  0.49000000013892  0.489999998663466  0.490000000370412  0.489999999979455  0.489999998429557  0.490000000303791  0.490000000405208  0.489999999683213  0.490000001103733  0.490000000518273  0.489999999119925  0.489999999502756  0.490000001433267  0.490000000147718  0.489999999444114  0.489999999049728  0.489999998802395  0.48999999863011  0.489999998500082  
0.490000002418652  0.49000000045748  0.490000000083588  0.490000000764413  0.490000000394045  0.489999998596044  0.490000000178404  0.489999999386046  0.490000000136813  0.490000000032384  0.48999999992743  0.490000000461689  0.489999999767321  0.48999999956696  0.489999998564473  0.490000001143694  0.490000001974626  0.489999999219769  0.49000000030492  0.489999998320671  0.489999998266134  0.490000002047504  0.489999998358048  0.489956990846468  0.489953372049923  0.489818734324681  0.489531359105203  0.489145430944085  0.48867560543611  0.488127601794899  0.487526753669059  0.486953846497212  0.477850390776882  0.474302269084198  0.470905508561506  0.466941014479668  0.465059028978647  0.465478283479509  0.464582715564952  0.464132487463069  0.465082811039989  0.464860204744229  0.460530369320506  0.46365808506468  0.472871388183272  0.476344171171605  0.478364167717186  0.479268024202702  0.480758495567891  0.480780118680762  0.480828772751113  0.480788414517353  0.480805597038944  0.480786926036562  0.480691727100415  0.480614082414585  0.480454023527746  0.480324472280782  0.480219185649853  0.480059966933195  0.480044718165728  0.480176214310918  0.480426836214018  0.480689928973278  0.480924415236583  0.481590080800749  0.482192986946171  0.483757485124563  0.484085711465452  0.484851024952222  0.485620155815993  0.486088690675822  0.490000000243435  0.490000000687506  0.490000000658255  0.489999999978695  0.490000000080035  0.489999999727483  0.489999999749323  0.490000001223248  0.490000000412454  0.489999999817635  0.490000001804954  0.490000000188021  0.490000000780608  0.490000000338404  0.490000000556405  0.490000000788797  0.490000000573901  0.490000000328923  0.490000000112836  0.489999999929369  0.489999999776627  0.489999999650623  
0.489999996515809  0.490000000648122  0.490000000652474  0.49000000065763  0.490000000314462  0.489999999195266  0.48999999706621  0.490000001650367  0.489999999865733  0.489999999500958  0.490000001884873  0.490000000078434  0.49000000031531  0.490000000201741  0.490000000571393  0.489999999663827  0.490000000551759  0.489999999936262  0.489999998910455  0.490000001110671  0.489999998710249  0.489999999513979  0.490000000457326  0.491914582217229  0.490002783466451  0.489862191210625  0.489496999066548  0.488947104528523  0.488400406920896  0.487775307513239  0.48708429336607  0.486439929704247  0.477980537619884  0.475070882491715  0.472308614777547  0.468934737637359  0.467493792752486  0.467012401645322  0.47015668855913  0.469038230003851  0.467835974492843  0.467467527539742  0.468193154607907  0.469800590239718  0.476268694142901  0.479461433386182  0.479947061328119  0.479980718612401  0.480034057149149  0.480027467156413  0.479999999170886  0.479999999751161  0.480000000680979  0.480000000218132  0.480000000123508  0.479999999988642  0.479999999274954  0.480000000167226  0.479999999547265  0.47999999969635  0.480000000768275  0.480000001036935  0.480056347154905  0.480271498817058  0.480463881815607  0.480692420760109  0.481036237345642  0.481395243594863  0.483416519014405  0.484058102914542  0.484988543007035  0.485861620273853  0.487684291470352  0.488136826505112  0.488428359635579  0.488794240154294  0.489123000593855  0.489359517309525  0.489510557429275  0.489417652487975  0.489495100081325  0.489620244851133  0.489774769177139  0.489613678241227  0.490000000703301  0.489999998917823  0.489999999480539  0.489999999784312  0.489999998484371  0.489999997948794  0.489999997710687  0.489999997587049  0.489999997514688  0.489999997469226  
0.489999998136154  0.490000000532542  0.490000000387329  0.490000000414857  0.490000000443696  0.489999999321907  0.489999999748898  0.489999999636118  0.490000000592826  0.489999999836902  0.489999999685457  0.489999999553653  0.490000001535546  0.4899999993957  0.490000000873926  0.489999999990744  0.489999998932511  0.490000000217755  0.490000001287601  0.490000000422766  0.489999999298153  0.490000000467584  0.48999999948788  0.492779498866717  0.490768717660544  0.489968359638651  0.48945439792554  0.488822256334239  0.488160207108906  0.487431359811458  0.486683220342301  0.485815136223318  0.485073244532764  0.48438874304611  0.483711866374316  0.483188588366044  0.482678351141629  0.482151690626261  0.481858987560733  0.481539354545044  0.481451378732643  0.473017889480686  0.476380344506885  0.475726778512139  0.479012719420184  0.479937135736759  0.480000000551935  0.47999999993893  0.480000000173227  0.4800000012167  0.480000001624074  0.480000001915705  0.479999998487194  0.480000000120595  0.480000000171535  0.479999999104974  0.480000000805547  0.479999999373449  0.480000000441739  0.479999999392983  0.47999999977205  0.480000000662963  0.480000000215747  0.480105634024917  0.48021606129703  0.480380360318359  0.48071873156932  0.481102548782959  0.48313356707267  0.484231528683378  0.485178154004219  0.486212374804594  0.487905035273357  0.488394680607462  0.488682224242093  0.489072645702748  0.489395470429752  0.489610566840198  0.489714774264727  0.489617081918348  0.489673219130538  0.489773519289403  0.489856848059094  0.489708787432483  0.489780950289479  0.489999999766689  0.489999998967196  0.489999999845957  0.490000000234777  0.490000000375641  0.490000000388613  0.490000000353507  0.490000000306004  0.490000000259542  
0.489999999905174  0.489999999441244  0.489999999371116  0.489999999858901  0.489999999833868  0.489999999806188  0.490000000359692  0.489999999392302  0.489999999201329  0.490000000571389  0.490000000190111  0.490000000529724  0.490000000003391  0.489999999306673  0.489999999894835  0.489999997647867  0.48999999958952  0.48999999977855  0.490000000813063  0.489999999805797  0.489999998121965  0.489999997921418  0.490000001132667  0.494038058294063  0.491150391348608  0.489861023358284  0.489358084423196  0.488667590006974  0.487888782325906  0.487088166021917  0.48617816636244  0.485340395691307  0.484518348973637  0.483796995191965  0.483011203287018  0.482583895509252  0.482110073394677  0.481681244113095  0.481417494173147  0.485279360796252  0.492594353541252  0.475733763727532  0.489368526348677  0.48247534463351  0.480640970232949  0.4807861905227  0.480000000067942  0.480000000109877  0.48000000052311  0.480000001351744  0.480000000256035  0.479999999037566  0.480000000207259  0.480000000539869  0.480000000516936  0.480000001392905  0.480000001323596  0.480000000550301  0.479999999333178  0.479999999818095  0.479999999734245  0.479999999267681  0.479999999383888  0.479948477019856  0.480039960724042  0.480028939170378  0.480381873252824  0.480812483296447  0.483054410580908  0.484325310282577  0.485535125462777  0.486435019743133  0.488123863123439  0.488709413801508  0.488992651591202  0.489396485922767  0.489705731537601  0.489868023119419  0.489915477385182  0.489831947856567  0.489869586650444  0.489936821820163  0.489867010372182  0.489833299347589  0.489910769598062  0.490049620418661  0.490000000751616  0.489999999467694  0.489999999570346  0.489999999721198  0.489999999822533  0.48999999988626  0.489999999927906  0.48999999995682  
0.489999998126388  0.490000000348738  0.489999999504956  0.489999999497808  0.48999999949115  0.490000000865277  0.490000000867301  0.489999998701662  0.489999999435084  0.490000001038141  0.489999999850732  0.489999999543165  0.490000000209108  0.489999999569912  0.489999996946446  0.489999999654013  0.489999999548582  0.490000000919289  0.490000000460928  0.489999999062399  0.490000000225214  0.489999999590083  0.499202724150628  0.495193405887061  0.491284315707154  0.489820370759632  0.489277847598931  0.488513862791555  0.487636424003688  0.486717855119536  0.485741178391196  0.48482208576884  0.48387601038135  0.483203103309918  0.482440252361221  0.481907427515537  0.481569080658836  0.481194795511197  0.480997782052722  0.491827088098552  0.504864915912667  0.513275801448157  0.511650273998188  0.490903001521207  0.474031754096475  0.480785628638765  0.480000000536565  0.479999999893299  0.480000000303835  0.480000000829608  0.480000000724156  0.479999999936502  0.480000000672281  0.479999999439169  0.480000000107894  0.48000000036292  0.480000000280418  0.480000001266364  0.479999999729217  0.480000000303336  0.480000002031058  0.479999997652568  0.480000000671494  0.480000001062035  0.479999999970416  0.479999998850711  0.480225107980411  0.480919024327417  0.483062934868281  0.484528172678347  0.485914552255526  0.487152709444395  0.48817639272937  0.488790825923369  0.489197110134306  0.489697801689905  0.489993434236315  0.490012664331994  0.490000000443009  0.490000001155497  0.489999999899214  0.489999999363283  0.489999999819103  0.490000000055758  0.490000000013074  0.489999999843326  0.490000001467995  0.490000000312232  0.490000000386  0.490000001271598  0.490000001572509  0.490000001636331  0.49000000226778  0.490000002626176  
0.49000000059858  0.490000000046478  0.490000000103226  0.490000000159789  0.489999999705004  0.489999999657124  0.48999999886546  0.489999997620341  0.489999997563385  0.489999998156232  0.490000000099998  0.489999998319404  0.490000000176273  0.489999998719587  0.489999999752812  0.490000000551704  0.490000000799675  0.490000000209598  0.489999998742577  0.513870676414791  0.507456770592048  0.504422306268126  0.500737982519066  0.496433097203622  0.492183390625469  0.489884704565111  0.489248899114995  0.488346916687589  0.487366498866818  0.486356859139478  0.482969535100909  0.481584069057029  0.479020007291776  0.482543340250213  0.481845075647551  0.481325379834256  0.480935392952421  0.480647077862948  0.480575484148604  0.492520596961423  0.513875567997614  0.544852556824177  0.550693332835517  0.519179811770008  0.482636255162334  0.469707361536449  0.47999999992307  0.48000000018995  0.480000001110637  0.479999999703218  0.480000000699669  0.479999999074429  0.480000000042913  0.480000000518619  0.479999999297396  0.480000000267735  0.480000000420849  0.480000000788285  0.479999999938097  0.479999999335816  0.480000000077246  0.479999999655689  0.480000000978529  0.48000000100254  0.480000000497057  0.480000000784234  0.480084922407182  0.480779188922177  0.483097772377875  0.484327751320417  0.486066431727167  0.487788116444268  0.488868583088106  0.489393382403651  0.489684930975949  0.489961139033588  0.489999999690086  0.489999996792392  0.489999999645982  0.489999999893533  0.49000000147894  0.489999999587942  0.490000001061892  0.489999999851696  0.490000001073791  0.489999999600669  0.490000000888496  0.489999999434185  0.490000001282162  0.489999997266792  0.489999997266407  0.489999999649122  0.489999999688868  0.490000001174619  
0.489999999588837  0.489999999309112  0.490000000453938  0.490000000466582  0.490000000477471  0.490000000410846  0.490000000271436  0.490000000849649  0.490000000388125  0.489999999607525  0.489999999948109  0.490000000423479  0.489999999633041  0.489999999356278  0.489999999413251  0.489999998160336  0.490000000557546  0.518202577885293  0.513651400255244  0.511274136061491  0.508792433281494  0.504907507876336  0.501340858397714  0.497096611899575  0.49285630489902  0.48993470185029  0.486445256063804  0.483539203412732  0.481826548605516  0.481141158162835  0.481409922557983  0.479873938137523  0.478308592656612  0.48186679443611  0.481192977084631  0.48072037087757  0.480425411008294  0.480243178604693  0.480190694694747  0.484044926552267  0.503897185410117  0.581641160904026  0.609329827365409  0.557602171810738  0.505734670875979  0.481050044463959  0.479761210129184  0.479983367735809  0.480177453881181  0.480055194847724  0.480000000401514  0.479999999362935  0.480000000536209  0.479999998946407  0.480000000468619  0.480000000246707  0.480000002296293  0.479999999838732  0.479999999928413  0.480000000614934  0.479999999179044  0.480000000969141  0.479999997829365  0.479999999988695  0.480000000280452  0.479999999089086  0.480059738049478  0.480773734254845  0.482800708509456  0.484542969014872  0.486196937273263  0.488573494790606  0.489684473008062  0.489943773946054  0.489999999260885  0.489999998344149  0.489999996975594  0.489999999889493  0.490000000255889  0.490000003497007  0.489999998606746  0.489999998042458  0.490000000636326  0.49000000232893  0.49000000273123  0.489999999771904  0.489999999492178  0.489999999883221  0.490000002251915  0.489999998841865  0.490000002630659  0.490000002758254  0.490000002851473  0.490000002178291  
0.489999996709074  0.489999998001756  0.489999997989772  0.49000000037244  0.490000000357001  0.490000000387503  0.489999999532606  0.490000000569115  0.490000000565555  0.48999999997459  0.490000000411663  0.490000000770046  0.490000000324833  0.490000000231192  0.4899999988017  0.489999998016582  0.490000000620055  0.519974024939425  0.510001864266186  0.508261044262712  0.508916772343684  0.505292202119842  0.501474419501274  0.496484637177489  0.491319576300706  0.486278614483566  0.48214616204336  0.479228197720329  0.477851989452054  0.477358854636843  0.482233802996639  0.481057103273902  0.479570802608056  0.479565171529543  0.480431086514319  0.480125888689558  0.480026506085316  0.479671162042467  0.480010348283259  0.480471383941081  0.480727964103983  0.579597576191123  0.61689583814192  0.571060566643546  0.526657721908953  0.479999999961361  0.480000000500013  0.480000000350538  0.479999999545236  0.479999999592839  0.480000002026092  0.480000000834277  0.479999999925458  0.479999999709079  0.479999999413074  0.479999999267252  0.480000000071793  0.479999999964687  0.480000000206575  0.480000000302688  0.4799999990052  0.480000000428002  0.480000000056301  0.48000000009443  0.480000000886259  0.479999999013931  0.479760312027387  0.480437891108327  0.482428973802463  0.484799514933907  0.487076106044681  0.489223773906295  0.489999999438216  0.490000000338939  0.489999997780029  0.489999999688147  0.490000001242001  0.490000002530587  0.489999999730889  0.490000000377009  0.489999998858138  0.48999999842547  0.489999998937157  0.490000000207878  0.490000000211238  0.489999999226505  0.489999999541501  0.490000001654256  0.490000001609292  0.490000001564127  0.489999999107599  0.490000001501707  0.489999997798676  0.489999998346758  
0.490000000279553  0.489999998935054  0.490000000800513  0.490000000802568  0.490000000802402  0.49000000078453  0.489999999977242  0.49000000001054  0.489999999560592  0.489999999479253  0.489999999254802  0.489999999680608  0.490000000553459  0.489999999739497  0.490000000772911  0.489999999512493  0.517464714484621  0.507007147277566  0.509063842779043  0.506859193895233  0.504965784926168  0.502144161162536  0.499862278977863  0.492735836043272  0.485807603692946  0.47886584746935  0.474210546829967  0.471946841844492  0.47168366567393  0.473511375016669  0.481663158744989  0.480092645502795  0.478921335855068  0.480238532836584  0.479983894463985  0.479835498943474  0.48000000099273  0.479999999996349  0.480000000471384  0.474581301716117  0.489689608011384  0.539335812538528  0.567373931796792  0.555657753290261  0.530990443912846  0.48000000074221  0.480000000759768  0.480000000217851  0.480000000745653  0.479999999191483  0.480000000025085  0.4799999998751  0.480000000214599  0.479999999383337  0.479999999113135  0.480000000279673  0.480000000355728  0.479999999661727  0.479999999855583  0.479999999254183  0.480000001206686  0.48000000059174  0.47999999887822  0.480000000022028  0.480000001262959  0.48000000010542  0.48000000005776  0.479751492383434  0.48173130040424  0.484874204603147  0.487799093692381  0.489907732277079  0.490000001024319  0.490000000180471  0.490000000222805  0.489999996971168  0.48999999940891  0.489999999690973  0.490000000141918  0.490000002943834  0.490000000723014  0.490000001376477  0.489999997908971  0.489999999859927  0.489999999169916  0.490000000892707  0.490000000922959  0.48999999972921  0.490000004725118  0.490000004650688  0.490000004585022  0.489999998331645  0.489999997919844  0.490000000985818  
0.490000000354433  0.490000000729297  0.490000000732543  0.489999999953457  0.489999998188339  0.489999998203825  0.489999998229294  0.49000000053087  0.490000000469629  0.490000000271171  0.490000000399961  0.48999999914391  0.490000000374089  0.490000000744277  0.490000000007524  0.489999997549465  0.509647290180876  0.508901159604817  0.505381487140825  0.502647793984413  0.500868562700513  0.498242802873679  0.493786555790709  0.486137695997183  0.474252022913708  0.466785195223532  0.46286563563847  0.461756457696797  0.462911872860329  0.466041867002776  0.479584520955331  0.478772702637327  0.478161482887376  0.480643979745665  0.479796837606141  0.479686633507235  0.479999999837721  0.479999999829936  0.479999999853669  0.479999999961585  0.483478192185312  0.513884164398236  0.534054285190459  0.534612381191273  0.52576352837169  0.480000000801503  0.480000000471615  0.479999999573309  0.479999999892318  0.479999999394239  0.480000000184792  0.480000000091842  0.47999999989903  0.480000000013528  0.47999999850839  0.480000000002691  0.480000001879893  0.480000000691627  0.480000000282745  0.479999999757498  0.480000001356941  0.480000000474486  0.480000000981869  0.480000000595751  0.480000000164839  0.480000000436925  0.479999999878395  0.479999999904381  0.48091150290679  0.484758496041052  0.488753070242198  0.490701886906962  0.490000000416763  0.490000000064327  0.490000000162191  0.490000000748583  0.490000000078936  0.490000000074924  0.489999999169876  0.490000001300681  0.490000000022816  0.490000000075573  0.489999999301736  0.489999998717003  0.49000000038169  0.490000000113621  0.489999998674258  0.490000001260572  0.489999999909095  0.489999999950668  0.49000000033436  0.490000002421681  0.490000000669437  0.489999999565803  
0.489999999325665  0.490000000044692  0.490000000053348  0.489999999047826  0.48999999907187  0.489999999099887  0.489999999546626  0.490000000100634  0.490000000099179  0.490000000356825  0.490000000686635  0.489999999688366  0.489999999923551  0.489999999450063  0.489999999779637  0.516829427576845  0.508381791906735  0.504792974184029  0.498539106551135  0.493509732948292  0.491237716028727  0.486101659894369  0.478500788475945  0.471365003053864  0.468397088898179  0.47005017438762  0.47078400097267  0.476083055968314  0.457156288109667  0.461503143543621  0.485333513670701  0.484067718115766  0.481649433088969  0.480629162361782  0.477215139430903  0.480000000341183  0.480000000522725  0.480000000056591  0.480000000073739  0.480000000354281  0.482576310029068  0.500261797167526  0.51383577306626  0.518049401786796  0.518283730353036  0.498496176954301  0.479999999480975  0.479999999003249  0.480000000492639  0.479999999890813  0.480000001081775  0.480000000385537  0.479999998825436  0.479999999952783  0.4800000004904  0.479999999931505  0.480000000303495  0.480000001380053  0.480000000642437  0.480000000810169  0.479999999879391  0.480000000463819  0.479999999873356  0.479999999679388  0.480000000787903  0.480000000081679  0.479999998958068  0.480000000651018  0.47975280109184  0.485283088737696  0.490205902079221  0.489999999925273  0.489999999977384  0.489999999977994  0.490000000922609  0.489999999208023  0.49000000011078  0.489999998895778  0.489999999392454  0.489999999831412  0.490000003023475  0.489999999510655  0.490000000599827  0.489999999812382  0.489999999155614  0.490000000189764  0.489999999764999  0.490000001011776  0.490000002705215  0.490000000020937  0.489999999527059  0.49000000272663  0.489999999954454  0.48999999904411  
0.490000000851007  0.490000000423019  0.48999999909722  0.489999999702397  0.489999999667428  0.489999999629378  0.489999998878114  0.489999998833  0.489999998790322  0.489999999927961  0.490000000441673  0.489999998949307  0.490000000339912  0.489999999781164  0.490000000326298  0.514122459096609  0.507839506435218  0.499692041869542  0.488622190445153  0.477714567415175  0.468295039280818  0.45860824527658  0.449965668008029  0.44594448600563  0.451103317673203  0.455477476672846  0.465987229775586  0.477295757322029  0.485967855298663  0.492224940809712  0.494339817082665  0.491784802616752  0.485888916580477  0.47915719654767  0.476013631261112  0.473283361583712  0.48000000044819  0.480000000063824  0.479999999618751  0.479999999895326  0.483748309706264  0.493224143179467  0.501569497634463  0.504884509526812  0.502246340201615  0.480000000140238  0.479999999116685  0.479999999232502  0.480000000358172  0.480000000003023  0.480000001003162  0.479999999129362  0.480000000167847  0.480000000238137  0.480000000461618  0.479999999309243  0.47999999901353  0.479999999270622  0.479999998705481  0.479999999326936  0.479999999999413  0.480000000741707  0.480000000042453  0.479999999605715  0.480000000793054  0.480000000980164  0.480000000501049  0.480000001442233  0.480700705474011  0.48712565749054  0.491159456262458  0.490000000948263  0.489999999526897  0.490000000774485  0.49000000184479  0.490000001292006  0.489999999629535  0.489999998138123  0.49000000104148  0.490000001044107  0.490000000851315  0.490000000265821  0.489999999675027  0.489999999062659  0.48999999827383  0.489999997275642  0.4900000002205  0.4899999971405  0.489999998276901  0.490000000407389  0.490000000644974  0.49000000081991  0.490000001508477  0.489999998459425  
0.49000000148002  0.490000000210912  0.490000000230389  0.490000000249549  0.490000000268122  0.49000000110193  0.490000001113625  0.490000001118718  0.490000001114377  0.489999999258005  0.489999999541601  0.489999999839885  0.489999999635473  0.489999998747732  0.489999999856281  0.489999998374673  0.504080217292125  0.493454079573612  0.4764533534617  0.457954707383409  0.439997534348023  0.425453044644195  0.416303218928003  0.417175504738604  0.426732490646492  0.443274599024398  0.462638281096331  0.480195231006655  0.494916071750434  0.50430581515419  0.50758640615434  0.505037853479663  0.494356945018873  0.484250135510696  0.480010302564904  0.471892635813485  0.466711660468104  0.466980217258588  0.469474633627413  0.479999997097234  0.483664694080334  0.489098025960094  0.479999998865934  0.494272049070369  0.493023202635075  0.480000001445572  0.480000000071917  0.479999999751634  0.479999998945695  0.480000000196843  0.479999999962084  0.479999999757336  0.480000000379049  0.480000000567111  0.480000000338335  0.479999999977067  0.479999999942623  0.479999999666016  0.479999999371489  0.47999999947995  0.479999999045554  0.480000000130137  0.48000000091453  0.480000000173483  0.480000000278838  0.480000000362074  0.479999999537974  0.479882864500692  0.483937631659083  0.489353135130269  0.491337732230005  0.490000000734366  0.489999999489203  0.490000001022215  0.490000000264964  0.490000000256332  0.490000001933357  0.490000000585672  0.48999999994609  0.489999998920212  0.490000000360075  0.490000000218348  0.489999998623772  0.490000000855918  0.489999999083476  0.489999999212799  0.49000000058258  0.490000000157772  0.490000000026113  0.489999999088562  0.490000001132129  0.490000001295087  0.489999999787729  0.490000002528244  
0.489999999949405  0.490000000147186  0.490000000139099  0.490000000130773  0.490000000122184  0.490000000119058  0.490000000101289  0.4900000000841  0.490000000067676  0.489999999537644  0.490000000007563  0.489999999960758  0.490000001240634  0.490000000339168  0.489999999352055  0.490000000186424  0.499640957753889  0.484754879821339  0.460535922582621  0.435235541590308  0.409893029941118  0.391036969558086  0.37866200213371  0.379835137342677  0.397448769304156  0.423262653199424  0.460504921123223  0.486768267129069  0.507712182050474  0.522931322910662  0.527561170417978  0.521061146841689  0.513205745892904  0.501975671241669  0.491782242263936  0.478835371167736  0.467159561435797  0.46354843153703  0.469209025366076  0.479622693284146  0.481421764037369  0.48325449463629  0.480000002034115  0.48000000022159  0.480000000220805  0.480000000507224  0.480000000059665  0.480000001018873  0.480000000069576  0.47999999970158  0.479999999616302  0.4799999995487  0.479999999740039  0.480000000032152  0.48000000103466  0.48000000122271  0.480000000464044  0.48000000013118  0.48000000016112  0.479999999655197  0.479999998397015  0.480000000157921  0.479999999863956  0.479999998311545  0.479999999650241  0.479352813346951  0.479876687415957  0.482432941472095  0.486889567901144  0.490620788428083  0.491423160867281  0.491847371720093  0.489999999754834  0.48999999862768  0.490000000158633  0.489999999299107  0.490000000332387  0.489999997774623  0.490000002019357  0.490000000147709  0.489999999877155  0.490000000193346  0.489999999243443  0.489999999499802  0.489999999820313  0.489999999180902  0.490000000283941  0.489999999911645  0.489999998932775  0.489999997294812  0.490000001407755  0.490000002114058  0.490000000712325  0.490000002421012  
0.490000000973863  0.490000000000344  0.489999999960845  0.489999999918985  0.489999998197795  0.489999998208197  0.489999998229461  0.489999998265351  0.489999998321386  0.489999999829169  0.490000000430253  0.489999999718299  0.490000000612485  0.49000000143513  0.489999999784129  0.489999999995641  0.492339632546029  0.470950083832459  0.442975152186504  0.414863440881844  0.385944575634633  0.359157853688132  0.337991348152901  0.345129179718329  0.380898121839314  0.418764015988522  0.455532560399018  0.488590917114247  0.517076550069337  0.538616686165147  0.550772296828591  0.553796038839139  0.54966818939513  0.53622892821902  0.517080662031435  0.493208079456011  0.474574057238235  0.467199761303982  0.472594958655037  0.486474445887444  0.500759066536505  0.512375786573691  0.521257306261689  0.526385329050864  0.529075122740876  0.530621878680835  0.527734837211589  0.525832399281762  0.519576622938606  0.514786026589282  0.50331580134308  0.498612646444771  0.493733679370317  0.487698565356562  0.481561262196384  0.475748633960199  0.480000000331613  0.480000000282746  0.479999999187158  0.479999999624896  0.479999999760015  0.479999998451024  0.479999999497662  0.479999999407857  0.480016667560406  0.480113366940855  0.481946288793802  0.485104182016875  0.488771608487504  0.491108009138437  0.489999999461561  0.48999999975024  0.489999999715134  0.489999999890657  0.489999999039021  0.490000000004332  0.489999999236503  0.490000000160927  0.490000002542415  0.490000000589666  0.490000000215626  0.490000001325718  0.49000000057153  0.4900000005966  0.489999998498943  0.490000000492414  0.489999998267586  0.490000001576573  0.490000001095771  0.490000000357707  0.489999999437819  0.48999999937969  0.489999999950336  0.490000000605761  
0.544472708703495  0.531627924961727  0.530567658322012  0.530042649861839  0.529420049750112  0.528678085820889  0.527788497477587  0.526713871193107  0.525403556922707  0.525599534723485  0.523653066621833  0.520854652392506  0.51718990027155  0.51231853856912  0.505901705704032  0.497449068688328  0.483104946480041  0.457028905525631  0.426482229426269  0.396292679835031  0.364269532792559  0.338673185327226  0.319126735984216  0.331570999716125  0.374003269672517  0.420938324811182  0.466325036766083  0.507437308933813  0.542215137867022  0.571567502927112  0.587635401250386  0.594767769693133  0.590129704490894  0.577389583936475  0.558867788487971  0.535101201421151  0.511006614422895  0.490787474858516  0.495702767938701  0.510067319419801  0.518777868439888  0.525551501872701  0.533900415832757  0.536268292924672  0.537745865480723  0.538133491941192  0.5342329609683  0.53427450730958  0.53359392939104  0.57010405181275  0.557070236307171  0.541292396561698  0.523686592866703  0.507532183548099  0.491747479424564  0.481219922145296  0.479379648667739  0.481585560929705  0.482039134894389  0.481492489419149  0.48329732650047  0.48155897998981  0.479142439074044  0.479821284610222  0.480240185099082  0.481635892425806  0.483973826059012  0.486872564003805  0.489922194087837  0.491264283753722  0.489999999713058  0.490000001035223  0.490000000553776  0.489999999401495  0.490000003318312  0.490000000065802  0.490000000525294  0.490000000700506  0.490000000253563  0.490000000013471  0.490000000451328  0.490000000374481  0.490000001204595  0.489999998551236  0.489999999855016  0.490000001200667  0.489999999207168  0.489999999673153  0.490000000023133  0.489999998725491  0.490000000901808  0.489999999537358  0.489999999543714  0.490000001924331  
0.542969834411551  0.531166032260331  0.530600678019826  0.529944740431837  0.529180205881161  0.528284255248034  0.52722745777872  0.525971034185069  0.524462563230837  0.524421133514829  0.522227949092032  0.519169106505091  0.515169090369804  0.509795745554122  0.502588317699461  0.493019718501909  0.473299203147831  0.44474011008294  0.412367908268538  0.38235768430306  0.352176774739357  0.331445752193635  0.327110113527241  0.348187377259782  0.387284090515865  0.437362031532558  0.48743364294878  0.532702343189743  0.57532705561103  0.611231565034552  0.63219058368416  0.638681402739651  0.637091868434208  0.625872386886367  0.610589710181276  0.590325625658217  0.56742612296763  0.549992371417126  0.544880955288842  0.54828022699402  0.548472103841959  0.552883515322092  0.558910304496872  0.559351862658325  0.555363578695374  0.548083965616115  0.544643474160044  0.541865825116035  0.539189449691107  0.536868532306872  0.5674640667248  0.55066824789869  0.533311186091298  0.515766558269703  0.502482299682278  0.493164826371088  0.488620789330782  0.487090325114189  0.485818864321003  0.483141454218791  0.495751455482213  0.490311667247484  0.486176113718413  0.482865385143389  0.481071947919945  0.482928780790554  0.485127844012414  0.487808798310547  0.490237347679998  0.491140777315503  0.489999999728486  0.490000000389408  0.489999998886337  0.489999998319569  0.48999999880421  0.490000000129759  0.490000000288723  0.490000000298779  0.490000000405878  0.490000000063047  0.490000001357597  0.48999999980093  0.490000000546629  0.490000000555257  0.489999999000228  0.489999999840654  0.489999998564896  0.489999999572109  0.489999999333066  0.490000002357246  0.489999999949424  0.490000000917884  0.489999999890241  0.48999999822121  
0.541999980557012  0.53120713363741  0.530527301153131  0.5288703898441  0.527973641921111  0.52693974548472  0.525740286854556  0.524338395029395  0.522684977902961  0.522679382860897  0.520384479461593  0.517239592324104  0.51316870670161  0.5076646771674  0.500048199300497  0.489468964984427  0.468138821536613  0.435499416994886  0.403201012601838  0.372701902606703  0.343981779865361  0.32852439829891  0.334374854468218  0.366569989174513  0.410310904846375  0.463147779028896  0.514092308742902  0.566266986926167  0.615167918106988  0.660090784548441  0.681717060415979  0.690732410147699  0.690878713719405  0.684450932400846  0.671738743766865  0.653926720758289  0.627241616149459  0.610457665090288  0.599355170930476  0.593735844377308  0.586402242344469  0.582806693151232  0.586811022281156  0.582166341609541  0.574806437776121  0.569812683758852  0.563409438999104  0.556302263086174  0.549927534152638  0.544075875433032  0.581367124738218  0.565110478579168  0.547019632658149  0.530966550679787  0.516990760178568  0.506743112955725  0.498840291979243  0.493428187723269  0.48918962074868  0.484740519784166  0.491758280047795  0.48788741669147  0.504207715571418  0.497799784321084  0.481866596565563  0.483592075687491  0.485643901847679  0.487888277909653  0.489971276176891  0.489999999230108  0.489999998322139  0.490000001000308  0.490000000078252  0.489999999879402  0.490000001215369  0.489999999858381  0.489999999585317  0.489999999196771  0.489999999288781  0.490000001353761  0.490000000462227  0.490000001053456  0.490000000583028  0.48999999975048  0.490000000729683  0.490000000332474  0.489999998351733  0.489999998797968  0.489999999592766  0.489999999383737  0.489999997548408  0.490000000542022  0.489999999803929  0.489999999322066  
0.490000000321533  0.48999999878583  0.489999998796484  0.489999998808574  0.489999998822462  0.489999998838634  0.489999998857754  0.489999998880753  0.489999998908951  0.48999999674994  0.489999996561145  0.489999996409728  0.489999999746826  0.489999998303458  0.490000000463154  0.489130188280147  0.465799117583394  0.43089440597566  0.397053087696779  0.367105670125722  0.337669901763669  0.325708537618518  0.342760340464406  0.384918494236794  0.437441893087639  0.491512069177001  0.5483038611416  0.60407534325912  0.655500174040936  0.699977697858319  0.72853007638174  0.74382370733287  0.75035031507723  0.747476509619281  0.738066274829191  0.721385353415829  0.697398561970897  0.672340838133505  0.653287151445791  0.640016578366996  0.625069013408436  0.616600285533709  0.614667704266137  0.602417851029933  0.59647525772654  0.588894432174832  0.579910938521464  0.571310523636334  0.562608230223794  0.555271731636025  0.550876469285421  0.576800213361921  0.558931390004435  0.54323203118787  0.529439229557613  0.518873589826204  0.508674554819473  0.501333214344706  0.495134389776721  0.489940422338781  0.498219470212673  0.491739869353278  0.491194262724587  0.485119116537751  0.481730308885933  0.483091322284348  0.484788215659859  0.487791682992796  0.488994333457642  0.490426371870117  0.490000000045077  0.490000001046595  0.490000003962973  0.48999999884986  0.490000000799414  0.489999998191632  0.490000001337418  0.490000000515866  0.490000000014734  0.49000000089757  0.489999999889525  0.490000002304171  0.490000000595163  0.490000000525988  0.489999998754367  0.489999998792872  0.48999999986473  0.490000001326689  0.490000001112787  0.489999999295565  0.490000000235126  0.489999999869772  0.489999999156772  0.489999998942363  
0.489999998352714  0.489999998629429  0.489999998618161  0.489999998608434  0.489999998600731  0.4899999985957  0.489999998594215  0.489999998597478  0.489999998607172  0.48999999978302  0.490000000264999  0.489999999458175  0.489999999969327  0.489999999932758  0.490000000568545  0.49208819207244  0.466209398197517  0.429312582457219  0.394940318679311  0.360725454881043  0.328496202044292  0.316328796667242  0.34963630163596  0.408816128234391  0.468582619080116  0.528161718482013  0.58747807483577  0.644254106536242  0.696523075497094  0.741867558746796  0.776570419721608  0.799908369897849  0.812477148713421  0.81520802733881  0.808162838683567  0.790773573927969  0.762787725201652  0.734407187136909  0.706574688392127  0.685903239931692  0.663957800943819  0.648872872487942  0.63888102997556  0.628904801116078  0.618130702680204  0.606752832410216  0.597874237441648  0.587794195703859  0.578417494536786  0.569135847175682  0.559395305501672  0.588112784877305  0.570777242537191  0.555121851630058  0.541857692644734  0.530099918054459  0.519040739178953  0.509418520170107  0.502275336267674  0.495156014904882  0.505891149219786  0.495825724119594  0.494417145161331  0.486204420188999  0.481509322758489  0.482572233900701  0.483931810484913  0.485554924665168  0.487570206244864  0.490116255135103  0.491232603857538  0.489999997335944  0.489999999679941  0.489999999236916  0.489999998697957  0.489999997676006  0.49000000077631  0.489999998957211  0.490000000437603  0.489999999385446  0.490000000051105  0.489999998546177  0.490000000674926  0.490000000309102  0.490000000017405  0.490000000323425  0.490000000303721  0.4899999984702  0.489999998179087  0.49000000022962  0.489999999692138  0.489999999080957  0.48999999838925  0.489999998344971  
0.490000000517343  0.49000000031063  0.490000000314323  0.490000000320125  0.489999999762768  0.489999999765759  0.489999999773144  0.48999999978647  0.489999999807978  0.490000000181858  0.489999999641756  0.490000000444424  0.489999999596131  0.490000000029055  0.489999999969849  0.493078446749552  0.467890238378795  0.434337681137067  0.398808581734407  0.368278344954602  0.341614182482428  0.332147399678845  0.377855807599507  0.443921808197888  0.511887790430566  0.574896371645353  0.629393625014401  0.685408940093185  0.737660935079805  0.78527431090335  0.826766453454088  0.857690489140758  0.877413507549301  0.885807171656877  0.876646576872089  0.85624372905357  0.823793868874456  0.788782838897376  0.752440909792601  0.723027970401748  0.691861728172049  0.668105649669997  0.659834843865562  0.644300989931931  0.628156603516509  0.615654474434815  0.604167600853992  0.593160386749704  0.58294858746861  0.572396969513289  0.561577625330568  0.597408200701205  0.58402390572175  0.567305199765455  0.553601214758631  0.540128628885014  0.527877437569978  0.517273264961411  0.509464401175718  0.497992090089939  0.508643134697518  0.500428429643398  0.497827306356992  0.48886242215912  0.481269801544276  0.482169301212317  0.482794500942942  0.48354338788968  0.484547229456443  0.486380256502308  0.488842048031743  0.491551764001287  0.489999999591593  0.48999999761297  0.489999996695441  0.489999997231982  0.490000001046021  0.490000000649739  0.489999999825042  0.490000000752943  0.490000000161704  0.490000000027822  0.489999999661214  0.48999999975648  0.489999999731855  0.490000001018124  0.490000000754998  0.490000000071568  0.489999999142613  0.490000000180306  0.489999999189856  0.490000000756166  0.489999999960568  0.489999999816828  
0.49000000250012  0.490000001089233  0.490000001096653  0.489999997537843  0.490000000110462  0.489999998613388  0.489999997090817  0.489999997070623  0.489999997051941  0.49000000106743  0.489999999724312  0.489999999131079  0.489999999906926  0.489999999940892  0.490000000669027  0.493767144944241  0.471362811818253  0.440790944331085  0.410917969525858  0.388865816568363  0.379562134210946  0.390742265975608  0.432708994323215  0.494427138062436  0.560737551525217  0.61952792098301  0.676200828004458  0.730182259700745  0.778788573249429  0.830430935518544  0.876419293438538  0.913202367853275  0.943884892258779  0.960578394664661  0.951627989264012  0.923097734987149  0.883423424940818  0.838979733890531  0.800379021862716  0.77049934296548  0.72207737898074  0.690980362651463  0.684317778300541  0.665819510430932  0.64976846727382  0.633612485523407  0.620504054624326  0.608383579145624  0.596947129997128  0.585627304530512  0.573202615201518  0.569730410702994  0.595310387521141  0.578593050046512  0.563504825287815  0.549443948285749  0.536366894316584  0.523144760838428  0.513306601654644  0.503471168083304  0.515654130974885  0.504522425563397  0.500311993877894  0.490199638539113  0.480805053039269  0.481031925299024  0.481251584741411  0.481289527134407  0.481242362727774  0.48092498686605  0.481561049083679  0.488726437465171  0.491357242447821  0.490000001031894  0.490000002270381  0.490000000170029  0.489999999843411  0.490000000774775  0.490000000986986  0.489999999107499  0.490000000356246  0.489999999210764  0.490000000246625  0.490000001621919  0.490000000153477  0.489999999021507  0.489999999820655  0.489999999601235  0.490000000050077  0.489999999801749  0.489999999841041  0.48999999983515  0.490000002631303  0.489999999103452  
0.490000001826657  0.489999999686514  0.489999999684826  0.489999999683857  0.489999999683836  0.489999999685074  0.489999999688013  0.489999999693287  0.489999999701837  0.489999997083479  0.489999997523161  0.489999996013807  0.50411189083775  0.501842767981665  0.498453152444388  0.495910181203504  0.475323725098373  0.447477497739934  0.422593954771812  0.410941792723483  0.418997576936185  0.442717920245742  0.488791137201421  0.550476470892932  0.614066999351837  0.666271934967795  0.715149311004774  0.767558146027092  0.820417560881051  0.87571517336906  0.92071943160605  0.96803337655128  1.00642889766238  1.03487498974542  1.02951094816693  0.987902616175287  0.932291204309163  0.877932377623793  0.833365222859938  0.800530070332805  0.759059816679628  0.73817906616908  0.706515647466662  0.685480660256419  0.667970060306951  0.65045283940839  0.635951716488997  0.622649198146034  0.610015039212459  0.601741233706463  0.590060668661036  0.580490746856273  0.604580246561516  0.588076449717624  0.572694472948148  0.55405012005773  0.540413784916612  0.531245878963475  0.519808790749275  0.509009315450297  0.521488892354247  0.509515129945392  0.502716034647723  0.490505271764016  0.480366925648308  0.479999999595069  0.4800000001563  0.480000000235534  0.4798110359081  0.479061493808419  0.478633661973493  0.483512467031133  0.489761474757997  0.490628549407831  0.490000000676083  0.489999998378345  0.490000000548795  0.490000000947146  0.490000001595401  0.489999999712  0.489999999192995  0.489999999426876  0.490000000177397  0.489999999580232  0.490000000130654  0.490000000599824  0.489999999823971  0.490000000666826  0.490000001438479  0.490000002000323  0.49000000095581  0.489999999759074  0.489999998683466  0.489999998663259  
0.489999998851199  0.490000001604563  0.489999999570378  0.489999999325598  0.490000000437143  0.489999999032128  0.489999999018691  0.489999999003301  0.489999998986294  0.489999999439416  0.489999999840603  0.490000000217511  0.504671830264348  0.502548629539254  0.499344028595258  0.495490707979588  0.478875607954585  0.454071245462715  0.431419590627792  0.428136765934802  0.453847067178592  0.490679603752444  0.537581689512484  0.601609626485797  0.667694736139534  0.700339588709317  0.744213860087451  0.797065954923816  0.852449851424145  0.907719823155002  0.962250030678527  1.00983174763928  1.05479431392821  1.09828499459535  1.10988650390732  1.0334649131956  0.960504321740524  0.900402096524925  0.853733275695977  0.816348952552364  0.782130845976549  0.757366604981512  0.744984031090293  0.726859081305891  0.68255433103359  0.665761736490746  0.64879666329497  0.634439429130351  0.625615226336348  0.614826121424233  0.598689600115458  0.584056560058468  0.608309756506226  0.591963974448593  0.576650049892474  0.561449932866308  0.551709601321365  0.538703811235831  0.526375146395786  0.514627973792069  0.529864327805821  0.514505222524069  0.50048309030418  0.490064654710705  0.47999999981977  0.479999999769113  0.480000000524274  0.479999999894259  0.479666865061472  0.479419062976619  0.479244928677567  0.481553281910942  0.486199893914513  0.489096624847114  0.490038827103773  0.490362476852485  0.490000000035043  0.490000000539485  0.489999999961487  0.48999999949817  0.490000000131447  0.4900000000216  0.489999999568104  0.489999999156554  0.490000000019258  0.490000000029228  0.489999999257661  0.490000001155927  0.490000001186026  0.489999999290836  0.489999997656358  0.490000002353275  0.489999998980946  0.490000000388161  
0.489999999561816  0.489999999726117  0.490000002802005  0.490000002578379  0.49000000159616  0.490000000930435  0.490000000936169  0.49000000066835  0.49000000062616  0.489999999530151  0.489999999313132  0.489999998434017  0.489999999572487  0.489999999402828  0.47884747128232  0.493529168524371  0.482373666817803  0.464703375506111  0.447711047381159  0.450449574841701  0.493648076016667  0.54173451094112  0.592616199328745  0.640087598454184  0.671483394699044  0.708673674488734  0.756943745607593  0.812926435440443  0.874922978880195  0.935125268828627  0.988978799981436  1.03688837386154  1.07774928753604  1.10942431021417  1.1037182890709  1.02961325766295  0.961461517790912  0.900292100931679  0.858674420538393  0.824104385026573  0.790304777460871  0.774546394407192  0.755358232958357  0.73713122415644  0.722403360029895  0.71156325060394  0.6642571636632  0.65281451367797  0.642717816227074  0.622530359905454  0.605139890318963  0.592954358878192  0.600497208410787  0.58712797915766  0.574187319825415  0.567696459837927  0.554939326943648  0.542940682809405  0.531354791679473  0.517588931512249  0.53654284916928  0.517331467762489  0.501169351710807  0.488796994928429  0.479999999002219  0.479999999399703  0.479999999536187  0.480000000817877  0.479611093347472  0.479475607226176  0.480000000252292  0.48050610204278  0.483689050406451  0.486640078511486  0.488587691469728  0.489587564005214  0.489852681707787  0.49006359239591  0.490270281209819  0.490000000161516  0.489999999343483  0.489999998645478  0.490000000139294  0.490000000268727  0.489999999649592  0.490000000266542  0.490000000600034  0.490000000160578  0.489999999740194  0.49000000004958  0.489999999343576  0.489999999385191  0.489999999714143  0.49000000179546  
0.49000000009182  0.489999999463833  0.489999998807327  0.489999997608336  0.489999998102532  0.489999998518394  0.489999999834693  0.489999999997284  0.490000000035053  0.490000000275228  0.489999999687319  0.490000000272516  0.490000000099559  0.49000000011041  0.470377878184283  0.491995887686729  0.487259089991328  0.482094714262824  0.482365038924251  0.499963874171711  0.544623520945249  0.59907887149461  0.635849686051668  0.643446575969957  0.653721355349124  0.695310159970308  0.751502734070934  0.820124712650088  0.890038589701067  0.954672504982555  1.01101800605518  1.05205772964682  1.07749400432127  1.08090723084077  1.04803177652691  0.982896858343827  0.927209839533865  0.891929710435511  0.853474159352102  0.827470123948829  0.799314315029516  0.786600898307089  0.770366827700235  0.753719253103981  0.740179901742974  0.744437336046511  0.734645399953204  0.719395763394535  0.709267506851599  0.6991507174793  0.689099441308857  0.603370852447244  0.592228466606525  0.594890750420806  0.589390777692156  0.575351381350983  0.562198803658157  0.546409807659194  0.533393361752066  0.515983186682538  0.544673759485316  0.525986641409424  0.506999864673643  0.490683885136369  0.478502020464992  0.479999999274614  0.480000000416439  0.479999998157174  0.479620820948387  0.480000001280518  0.479947452888166  0.479930720978146  0.482486118786209  0.48501109814457  0.487040763539506  0.488421749291762  0.489167007853509  0.489668579177706  0.490015296565511  0.489999999646015  0.490000000101379  0.489999999970355  0.490000000240333  0.489999999701099  0.490000000171752  0.490000000025524  0.49000000000544  0.489999999561126  0.490000000342751  0.489999999804633  0.489999999810618  0.490000000285243  0.490000000219011  0.489999999793521  
0.489999999185871  0.490000000128852  0.490000000495094  0.489999999924269  0.489999999993247  0.490000000066572  0.489999999233553  0.489999999967332  0.490000000048316  0.489999999681877  0.489999999924958  0.489999999712393  0.490000000025347  0.461614133833397  0.472603138656535  0.490212037660751  0.493218042705028  0.502435692912631  0.51663066004608  0.540347251058554  0.592380655423778  0.665186911904245  0.689268372954638  0.612369966444493  0.614714138477217  0.670595587481302  0.738891199689285  0.817560729567307  0.89902138256875  0.97423956797571  1.03069729896157  1.06489041878042  1.07481661399464  1.05774532421643  1.00581562988019  0.92359609922636  0.876988436221925  0.869132215469709  0.846866661034327  0.82875532920808  0.813061305026032  0.798287143701355  0.782987182911654  0.774385431775664  0.774966313138463  0.766347136915327  0.750988971816722  0.739138510415534  0.729424644335666  0.719908963040561  0.710246577544797  0.698665435494839  0.686843656660832  0.60252929283962  0.5995438420463  0.579848169597767  0.566309698456683  0.542948471385708  0.531439700943657  0.520706517399136  0.55554320902901  0.538162793190403  0.515084934339964  0.492305580801065  0.477334204203263  0.480000000087739  0.479999999576867  0.479999999777225  0.479756614911646  0.480000000897198  0.480067554833185  0.480421375660076  0.48212932571718  0.484265911427074  0.486006121585111  0.488076346189789  0.488768202095962  0.489351157872072  0.489715884581228  0.490173154858854  0.489999999717001  0.490000000130548  0.48999999988687  0.489999998783273  0.489999999892089  0.489999999626015  0.490000001002945  0.490000000006288  0.4900000000358  0.490000002000689  0.489999998796496  0.489999998790661  0.48999999878588  0.49000000140074  
0.490000000088676  0.490000000365759  0.490000000592889  0.489999999889579  0.489999999371146  0.489999999620231  0.489999999549387  0.490000001636937  0.490000001462447  0.489999999754622  0.489999999680925  0.592012045830211  0.57852068342027  0.507821929352332  0.501478437269925  0.490410724709991  0.503881270953523  0.525401572249804  0.550011267057406  0.567266681708572  0.626012293683505  0.738479009186811  0.826331028652785  0.646273874271663  0.608854229684244  0.65162110156775  0.717895443540957  0.808309601132621  0.909341719947642  1.00118370069084  1.05583064425459  1.07779683971665  1.07672628442273  1.05264935205528  0.997101183986754  0.909169483579132  0.862760057696346  0.863765469158003  0.850278322963898  0.822276753012083  0.809354547114231  0.801075804501773  0.803867598201478  0.795159404082515  0.789887652695898  0.780372582477049  0.769054926679545  0.760212645708312  0.751439851352752  0.742777684580663  0.734215741846946  0.725886942137354  0.720309448176142  0.721208703239832  0.70173311244725  0.693265287703227  0.675091882795166  0.655056904072195  0.552824333698589  0.543055067595179  0.587517251164904  0.563881476613666  0.530513568421664  0.501026024516627  0.476346662226154  0.465147193342342  0.461789366464571  0.479999999466495  0.480000000627043  0.479999999216883  0.48020756162565  0.480773765585798  0.48206691881457  0.483902241135897  0.485467346131019  0.486761481524907  0.488289566449877  0.488999290505367  0.489503016093261  0.490033228646513  0.490000000031273  0.490000000519765  0.490000000304277  0.490000000001528  0.489999998789883  0.489999997932879  0.489999999645458  0.489999997732738  0.489999997734709  0.489999999564669  0.489999999564437  0.489999999077417  0.489999999202925  0.489999999870315  
0.489999999536853  0.490000000039632  0.490000000043366  0.490000000241243  0.490000001224165  0.490000000334  0.490000001144602  0.490000000764168  0.490000001362273  0.489999999457901  0.610656977178443  0.60065399605942  0.585238391706983  0.51443892556739  0.500732993241692  0.490416246810601  0.511001286596626  0.552860114917576  0.593407392414971  0.604746343348264  0.645647833854209  0.789615394401509  0.788361971455486  0.680197610282387  0.622812323675894  0.633570535526777  0.683978396745999  0.779219771985112  0.914982100530393  1.03225125875599  1.07972909480732  1.08673345298912  1.07812809179877  1.05867107466193  1.02096805717876  0.946224090841758  0.895864882674524  0.870326432565653  0.867179116073306  0.834587392656678  0.83350496037248  0.822575991078322  0.820722077450345  0.814475904229502  0.804388073320914  0.796014738496854  0.787941873215599  0.77804451491011  0.769502625954111  0.762259090217137  0.754381109014931  0.74965652639398  0.733252803590233  0.710353283110691  0.713685290386597  0.715905152883102  0.698343806809109  0.68255214771947  0.660101930988954  0.54993937639415  0.609124351609195  0.578697833882096  0.54797018739015  0.516453151088795  0.486813787322632  0.468705555748888  0.463251202947862  0.480000000277204  0.479786868582192  0.479917944667394  0.480431135349743  0.481124158198695  0.483346882111855  0.483712297084537  0.485197593073007  0.486363754176454  0.487992060710331  0.488748223196081  0.489332042309062  0.489909531893867  0.490000000555948  0.490000000466135  0.489999999084798  0.49000000006451  0.489999998705194  0.489999998933103  0.490000001405791  0.490000000250304  0.490000000267388  0.490000000281908  0.490000000497529  0.49000000052957  0.489999999658202  0.489999999669146  
0.490000001326449  0.490000000175758  0.489999999816359  0.489999999171815  0.490000001079325  0.489999999745959  0.490000000257985  0.490000000531236  0.489999999870641  0.62068219449156  0.614684284296663  0.604785731688787  0.539482560225786  0.532036868376937  0.510718151232644  0.488536773333042  0.501668232718567  0.562032483854049  0.638102274295233  0.720908968071159  0.780155544225522  0.882071203430692  0.726159202589167  0.655114294636784  0.606401813195938  0.600176311952364  0.630748479220995  0.706569798033651  0.895090728886391  1.08425405742819  1.09075277186485  1.07864667096572  1.0644105438268  1.04704891944487  1.01583005278815  0.961883891811198  0.918448023312524  0.886328115970477  0.87861699967791  0.863721797243277  0.843219665902771  0.837279399996582  0.830443612324775  0.826285882618601  0.818873247481675  0.811791758832485  0.800399346798162  0.793690555421483  0.787354708372476  0.780665204620776  0.769140784327798  0.746319972405912  0.740910923768074  0.733044627391864  0.743859204625478  0.705827398150394  0.695403840768746  0.682050371754268  0.665635032001188  0.646245779592711  0.618127012393096  0.594118114036655  0.566175317060617  0.536653497725534  0.506106924831728  0.480920681769531  0.474233041915895  0.474341282300614  0.479940776889937  0.480164954173764  0.48077184394606  0.481479096618777  0.483306578608427  0.484543190783918  0.48463776080386  0.486298501939244  0.48802370231506  0.488735217914114  0.489290582755533  0.489833511502927  0.490000000249497  0.489999999864307  0.490000000059601  0.489999999916304  0.490000000051244  0.489999999801917  0.489999998151731  0.489999998795832  0.489999998804684  0.489999998812423  0.48999999881907  0.489999998824723  0.489999998829496  0.490000001026573  
0.490000001003167  0.489999998950421  0.490000000164291  0.489999998156679  0.489999999488541  0.490000000182969  0.489999999244438  0.48999999854589  0.562575446799637  0.564120674506403  0.563623393720892  0.560654510290015  0.56082417627798  0.539100159464493  0.503425653015586  0.453502564866991  0.446722960841731  0.487335796788283  0.556431747521854  0.660191301286024  0.654392143887787  0.699951292556088  0.674355607931119  0.629410687691841  0.575774992032848  0.569763412844828  0.574162713535753  0.577714378179493  0.741187936996879  0.998750182535319  1.03450795433722  1.03528222848763  1.02805016790066  1.01236776182583  0.987801711581173  0.954098003549518  0.920630836470608  0.888130392495594  0.891272009146159  0.879006561370826  0.86547892647035  0.862654627246302  0.855998318472126  0.839696211847672  0.834413638635134  0.816793292388199  0.810557877975016  0.807166721099024  0.810992729467149  0.781131411807479  0.778775906720552  0.773458432399049  0.768428958278801  0.761078538864775  0.766815399785448  0.733156321874414  0.724151432665902  0.712109678301639  0.696736067257541  0.673100556500408  0.651103177950373  0.626849813817616  0.598793749592055  0.569580885256073  0.540097275624233  0.516552888186759  0.500655133181816  0.494129946825576  0.490947331953319  0.492364613660439  0.491655346487377  0.491955866649435  0.493086678379519  0.492870626564584  0.492395477158616  0.491576871554929  0.509367033345695  0.5173807853961  0.506960894718716  0.495102700964292  0.489999999994713  0.48999999969872  0.490000000346693  0.489999999854002  0.48999999935394  0.489999999388123  0.490000001050931  0.490000001035999  0.490000001014434  0.49000000099489  0.489999999685046  0.489999999958837  0.489999999955866  0.489999999394617  
0.489999999767597  0.489999999855578  0.489999999594153  0.489999999622212  0.489999999941045  0.490000000059292  0.48999999983888  0.489999999843084  0.585612382739747  0.585054074651797  0.573334020836734  0.582665635955209  0.565255979088428  0.527979450978457  0.428896369418892  0.355775374335676  0.354769044189721  0.3866148868212  0.440211033899834  0.607525561929835  0.734249196289482  0.766333100242021  0.694685728434299  0.678950525960747  0.584099214284392  0.578300122899363  0.568558277802681  0.576472370579777  0.674104358850566  0.841320328983684  0.931335940486376  0.96496892441737  0.973808092830359  0.970254147663375  0.956051886454372  0.933205391652482  0.916465694724504  0.894768007228335  0.894340719585368  0.881796109959074  0.871693897076382  0.868053835296574  0.86496448260436  0.846296795669153  0.833556571343295  0.82819926744513  0.82324902878627  0.815555682875554  0.792268801478191  0.793461588305596  0.798110975012311  0.794370999061402  0.79165553669338  0.785483419715969  0.79080324618438  0.762065475987097  0.754868426306014  0.744560560985772  0.725510213221043  0.708184917231603  0.686875652900992  0.662723362250852  0.635050321604311  0.606413686834595  0.578567931859048  0.552424731393037  0.534610538545188  0.522444340110886  0.512846915927838  0.509681643780326  0.506065493787079  0.502454505815966  0.501307952376804  0.500184993830141  0.499419669667884  0.497336405654301  0.496311132250416  0.521090365231717  0.509171473262701  0.495687014233583  0.490000000540598  0.489999999527012  0.489999999407144  0.489999998982138  0.489999999679884  0.490000001771916  0.489999998406791  0.49000000051956  0.489999999113354  0.490000000701762  0.489999999919666  0.489999999577174  0.490000000272274  0.490000000127681  
0.490000000464672  0.49000000048649  0.490000000313088  0.49000000034047  0.490000000298408  0.490000000271807  0.490000000236404  0.49000000019133  0.610599463271881  0.604507531158736  0.60832796753128  0.580612628147393  0.553784148604648  0.488902191457422  0.262733456305393  0.225178922190178  0.263955911506701  0.311855581821309  0.38392969259106  0.497784048468966  0.657245716577419  0.73525363563583  0.735065246555524  0.722482710319537  0.688305786169901  0.625526326933247  0.598398714251035  0.612337485392912  0.677145703550642  0.772871737309738  0.850021398529955  0.89748124463395  0.917883714071106  0.92450797113072  0.920136191577158  0.909537477080067  0.903996235617725  0.891238770708626  0.891913649772393  0.881013488125464  0.876957115566669  0.867565500693005  0.865183073856613  0.847132244729598  0.842528879539671  0.838870635393784  0.836178898674549  0.835036747339991  0.823542872635118  0.827683441118674  0.808991122063505  0.807282275113311  0.813277358861702  0.809493790784825  0.814881655265092  0.809329342739583  0.786541445563284  0.774101824915607  0.762239181353223  0.746168256821418  0.725498865335976  0.700948810579058  0.673713161438029  0.645878071919966  0.614815048880399  0.588932600108079  0.568523531396819  0.550797605149885  0.536143405503805  0.530661154450628  0.523826591317776  0.51628214915332  0.511745003038533  0.508727223062256  0.505507481340701  0.503198536853  0.50072175452263  0.525019585849518  0.51184977937961  0.497512248067972  0.485009966452542  0.490000000047169  0.489999998533068  0.490000000266636  0.489999999101513  0.490000001074837  0.490000000802444  0.490000000209082  0.489999999806755  0.489999999941694  0.490000000251354  0.489999999688708  0.489999999866865  0.490000000811396  
0.63539252907707  0.624701978325163  0.623048206289804  0.620562342225077  0.618137173344855  0.615104866108126  0.611256893961174  0.606280685439195  0.599679078334776  0.590417429012589  0.582684715972772  0.557795583666598  0.520062993381097  0.413530681488727  0.245304863399406  0.18559060822576  0.213779634375513  0.270888863286358  0.357010657059046  0.486354588223924  0.606248584599226  0.684683792774206  0.70919794036026  0.720604001034509  0.700466383975416  0.647238173666606  0.625013686812109  0.634314054440454  0.67580783322664  0.737047662601707  0.800845382324755  0.846665307413969  0.873922208498115  0.881275882140049  0.887050766800318  0.885507093032698  0.884904597803438  0.874676595907273  0.881619364786221  0.875464388608009  0.877354355791504  0.866506198356245  0.866221384269824  0.848179679238888  0.851202347555464  0.847933235765984  0.844496709056291  0.843368065425402  0.852263184686813  0.850906016030171  0.842532253347656  0.82666947027572  0.827715710552265  0.832182453879804  0.829959184070396  0.836545435438663  0.815534198827312  0.810223400394681  0.800918025380919  0.78649733377231  0.766410057978787  0.741246652646857  0.713443994666427  0.681442656848079  0.650399765361448  0.623111493431844  0.598995588753026  0.578709920016508  0.560157913099261  0.547996231756361  0.541220349986711  0.531476377182351  0.523305652881905  0.517577899243335  0.512626597070762  0.508865042956079  0.504957400989057  0.502589807770366  0.514820896868155  0.500283224958527  0.48730084245572  0.489999999511235  0.490000000507112  0.489999999373665  0.490000000277165  0.489999998661572  0.490000000272824  0.489999999387522  0.489999999568184  0.490000000144977  0.489999999442864  0.489999999391017  0.490000000634536  0.490000001226905  
0.630896046308167  0.619838000465389  0.617547643969846  0.614760557016764  0.611019904732873  0.606818929582505  0.60151489344352  0.594698642623057  0.585738819920507  0.573408420478618  0.560147582073966  0.533160592345008  0.484277349552421  0.379741635162873  0.263579124118887  0.190860624028917  0.198417288086111  0.254340229835337  0.342678824238175  0.459147631935506  0.579450184104459  0.652553135288907  0.622519528478179  0.639366355890773  0.652474829061201  0.642395350577809  0.627958765330661  0.63747743594201  0.669319276941142  0.712388211872659  0.75452094343874  0.794963534196851  0.82402906000227  0.834947973774129  0.849393590623029  0.858727898507919  0.868326323118924  0.864065606724201  0.875884521377468  0.872379241806289  0.87472606357709  0.879055715986449  0.873034877310206  0.852362394671032  0.846345501436317  0.84231227698214  0.850951768734324  0.86754507320082  0.865335584293471  0.86506596570228  0.864753891860085  0.864805535954017  0.860128937412983  0.84841398526598  0.85371623231247  0.862152068615506  0.84871707263875  0.84687551151022  0.841113727858882  0.829054059394078  0.808613928299279  0.782036072279635  0.749243187504999  0.71547111552679  0.682245225149441  0.652734114545622  0.627470554683923  0.604423293449559  0.582557415931108  0.56728261362636  0.558032455189001  0.546128665941047  0.536038560391174  0.527444099316896  0.520634696584375  0.514636897679607  0.508767390374753  0.50609343528086  0.518558311042363  0.50352249339432  0.490278008198411  0.490000000470252  0.49000000010563  0.490000000506901  0.48999999925489  0.489999999728976  0.490000000761337  0.490000000379418  0.489999999234418  0.489999999859762  0.490000000073632  0.490000000593128  0.490000000421571  0.490000001251758  
0.648983255982616  0.636164596240379  0.632575874675491  0.628255487195719  0.622997506301143  0.616519245972787  0.608427236818707  0.598166079972476  0.584936965835834  0.5673878849919  0.541919405760605  0.50894348526478  0.449802005393457  0.363912768932401  0.274492729523989  0.209816548811826  0.202983936240306  0.24155208129649  0.312064039469744  0.411629104456077  0.527639444574876  0.610154538807562  0.630895339457423  0.639410867244914  0.64367325568033  0.634582734516048  0.626716150629494  0.631253411703878  0.654970184727353  0.689683273665208  0.726776268737139  0.757166262623904  0.790451891626489  0.802901342816007  0.824538735156166  0.839380807878934  0.847480595670151  0.850490146666326  0.866122210530698  0.866965154588186  0.872126725129171  0.879785697635567  0.89219899713877  0.852655718131695  0.849771771029523  0.849787542608084  0.844536039285657  0.876273711578362  0.878952663826836  0.877576232873184  0.878667731019794  0.87985364498175  0.882045651338409  0.878401201885765  0.875665954755003  0.888162289570736  0.889838754362281  0.882137691986556  0.881525777559241  0.872838567772661  0.852195142982649  0.818185769218195  0.781587679891895  0.744770496313013  0.710539910308418  0.679568779761254  0.652661776250992  0.627469086352346  0.602885521804625  0.585367474304268  0.571964640370859  0.560211828954912  0.548368722797109  0.537712426571344  0.52898177607993  0.520548924685248  0.515952769445674  0.510633975866852  0.504977540133247  0.507648189915915  0.49288762061167  0.483468424080354  0.489999999741865  0.489999999977695  0.489999999817279  0.490000000394276  0.490000000356952  0.490000000106441  0.490000000048424  0.490000000210975  0.490000000027193  0.489999999751597  0.489999999614876  0.489999999514652  
0.617173663673559  0.60832503036194  0.604605278694575  0.600136846607871  0.594715370056885  0.603113253165957  0.593728876783055  0.581929117075862  0.566874514072599  0.540525482555097  0.521668970256371  0.488685858915051  0.42930904265092  0.356721160444915  0.285832136620784  0.234330438039024  0.214663612517536  0.228660838643711  0.270149761904824  0.349561349249085  0.469438884755013  0.592586719149252  0.64196525329143  0.658392124526058  0.655826892730925  0.632816043353699  0.613962735227288  0.622906333319287  0.645355300129701  0.675375714032995  0.702975871220307  0.731343537240598  0.757262516652486  0.774511274012907  0.797548471406281  0.81586555123282  0.828843366557126  0.835991394124649  0.855209396303433  0.860162917744103  0.869254311344574  0.886571498448421  0.89190450449983  0.865383025738767  0.865958147613551  0.848191297101798  0.872450316722554  0.873935218131517  0.885748575598177  0.887952510500911  0.890164912374945  0.89247167884465  0.895989111220795  0.908445475443554  0.906519764029496  0.910624409423167  0.914974389213475  0.912440242357654  0.918032582915309  0.91910736326943  0.887455526571421  0.846670825303056  0.806533190146741  0.768621641943143  0.733581198644622  0.701830820742289  0.673858786878996  0.647324401393128  0.620639617673136  0.601090873022775  0.585155798751471  0.572602057156583  0.559768698527828  0.546661530552452  0.539996294413376  0.530731530454818  0.52221113386835  0.516163111402544  0.509517068103059  0.512790524897075  0.498729359365111  0.487843148428217  0.490000000231419  0.489999999426573  0.489999999255533  0.489999999672835  0.48999999983352  0.490000000160309  0.48999999978341  0.490000000931641  0.490000000571621  0.490000000557719  0.490000000453834  0.490000000454724  
0.602888720277163  0.598073820375772  0.593967162122851  0.589070836752597  0.583167227119765  0.575964134346919  0.567066417628109  0.562745311493798  0.547642004073551  0.525582502321401  0.502271281157885  0.466847697162483  0.415173115703009  0.354082944985112  0.294921630445374  0.249369992133617  0.224506451005497  0.218771043073209  0.22692502830276  0.26973712222136  0.405843008858994  0.550315939300081  0.639843674492655  0.686417070679089  0.688759592258208  0.64471546264279  0.594303403053548  0.618367714068676  0.639859733791855  0.664467609686513  0.685612317848312  0.707128476225046  0.731027850847999  0.752494829026191  0.785587455889376  0.79132495802115  0.813804042362175  0.827982597649717  0.842511693389759  0.853036422857404  0.869442155816835  0.883998095337352  0.890980119717085  0.859452257909306  0.860307857661636  0.886499171389653  0.875649591254819  0.882587831586031  0.884132104526187  0.896238351354803  0.899408098145625  0.902663439944735  0.92160948025617  0.925246152164581  0.928140052124861  0.929025459197604  0.933260138419625  0.935862485858217  0.932701469637538  0.932863814942748  0.902207526071147  0.862386739217946  0.82273841323943  0.785279993063822  0.750738324524041  0.719296446116149  0.690911608623607  0.663580471329077  0.504630902996908  0.501416359732389  0.498570314465031  0.498953429038617  0.48578921436499  0.486280036797267  0.486802665513786  0.487319905990584  0.487836991757943  0.488179755302796  0.488517667317497  0.489999999457491  0.490000000197697  0.48999999945946  0.490000000070088  0.490000000490389  0.490000000324426  0.490000000236971  0.490000000182311  0.490000000509209  0.490000000509446  0.490000000557304  0.490000000577391  0.489999999217011  0.48999999922108  0.490000000806303  
0.490000001071696  0.489999999880029  0.489999999831081  0.489999999764837  0.489999999676625  0.489999999561156  0.489999999414289  0.489999999237877  0.489999999034386  0.509568831957057  0.489537948552943  0.45836402890649  0.406890197567407  0.353693494548402  0.304577186963879  0.270556372538713  0.245713709721642  0.230589962668433  0.221053261181464  0.23877511255037  0.374862975062324  0.521628085600998  0.63912042560341  0.718734471485751  0.73758808749086  0.694458933251661  0.648185218765273  0.6409021973587  0.645046731106999  0.654844936688585  0.667094166695738  0.682919182019093  0.702527690605459  0.716144376687012  0.752174314604311  0.779205693944439  0.798670821479784  0.806712319999712  0.825685301994934  0.841148007014285  0.859035892028974  0.8762672279209  0.884819324842313  0.846588980126031  0.8477291954739  0.879456122554739  0.882563311108884  0.882129410824868  0.887344286739757  0.890515599507874  0.89847090136522  0.929863160421561  0.934162430310361  0.9380792488782  0.941499872548394  0.94633524715025  0.949007079948098  0.92159353724182  0.92198182102899  0.917382797162346  0.896291098040493  0.864776615562645  0.82948869782416  0.794441473419502  0.761690777508557  0.731204229090593  0.703344747977874  0.676030769970972  0.507349389550815  0.506408522252683  0.506128566356128  0.485671834822141  0.486110992482514  0.486566755836654  0.487033265475664  0.487476816634884  0.487925859525626  0.488246155154667  0.488440638514482  0.490000000090132  0.490000000376064  0.490000000644668  0.489999999212553  0.490000000065299  0.489999999463825  0.490000000048471  0.490000000094996  0.490000000088525  0.489999999847078  0.489999999850372  0.489999999924017  0.489999999925503  0.490000001173331  0.490000001226338  
0.489999999750822  0.489999999707853  0.48999999971905  0.489999999735114  0.489999999757828  0.489999999789537  0.489999999832252  0.489999999879392  0.489999999851281  0.495182691521953  0.482809573211227  0.446460946069806  0.398202493992775  0.354975043510403  0.319889041778896  0.282812170723135  0.263590563646249  0.26429771884843  0.268362140763995  0.304736378520022  0.395141515544562  0.528207069909866  0.657203019741502  0.745362101430393  0.780217695195459  0.756971619396205  0.705936110036987  0.671678167081225  0.654074380906877  0.647949944251262  0.650207435358988  0.660690724050394  0.668612629857913  0.687339937583123  0.724017830246072  0.752797668742099  0.776357092345144  0.791828635394562  0.813324357128845  0.834103554563562  0.853810069482377  0.87407140753728  0.884244501051134  0.837221602790104  0.87300713252169  0.876463794351817  0.879886108231472  0.890435435284656  0.89042558188829  0.898642060393714  0.926573923713425  0.933801379257991  0.94050640079113  0.954740529200232  0.9569183300795  0.950658529686515  0.903899778250759  0.907620122911802  0.909648720967076  0.901917819383353  0.88426030234269  0.858996601914751  0.82848121164589  0.796820743852686  0.766644307953024  0.737775772671302  0.711192295721381  0.683007948188535  0.641090210711283  0.484837484389242  0.485647904596151  0.486010564732327  0.486387507972124  0.486806144809483  0.487233030384673  0.487676366684209  0.488080364719317  0.488273421566802  0.488661899328361  0.489999999689463  0.489999999551148  0.489999999924156  0.489999999037941  0.490000000599805  0.490000000135773  0.490000000407791  0.48999999925694  0.489999999696003  0.489999999627055  0.489999999575868  0.489999999536824  0.489999999506377  0.489999999482201  0.490000001077028  
0.489999999299766  0.48999999931883  0.489999999344825  0.489999999380436  0.489999999429825  0.489999999499826  0.489999999602416  0.489999999760125  0.490000000015735  0.493962952960009  0.477251189331713  0.442078941298194  0.395786135926651  0.359640914824326  0.332266268093195  0.303808754126483  0.29441465227211  0.300746173280434  0.324893984591584  0.369714034747088  0.424324741129925  0.55992858523235  0.698388950760366  0.789281326202822  0.818430363414091  0.788393709917645  0.734048951321649  0.686920922662086  0.653288382283948  0.631761200042495  0.626462720600739  0.637888832984261  0.640561444499297  0.659936411752166  0.695553908300958  0.723461000786453  0.749018207486424  0.777696425582032  0.801279549900283  0.825895190729097  0.846767671849447  0.869898300866467  0.881171714023811  0.860553344324975  0.865950988024428  0.868487567276402  0.87220916949361  0.884407936506426  0.890830094430004  0.933028338329571  0.942268940601102  0.945346526161968  0.951680038671571  0.957281421560834  0.975485814108026  0.885929794111659  0.895136220671281  0.895529972193025  0.894977069721602  0.886757145801526  0.871025374905068  0.849712765460824  0.823051246228773  0.795011283758171  0.767294040195368  0.739779895688898  0.705214380017817  0.677225489074021  0.661897114432089  0.64163389669449  0.485969581931735  0.486302667383537  0.486666962886184  0.487071374905868  0.48746060401416  0.487826265136165  0.488148749774208  0.488261159188514  0.488638484264474  0.490000000006994  0.490000000011273  0.490000000301182  0.489999998889191  0.49000000098982  0.489999999394467  0.489999999239979  0.490000000336748  0.489999999946923  0.489999999896994  0.489999999862521  0.489999999840247  0.489999999827214  0.489999999821088  0.489999999516251  
0.489999999015945  0.489999999012287  0.489999999015019  0.489999999025788  0.489999999045714  0.489999999073715  0.489999999103148  0.489999999120742  0.489999999138221  0.491161119237409  0.475728184567044  0.439541061325335  0.394552005924302  0.361609530464879  0.340701719712415  0.320668649624451  0.320540423354961  0.338995140015011  0.382551022771709  0.446276776639745  0.518992026967413  0.617462903115926  0.753896587665431  0.846600364317419  0.83871772471897  0.78951077447374  0.732565824456765  0.68192432742722  0.646115750745374  0.609874431335059  0.593304530196121  0.600346247323205  0.603645852849927  0.628569818564118  0.666048754589843  0.69018796375859  0.720657695138211  0.75490415328037  0.791674952415445  0.819138846508091  0.839864095614732  0.867008277594404  0.880048981593868  0.854577954134968  0.860369946627852  0.863976001006596  0.867788428601543  0.917813162726302  0.934920328980404  0.947600617185665  0.954267211110944  0.957752861881795  0.980445300432469  0.982965992048577  0.891675724140173  0.886672059872072  0.892520746908223  0.889408461950946  0.88493106855661  0.875227307278211  0.860758931836447  0.838483676171634  0.815010762351362  0.788964780910041  0.758386387900496  0.731901078654727  0.715157094244557  0.691930307776347  0.664071078718521  0.644971900998292  0.62715369828439  0.486596512819585  0.486940012318739  0.487278653589287  0.487617007784371  0.487929041851155  0.488211647647464  0.488281915051492  0.488560647317765  0.490000000293946  0.49000000036841  0.489999999982649  0.489999999895276  0.489999999635466  0.489999999224077  0.490000000822504  0.489999999527478  0.489999997897499  0.489999997847098  0.489999997815372  0.489999997794521  0.489999997780554  0.489999997771207  0.490000000652442  
0.490000000335137  0.490000000328663  0.490000000320213  0.490000000308701  0.490000000292069  0.490000000266259  0.490000000223448  0.490000000151891  0.490000000045843  0.490428286054102  0.471282527710427  0.43624293524129  0.392827367902231  0.363106801838479  0.344413410607721  0.329108007757837  0.331676653441414  0.359678849028616  0.418313296645289  0.512940042361147  0.606197397160113  0.61119174793103  0.752760129947715  0.899118847587765  0.820277854942667  0.757341785296977  0.703539388322265  0.655916685629317  0.615820515459856  0.575643345314998  0.549604558433525  0.545403431874627  0.557710165919627  0.586347506527835  0.627431185016811  0.654749842476485  0.686523543793186  0.726360735632046  0.770820746247057  0.805824184530194  0.827774683188828  0.862107599214376  0.859509741715359  0.846564925694339  0.852727190192982  0.856322335888759  0.864946625370682  0.926158461642193  0.9379529733694  0.953499562187464  0.984760985718239  0.988956705800632  0.988035630229095  0.884065940958246  0.882808305503471  0.876420419059196  0.880463381202675  0.875683904714006  0.867946614803248  0.860741266718258  0.847062402520752  0.830137346275756  0.804965767768205  0.784306403042232  0.754107938688808  0.732677113740921  0.712427107005203  0.69079303033222  0.664315217219693  0.646343686788368  0.628889904697712  0.612751603139578  0.487162131764282  0.487447417244395  0.48772526111333  0.487972138971647  0.488187273901856  0.488175222787802  0.488410511454831  0.49000000025091  0.49000000004954  0.489999999691763  0.490000000122422  0.489999999855167  0.490000000064925  0.48999999950599  0.490000000494811  0.490000000459964  0.490000000413817  0.490000000365856  0.49000000031734  0.490000000269017  0.490000000221346  0.490000000610237  
0.48999999987791  0.489999999950853  0.490000000055683  0.490000000203718  0.490000000411081  0.490000000700925  0.490000001105904  0.490000001666759  0.490000002387584  0.489773033439483  0.46972564811627  0.443954203267503  0.392720306466481  0.361852998841148  0.342850062367284  0.327764538350851  0.333356055134134  0.350253961500676  0.409909037340804  0.509428122360996  0.599820300968467  0.453639262551756  0.505283906033799  0.708871914084711  0.715952159902467  0.688045708985368  0.65629996767501  0.621751302197179  0.585122466922124  0.542384193145842  0.502048232318978  0.489545442988508  0.511841439721846  0.541932720160654  0.582794741307269  0.612112311741123  0.644528281695645  0.687296455332449  0.73476296671707  0.777349819447966  0.811216996274443  0.837317743061426  0.84909746754843  0.834718666370488  0.842002813531398  0.845769571000009  0.891205118976404  0.921713441642456  0.96257871484736  0.979396341221046  0.985294687011098  0.988514444119591  0.870812212086938  0.865549876158613  0.867818419403015  0.875079307077851  0.867476548981413  0.861512144313852  0.852940690535347  0.846551869848698  0.833346217244165  0.822434613807835  0.802503398495049  0.759557340972318  0.743746205735927  0.72623571162071  0.70798114718674  0.687998141223172  0.66314948107895  0.645954704727643  0.629522925205073  0.613687647901168  0.599022590065471  0.487554945010463  0.487703696797854  0.487689885666258  0.487943906138716  0.487981601056347  0.488360746720777  0.488664136177133  0.489999999695699  0.490000000029405  0.489999999836626  0.490000000463588  0.489999999178772  0.490000001258842  0.489999999708368  0.490000001500917  0.490000001457933  0.490000001417609  0.490000001380476  0.490000000119437  0.489999998921117  0.489999999798235  
0.489999999528443  0.48999999953476  0.489999999537792  0.489999999535636  0.489999999525485  0.489999999503265  0.489999999463331  0.489999999401558  0.489999999461604  0.486617100238978  0.463253421109961  0.431364033274136  0.392569430698478  0.361138730703121  0.344146923753476  0.318271366323692  0.309598308223771  0.315141876658125  0.3565508878916  0.436774466464275  0.487929817981082  0.43755943637088  0.446981094282809  0.545971752885743  0.586509789655903  0.605853914712957  0.60535250000987  0.587480752859848  0.559616578507612  0.520458759797356  0.459953662791477  0.430304171746211  0.47655873490121  0.537403287348167  0.540664208613573  0.563302250993465  0.598870159188305  0.650069953810823  0.704140812631079  0.755086551548045  0.798883819374112  0.835936028620607  0.857523838834684  0.841478607065416  0.850589960640163  0.902033786612024  0.937419019806677  0.970979399578082  0.984944032960546  1.00067726578856  1.00480125322787  0.889213113957985  0.884639065341375  0.877166652502166  0.855580731112124  0.856846220604424  0.846716375774984  0.846432487707644  0.837881170687433  0.837091055211098  0.825744742641196  0.810162151198105  0.768122500588401  0.751787014385132  0.734047904346872  0.718648111578673  0.70223104144802  0.683891144560853  0.660257562308162  0.644082672592117  0.628495336766786  0.613453301024942  0.599402647920573  0.487355568444972  0.487605656432835  0.487882779390437  0.488106734116232  0.488105312946827  0.48846329816569  0.488711930101805  0.490000000666778  0.489999999711438  0.489999999936031  0.49000000111459  0.49000000009211  0.489999999693323  0.490000000467712  0.490000000474273  0.490000000453521  0.489999998875378  0.490000000364773  0.490000000022467  0.49000000038872  0.48999999891376  
0.490000000268819  0.490000000269076  0.490000000272281  0.490000000278519  0.490000000286916  0.490000000294346  0.490000000293749  0.490000000279028  0.490000000303639  0.482973942954282  0.461443662539276  0.429528551643671  0.396433873149628  0.364841065735039  0.342453424622188  0.311672312059859  0.287920641454544  0.264943615815435  0.280887057918549  0.377964743221895  0.455820339346849  0.483905440511744  0.498016025733756  0.510474072938791  0.508548644219257  0.555454949731769  0.567778518998565  0.562883173761471  0.538740891324437  0.515156943919029  0.461912066726433  0.435899549152385  0.471309709774844  0.495213054968809  0.499056518603852  0.506107542005136  0.553037664659762  0.619184494469511  0.680955920948854  0.738974981735053  0.784919488512047  0.833044514749263  0.861671663436088  0.842769704381829  0.930468359904611  0.941292323917052  0.951600814249296  0.979646485666601  0.993713033447757  0.945924325197547  0.899576740145054  0.890206324745835  0.880393239627933  0.873838498779962  0.866244941670684  0.859903449165168  0.852312085346536  0.848231736293592  0.846509389657504  0.832597025780539  0.783505082863949  0.773285461033492  0.751824872274635  0.737576287281265  0.721152118934943  0.707348736143159  0.695279264304958  0.678300488065834  0.655988972458539  0.640925505371825  0.626447649683621  0.612193263686544  0.598783900721232  0.586144939454397  0.487824055212814  0.488078795150767  0.488276768796479  0.488237365326122  0.488572883130112  0.488751444482119  0.489999999565818  0.490000000224543  0.490000000089226  0.490000000845912  0.490000000182988  0.490000001264594  0.490000000673349  0.490000000288364  0.490000000323034  0.490000000346456  0.489999999454001  0.49000000080451  0.490000000822888  0.489999999958319  
0.490000002098565  0.49000000206193  0.490000002014441  0.490000001953144  0.490000001873896  0.490000001769445  0.49000000162094  0.490000001359773  0.490000000945628  0.482962089699167  0.466708888721396  0.43203260203913  0.402060502060883  0.370771274439874  0.346916596868985  0.31611108184539  0.289929948053449  0.261325863907759  0.270407597880285  0.375111417842606  0.473104932635957  0.543598344361774  0.5790581655179  0.573590054165222  0.557208377133903  0.55927803175315  0.560650654331657  0.550925297216021  0.533587237359398  0.514258087528885  0.477655720181302  0.469684752951749  0.484255609108498  0.489999998762335  0.48999999899132  0.489999999510331  0.526827482774657  0.595443022375998  0.656073301023848  0.669589198770088  0.778771386952888  0.830466924937147  0.860981089190689  0.910599096834899  0.935267831658843  0.944511412848105  0.952897502621347  0.995735091356735  1.0098971592803  0.952615924874548  0.898799697707236  0.890907311213362  0.88033705198542  0.872722986539662  0.865114296478491  0.856761193544456  0.858066932133839  0.84753267044362  0.835352729544571  0.764811468543975  0.757604286462747  0.748621889269449  0.73737916445733  0.724794399137722  0.709519617549946  0.697405083853664  0.684060284823285  0.668404834164845  0.648087537845713  0.634241573395215  0.620997371152878  0.608234274389516  0.597141177289539  0.585044791454872  0.573403785048222  0.488251596795102  0.488430616769019  0.488352693957144  0.488666724860695  0.488775944782343  0.489999999749654  0.49000000000324  0.489999999896262  0.489999998715904  0.490000000439838  0.490000000784181  0.490000000334747  0.490000000402911  0.490000000438866  0.490000000465409  0.48999999968791  0.490000000090432  0.490000000075033  0.490000000121397  
0.490000000215065  0.490000000257986  0.49000000030263  0.490000000348777  0.490000000394713  0.49000000043337  0.490000000440186  0.490000000344057  0.490000000032894  0.48238640617816  0.465470730766338  0.439627075470307  0.411638562426527  0.388851552931899  0.362335316040687  0.338603210165438  0.3202912110163  0.315100896053835  0.345829794908131  0.422216591760956  0.520308916206915  0.620630874137558  0.6908086282088  0.654242592465068  0.610527712927067  0.582013982847097  0.564732253426395  0.546778400873649  0.527779540005348  0.508179248268331  0.483105843797156  0.482519729744784  0.48717060902986  0.490000001042149  0.489999999705837  0.490000000450776  0.503148221415391  0.568906131466089  0.646987939045946  0.683281710826365  0.74388216171444  0.847501399808609  0.89091823628589  0.923759442770823  0.947550898263547  0.954109596354122  0.959212891193359  1.00468627206793  0.958996731193909  0.905741859846256  0.892250911175423  0.879445977100668  0.870273503625065  0.86152429567012  0.864438921756007  0.853890169462419  0.843724076054638  0.752571960612641  0.751628769345651  0.747210260842758  0.740244395696912  0.732652101425444  0.722398721483853  0.711363109573654  0.698318040956911  0.687646285619576  0.675351805206014  0.660809267579564  0.641381830184597  0.628701659561784  0.616009578663034  0.603762053156827  0.591880263361074  0.58049820450174  0.569833082879061  0.559975818564221  0.488568703827683  0.488453513514606  0.488748895285111  0.488810194956872  0.489999999980826  0.490000000087008  0.489999999751965  0.490000000195659  0.490000000645975  0.490000000412336  0.489999999574473  0.490000000716676  0.490000000709597  0.490000000700711  0.490000000693708  0.490000000689248  0.490000000687113  0.489999999449733  
0.490000000833617  0.490000000827624  0.490000000818922  0.490000000805503  0.490000000783697  0.490000000746568  0.490000000679591  0.490000000538866  0.489999999983721  0.482450059747288  0.470514006367815  0.448081940786682  0.421621462809796  0.403341085148936  0.380942990169066  0.367669937938595  0.359999355282562  0.371569136559511  0.406311939117592  0.471682817858402  0.558180687645014  0.655929441825726  0.730108856098585  0.688540407355094  0.636851494541588  0.597009571249496  0.569575546498261  0.545304990787152  0.523465572943305  0.505649703293624  0.495244404314512  0.489184181403895  0.488740664493588  0.489999998682706  0.490000000254474  0.490000000042512  0.49073708440357  0.515785363734994  0.640360534222449  0.684329491186921  0.76675795712356  0.839473057970093  0.886366185079754  0.91721102400992  0.961148278656382  0.963627264300479  0.964693656756911  0.963383344180661  0.921129646331005  0.900785274463963  0.884903602362376  0.870752977293952  0.85976183551546  0.857582992112684  0.846589931912515  0.836525172557195  0.730566468067786  0.730556121658187  0.72908950493126  0.725615292232273  0.720962673660317  0.71448354243793  0.706003837747228  0.69644734655116  0.686926300252299  0.677557522905911  0.665929864643417  0.652678954222136  0.634552323579294  0.622983399818734  0.611238307903862  0.599665688504201  0.588149504867747  0.577218571824537  0.56685536224855  0.556931843928493  0.547888479307618  0.48854771292657  0.488801879940437  0.488849067767432  0.490000000031216  0.490000000890467  0.490000000028936  0.489999999949412  0.489999998490068  0.489999999930847  0.490000000239684  0.490000000392949  0.490000000492734  0.490000000583438  0.490000000667581  0.490000000746548  0.490000000821116  0.490000000398879  
0.490000000859978  0.490000000823  0.490000000779673  0.490000000729365  0.490000000672517  0.490000000612451  0.490000000559081  0.490000000537379  0.490000000632625  0.486017953358872  0.475189840538284  0.456645783323451  0.436305513227453  0.420725335262693  0.40637820867955  0.397744467901254  0.400103074003413  0.414636618977135  0.449286459558122  0.499609536653517  0.570947857822258  0.637160015971171  0.676916840903838  0.668569252908897  0.631879333714203  0.595562714217122  0.567063150957275  0.540427531570335  0.51395560526179  0.497658849380945  0.490927910318936  0.488424106416298  0.49024342234525  0.489999998184126  0.489999999420223  0.490000000156906  0.489223389136379  0.501493836250284  0.601123060985332  0.679330838060668  0.780438048175657  0.864719826942222  0.917783035258749  0.948479448664662  0.963042282134967  0.957330865683589  0.948591058046003  0.929320859464357  0.915657024067998  0.886523051800025  0.86928454528746  0.865315318111973  0.852074638487664  0.840129051301831  0.707177052842734  0.71025769768202  0.712011433314831  0.71250483464591  0.711639951191842  0.708817010983542  0.704709680362587  0.698585621456866  0.692001879215139  0.683583051207199  0.679513757345045  0.666600968312156  0.65616019549101  0.644165609393527  0.627247578336509  0.616651200096404  0.605762041821523  0.595062699654946  0.584320990082377  0.573990742855016  0.563992198990205  0.554281023051003  0.545442929709237  0.549939834806303  0.488873014080154  0.488906718734658  0.490000000597591  0.490000000362996  0.489999999817463  0.49000000007173  0.489999999831813  0.490000000291523  0.48999999973832  0.490000000700181  0.490000000561983  0.490000000491657  0.490000000460802  0.490000000453606  0.490000000460998  0.489999999756386  
0.490000000695284  0.490000000718537  0.490000000738306  0.490000000750847  0.490000000749525  0.490000000723129  0.490000000655904  0.490000000538731  0.490000000324313  0.491200922447729  0.481427805837181  0.466488908502699  0.450801155401881  0.438956446976706  0.430162097148974  0.426729860591474  0.429458872145199  0.445830548576984  0.476341901934317  0.514421543724337  0.565824579624449  0.609128806428309  0.632549380100014  0.631783829994731  0.612682746775279  0.579784983205483  0.554955503016067  0.535979467096927  0.511994847811652  0.489402728219006  0.485568436981566  0.49069591483567  0.489090102142637  0.489999999557054  0.490000000708948  0.490000000002045  0.488955857288859  0.510415532540882  0.559695230112219  0.665130186916576  0.784316623538242  0.887528946072288  0.953824543196614  0.984167172516983  0.989787570311855  0.973202674606102  0.918294852475745  0.90351015913977  0.876331901443223  0.871047219484897  0.852191109398073  0.837451897938351  0.82440140059873  0.743838712627761  0.74210186782551  0.739891736870211  0.737078961919525  0.733649687297068  0.728797662733935  0.723025658603714  0.71660854383651  0.708474936067135  0.700156815494861  0.681947215979209  0.66781112692894  0.655588287369821  0.646303759394231  0.635413254045674  0.61964805149262  0.60998287547679  0.599848325729615  0.589920661766096  0.57984011417688  0.57029895590142  0.560829492361573  0.551752045718187  0.543270041269886  0.548574879219808  0.538167557850161  0.488932680371162  0.490000000065582  0.490000000407825  0.489999999960543  0.490000000055134  0.49000000144241  0.490000000642818  0.490000000216661  0.490000000306332  0.490000000360731  0.490000000406805  0.490000000447931  0.49000000048554  0.490000000520378  0.490000000321752  
0.489999999759189  0.489999999801799  0.489999999848181  0.489999999897949  0.489999999949746  0.490000000000346  0.490000000043149  0.49000000006676  0.490000000090383  0.496652940996643  0.486814484690671  0.475730894963201  0.462848071273027  0.455548754058292  0.449720985494042  0.44759474248511  0.453788990860808  0.467139698168231  0.486978884399461  0.517258254289412  0.549638220087124  0.577864556632674  0.596542413456344  0.596901244379914  0.583326300469586  0.564207414607732  0.543798861659656  0.522342332052836  0.503703905813583  0.487193829493453  0.486842986109562  0.49021366382436  0.489999999369215  0.490000000102621  0.48999999990561  0.489999999520919  0.483589761945311  0.490664800748031  0.510071420018546  0.649995826765226  0.786433949061232  0.912102323466555  0.997778588439032  1.03144119684718  1.02516688020791  0.977722637742091  0.946817790070649  0.928217663773922  0.892071491369274  0.86851757908019  0.850274761825146  0.734902058112695  0.733467925418009  0.732864778294544  0.731042076519699  0.72943643348315  0.727281830478364  0.724089551688852  0.719631745542835  0.714333999512269  0.708361804745236  0.700763846954569  0.680644149446461  0.673706310113163  0.65512599091863  0.644707102468158  0.63638010234197  0.626488226551143  0.612305276193118  0.603031327188351  0.593837359345113  0.584685698459459  0.575369293302391  0.566443223644385  0.557508944910678  0.550021223831856  0.542005687435198  0.54794750850998  0.537593864242464  0.488984235622502  0.489999999754151  0.490000000749813  0.490000000363389  0.489999999576641  0.489999999674961  0.490000000452486  0.489999999853857  0.489999999492167  0.489999999424741  0.48999999936967  0.489999999325787  0.489999999290832  0.489999999262703  0.489999999579594  
0.489999999803636  0.489999999835026  0.489999999869028  0.489999999904872  0.489999999941076  0.489999999975307  0.490000000004154  0.49000000002197  0.490000000028777  0.501738018211655  0.490813834327757  0.483253463208602  0.475971059986503  0.469868744139591  0.463633427877332  0.463439367989806  0.469615844469008  0.477392480914911  0.494396049516847  0.507953355199629  0.530223590203842  0.562602059071223  0.571352913815975  0.563547709082289  0.554724122710495  0.541687159105968  0.526615272104773  0.510537558627875  0.497572719732761  0.489610770690165  0.489545206662949  0.490000000224729  0.489999998491936  0.490000000554355  0.489999999175392  0.490000001211217  0.490000000069039  0.489999998583096  0.502893357590851  0.623734322580925  0.7665978185303  0.922140304970164  1.04929912125145  1.07285605441991  1.02728723057526  0.969981027251715  0.929682647632844  0.89756622914187  0.869355488507422  0.846528946014906  0.695278108701556  0.697532635794465  0.699437912594788  0.701107108039677  0.700137969682307  0.700025540017207  0.698190777012843  0.696525252611577  0.693639597403977  0.689855677495574  0.68482158326474  0.664139007922087  0.659126209283276  0.653610779095721  0.664601003458502  0.632466660580222  0.626699047736615  0.617761183769712  0.604596147114021  0.596181661299056  0.587668458221482  0.579335748493277  0.572094626168001  0.563848229102384  0.5554581419457  0.547227200785948  0.539654638779571  0.546166620799452  0.535344593049713  0.524755620562862  0.490000000363291  0.490000000334009  0.489999999844732  0.489999997927403  0.490000000243655  0.489999998638154  0.49000000011938  0.490000000159071  0.490000000179423  0.490000000460647  0.490000000417301  0.490000000429818  0.489999999581678  0.489999999414504  
0.489999998222872  0.490000000010171  0.489999999991943  0.489999999972289  0.489999999951539  0.489999999930299  0.48999999990938  0.489999999889533  0.489999999870757  0.505718311391446  0.492815872664295  0.488267138104415  0.482843297174022  0.479224765250278  0.474681770961189  0.472201566825726  0.476522612196564  0.48486520802191  0.490501080391297  0.505007399965432  0.52943123503535  0.538649384842958  0.547732429638516  0.53937304542191  0.53061161566415  0.519587954033136  0.509192438524051  0.499218069965739  0.49302565150701  0.492266162182148  0.48986034589825  0.489999999487038  0.490000000186437  0.489999999769509  0.490000000306082  0.489999999756236  0.490000000042801  0.48999999920638  0.506874066712845  0.593810851542487  0.737062126649095  0.904662213700028  1.08745220309831  1.06210383973488  0.993374063181297  0.92999451053174  0.887144140591936  0.855319022654313  0.834251257984248  0.810793866478098  0.795088165162844  0.782756887616677  0.773088006651159  0.765347196298481  0.757920568644187  0.751416435395094  0.745220511448848  0.734234070018042  0.726011735760774  0.715953542185777  0.693486047549721  0.686039901738048  0.678154397909507  0.670123551787962  0.677538606864071  0.632112235322459  0.623206355690304  0.603606476390364  0.597940623443679  0.590314089801366  0.582736893115315  0.575162684029118  0.56730900934751  0.559210813240729  0.55128567963853  0.543518949094325  0.536404964399892  0.543407757170245  0.53271378077927  0.522098779735093  0.489999999570329  0.490000000428549  0.489999999998371  0.489999999918264  0.490000000517211  0.490000001160721  0.490000000132351  0.490000000065219  0.489999999524259  0.48999999989481  0.489999999766509  0.489999999765246  0.489999999020368  0.490000000867098  
0.489999999600388  0.490000001002947  0.490000000930005  0.490000000135892  0.490000000080142  0.490000000023183  0.489999999976824  0.489999999966712  0.490000000042621  0.509254915594528  0.494701778626671  0.491727417245894  0.487165906781592  0.481278665261723  0.477261323908603  0.482191563161097  0.484956482722477  0.491427175837313  0.504400894766186  0.508438434050093  0.517974742150674  0.516023237191968  0.524113103654519  0.518268203254898  0.511500108203678  0.503198597989843  0.495942759002464  0.488670684695153  0.485091881464749  0.486930596275859  0.49000000104896  0.490000000412163  0.490000000193601  0.489999999916254  0.490000000777596  0.489999999152773  0.489999998672016  0.490000000075182  0.487385625441868  0.558113316621536  0.684122628002608  0.817917619017632  0.91807886333004  0.937304657992486  0.901520602474653  0.857958850863699  0.825975529369972  0.804644231614635  0.793295473087353  0.77536905857733  0.764366491021308  0.756227712062041  0.750052232017978  0.744078592480305  0.738843201437847  0.733580386069716  0.724161201202933  0.717952165025574  0.711585425412292  0.693933403195655  0.687576309767455  0.674652570930535  0.667737390754065  0.660736388265909  0.653381315475329  0.655080037852201  0.612310907505164  0.592705442140889  0.590159712435971  0.583232638627176  0.576203833001972  0.569167395018387  0.561873971148497  0.554330313275822  0.547047396281878  0.539681143548143  0.532978879412317  0.540557709675195  0.529960284375097  0.519440807947807  0.490000000173344  0.490000000239605  0.490000000409563  0.490000000270567  0.489999999687883  0.489999998284926  0.490000000204094  0.490000000267213  0.49000000025043  0.490000001258179  0.489999999749409  0.489999999770581  0.489999999786258  0.490000001291379  
0.48999999992548  0.490000000120975  0.490000000148216  0.490000000516308  0.490000000292588  0.490000000327276  0.490000000151972  0.489999999608706  0.489999999028593  0.489999999906803  0.496338370166022  0.493645450764276  0.490502883634464  0.487674650463534  0.486663817187437  0.486469000530858  0.488325866429001  0.492177534260686  0.497362395636757  0.458971158756361  0.463332984336003  0.468175276355451  0.504578590012117  0.498338718294427  0.494704608868114  0.488323075937746  0.483294774951872  0.489999997794056  0.490000000209702  0.489999999153783  0.489999999649439  0.48999999892254  0.489999998631764  0.490000000502857  0.489999998876771  0.490000000258567  0.490000000020654  0.490000000388503  0.490967301799937  0.536064368992096  0.610722389872352  0.694243953431745  0.75179608297512  0.780411602992872  0.781771736392986  0.757611638125865  0.743876974500041  0.743582000481034  0.734304110045858  0.724482981331475  0.72032505098894  0.717526425820697  0.714911813383791  0.709951192722026  0.70669856084398  0.702808463835757  0.698601001245254  0.682573064178189  0.678280246476942  0.673490652044021  0.668906822008066  0.663577926716714  0.658125926247282  0.653359498117242  0.646917848320431  0.64862181515254  0.640210148169686  0.58257464206898  0.582429342646048  0.576158201344528  0.569951337953922  0.563329588119486  0.556633458464821  0.549621634320537  0.542808814504825  0.536187450189116  0.53114552325325  0.53768954246527  0.527259536145905  0.516822488837897  0.489999999779061  0.49000000003045  0.489999999205629  0.489999999934849  0.489999999908396  0.490000001227687  0.489999999975671  0.490000000500891  0.489999999369741  0.489999999604607  0.489999999050066  0.490000000208881  0.489999999662518  0.489999999561795  
0.490000000014381  0.489999999921036  0.489999999948042  0.489999999935172  0.489999998956867  0.490000000008103  0.490000000437123  0.490000000553804  0.4900000005335  0.489999999542234  0.503657183578947  0.499964152125572  0.489999998041729  0.490000000237134  0.489999999766584  0.489999999115163  0.490000000710233  0.48999999909203  0.489999999860887  0.471804022601833  0.475995753198262  0.483726477082312  0.492317999730706  0.488711905016374  0.486311315189635  0.489999999651912  0.489999997570328  0.490000001195515  0.490000000384732  0.49000000039475  0.490000002209557  0.489999999007704  0.489999999890088  0.489999998335828  0.490000001795376  0.490000001333039  0.48999999856585  0.490000000734713  0.489999999616971  0.516574925011442  0.547212067671667  0.580743876192285  0.610181232682531  0.638487120961249  0.647003651482041  0.642353880376848  0.667869617675328  0.670847296502624  0.676430072156643  0.672814815189888  0.67578076566643  0.676767931316439  0.677890358852498  0.678091140803409  0.665844923193314  0.664320074685971  0.662445885655211  0.660526984996727  0.657701828594449  0.654449394813432  0.659304610747859  0.655150260323115  0.650324996756802  0.644790706885269  0.638540591856137  0.632401855306545  0.628732066269242  0.582869206762646  0.562807314765085  0.569385961488548  0.563756673527382  0.557678583649669  0.551975667863888  0.54781900146991  0.541093240017392  0.534232549606451  0.527896477665051  0.534832358025491  0.524622656133713  0.514423770178144  0.489999999860742  0.490000000313427  0.490000001466735  0.490000000532678  0.489999999901756  0.48999999867697  0.489999999892616  0.489999999711142  0.48999999965199  0.490000000019556  0.489999999430319  0.490000000308236  0.490000000328018  0.489999999412813  
0.489999999921277  0.490000000111873  0.489999999541056  0.489999999896783  0.49000000053477  0.489999997633995  0.490000002656023  0.489999999977849  0.490000001270013  0.49000000000034  0.489999999863358  0.490000000525551  0.490000000248983  0.489999999416077  0.489999998277939  0.489999999932137  0.489999999926123  0.490000000303307  0.490000000368697  0.489999999746387  0.490000000516138  0.490207679488625  0.485882864768668  0.489999999054251  0.490000000470851  0.490000001451207  0.490000001652886  0.490000000096027  0.490000002550816  0.490000003475747  0.489999997989748  0.490000000943266  0.489999999539561  0.49000000253558  0.489999999828096  0.489999999705191  0.489999998285895  0.490000001104882  0.489999999411637  0.489999999896774  0.484201003434485  0.485776556555937  0.512452455188273  0.492575415829242  0.492324633542408  0.538782944086745  0.565571662435679  0.590026506613809  0.611033640765554  0.618726189774897  0.627703956479365  0.634010767792482  0.627927365939302  0.631057330017136  0.631721964152963  0.631577481735157  0.630588271874176  0.644989500277338  0.64257972767582  0.639687425103611  0.62533185604325  0.632160946209134  0.627549059974441  0.62312575629492  0.617721687879451  0.611985592033864  0.605565753565137  0.596364629934619  0.607845553391034  0.571212783779411  0.561878646644798  0.555860326222374  0.549730634673416  0.543298602353063  0.537012900089704  0.534758064514427  0.528259819374659  0.531996731470175  0.522085886832775  0.512200205818036  0.490000000167377  0.490000000078877  0.490000001396904  0.489999999785426  0.489999999976986  0.489999999947962  0.490000000177793  0.489999999705306  0.489999999707609  0.489999999723779  0.489999999342839  0.490000000901828  0.490000000986965  0.490000000020306  
0.48999999997638  0.489999999562301  0.489999999859708  0.49000000072277  0.490000000721728  0.490000000536086  0.489999998430488  0.490000000914944  0.489999999778672  0.490000000137771  0.489999998327793  0.489999999741791  0.48999999927061  0.489999998587827  0.490000000262622  0.489999999097722  0.490000001304734  0.490000000256127  0.490000000029555  0.490000001011376  0.489999998246939  0.489999999350913  0.489999999907706  0.490000000723688  0.490000000341323  0.489999999435233  0.490000000079152  0.490000000195934  0.490000000992855  0.490000001646075  0.490000001443007  0.490000001029782  0.48999999975238  0.489999998187013  0.49000000061827  0.490000000704077  0.49000000114131  0.490000000530628  0.490000000248255  0.490000001431373  0.490000001704895  0.490000000322819  0.490000000613171  0.489999999543335  0.489999999683695  0.490000000665292  0.491652111630132  0.502149622211272  0.512689604289432  0.521907124481935  0.523536644088116  0.530318354761709  0.536615130225142  0.542373802941983  0.549485682698814  0.554192343822638  0.558244903062673  0.561704107164889  0.564507288561282  0.566719460754841  0.490000000591075  0.489999998712048  0.490000000554872  0.489999999483848  0.489999999710289  0.490000000312504  0.490000000147246  0.489999997893896  0.490000000793789  0.555215223953333  0.550823794927069  0.546393408540622  0.541591756568087  0.536481374575189  0.531088885794612  0.525577428529508  0.525071619624002  0.52915946705439  0.519576923752177  0.510020887302228  0.490000000127443  0.489999999967673  0.489999999661073  0.489999999879521  0.490000000093258  0.489999999273925  0.48999999910409  0.489999999198615  0.489999999197583  0.489999999190274  0.489999999176698  0.489999999143776  0.490000000090719  0.490000000674972  
0.489999999567143  0.489999999671109  0.489999999687479  0.48999999973263  0.489999999755015  0.489999999734158  0.490000000102751  0.490000000329219  0.489999999780273  0.490000000358429  0.48999999972092  0.489999997937408  0.490000000785053  0.489999999450621  0.489999999827867  0.48999999971442  0.489999999231457  0.489999999440254  0.48999999944884  0.489999999470913  0.489999998776883  0.490000000395172  0.489999998087898  0.490000000792677  0.490000000668033  0.489999999951398  0.489999998733114  0.49000000027012  0.49000000052552  0.490000000975447  0.490000000733305  0.489999999034516  0.489999999086012  0.490000000030386  0.48999999950003  0.489999999493502  0.489999999882157  0.490000000566769  0.490000000225315  0.489999999230214  0.490000001223404  0.490000000726376  0.489999999491323  0.490000001285337  0.489999999961793  0.49000000135397  0.490323120678457  0.496475088000197  0.502458272200731  0.509677646284631  0.516398600308817  0.522870156107348  0.528871856694608  0.534394733551034  0.539415502067228  0.543807951734311  0.547775619335713  0.551191882650684  0.555003183722338  0.557338477955256  0.489999999696  0.489999999451223  0.489999999897735  0.489999999789759  0.489999999820365  0.490000000200595  0.490000000020032  0.489999998696314  0.490000000317822  0.490000000322636  0.490000000580453  0.489999999741003  0.535128755617039  0.530310326083722  0.525465674701327  0.520422044349113  0.517084723956471  0.511410116471514  0.517056209238181  0.507953856493799  0.489999999537941  0.489999999916184  0.489999999478394  0.489999999845611  0.490000000136382  0.490000000195026  0.4899999993963  0.490000002122904  0.490000002399628  0.490000002646957  0.490000002868979  0.49000000306893  0.490000003249298  0.490000000179522  
0.490000000381554  0.490000000008224  0.489999998386393  0.49000000020334  0.489999999623781  0.489999998823533  0.490000000570571  0.48999999926182  0.49000000013559  0.489999999942715  0.489999999885751  0.49000000055483  0.489999999865933  0.489999999967221  0.489999999964864  0.489999999414826  0.490000000125072  0.490000000019583  0.49000000012363  0.490000000059113  0.489999999425501  0.490000000512241  0.489999999406742  0.490000000063119  0.490000000706064  0.48999999738721  0.490000000783697  0.489999999474182  0.489999999357359  0.490000001094581  0.4900000003465  0.489999999221645  0.489999996598296  0.489999999259259  0.489999999994909  0.489999999237577  0.489999999934683  0.490000000860973  0.490000000226112  0.489999999445686  0.489999999665124  0.490000001186521  0.489999999441798  0.489999999740395  0.490000000202785  0.490000000587056  0.489839394631782  0.492702612255218  0.497840525700605  0.503566908127221  0.509644538643295  0.515577838666643  0.521138290690656  0.526113862449617  0.530896494726312  0.536431445682184  0.540357217814388  0.5436807505763  0.546545042286953  0.489999999152594  0.489999997880321  0.489999997930289  0.489999999811376  0.490000000590681  0.490000000911959  0.489999999636255  0.490000000132962  0.489999999923353  0.490000000065873  0.48999999940173  0.489999999919706  0.490000000602227  0.489999999886053  0.490000000303771  0.521980219788237  0.517347733697897  0.514093007922005  0.508192899847613  0.503301776703073  0.505891626069643  0.489999999981751  0.489999998408953  0.489999999807801  0.48999999979361  0.490000000122369  0.489999999303431  0.489999998984029  0.489999999051379  0.489999999017894  0.489999998993442  0.489999998974807  0.489999998960099  0.48999999894818  0.490000000623675  
0.490000000077449  0.490000000075551  0.489999999858619  0.490000000267003  0.490000000012677  0.489999999988996  0.490000000804775  0.490000000291201  0.489999999596636  0.489999999962028  0.489999999988088  0.490000000802648  0.490000000164064  0.49000000000778  0.490000000164901  0.490000000193169  0.490000000131615  0.489999998044813  0.489999998941709  0.490000001019782  0.489999999525483  0.489999998629557  0.489999999944476  0.489999998705145  0.49000000084201  0.489999999580742  0.489999999970999  0.489999996816088  0.48999999956114  0.490000000917999  0.489999998659495  0.490000000292383  0.490000000654511  0.490000001113742  0.490000000243178  0.49000000008112  0.49000000188094  0.490000002182349  0.489999998778246  0.489999999174077  0.490000000881002  0.490000000471496  0.489999999906901  0.489999998723615  0.490000000691298  0.489999999785533  0.490116501823009  0.491851225617493  0.495896129759667  0.499659819351821  0.504604101900449  0.509171570941458  0.515553425732417  0.520399624926212  0.525131628749844  0.529291701613158  0.532993251245865  0.536158769996932  0.490000000118387  0.490000000014048  0.489999999721298  0.490000001251673  0.490000000531768  0.490000000332072  0.489999999703472  0.489999999827278  0.489999999871884  0.490000000661877  0.489999999407373  0.490000000550482  0.489999999680038  0.489999999093027  0.489999999646021  0.489999999826234  0.4899999989614  0.514174942273246  0.511193470001845  0.505705383423062  0.501306864831357  0.497017755269321  0.489999999392819  0.490000000824988  0.490000000149217  0.490000000150631  0.490000000460233  0.490000001357029  0.490000000724656  0.49000000023853  0.490000000252441  0.490000000264006  0.49000000027351  0.490000000281319  0.490000000287776  0.49000000049735  
0.489999999953046  0.490000000513385  0.490000000532969  0.489999999682304  0.490000000161212  0.490000000116749  0.490000000014115  0.490000000843398  0.489999999876304  0.489999999817798  0.489999999907945  0.489999999577786  0.490000000107953  0.490000000201967  0.489999999574999  0.49000000093769  0.489999998698003  0.490000003046837  0.48999999939043  0.490000000168535  0.489999999988071  0.489999999582963  0.489999999730239  0.489999999697793  0.490000000020824  0.490000002037588  0.490000000605435  0.489999999911165  0.489999999382535  0.489999997348945  0.490000001225131  0.489999999329725  0.48999999828889  0.489999999026309  0.489999999398631  0.489999999773383  0.490000000738431  0.49000000101298  0.490000000753818  0.489999998023129  0.489999999363158  0.490000000631687  0.49000000143689  0.489999999656725  0.489999998314957  0.489999999975438  0.490000000191465  0.490868275996015  0.497063766382013  0.503087655096659  0.508764556732082  0.514107842155434  0.519020925986353  0.523647858655844  0.527683672556467  0.531290328660384  0.534453007186443  0.48999999997652  0.490000000612107  0.490000000864069  0.48999999984745  0.490000001032911  0.490000000443277  0.490000000479772  0.490000000122826  0.490000000213958  0.490000000247875  0.490000000853152  0.490000000523642  0.489999999779396  0.489999999554493  0.490000000225524  0.489999999529559  0.490000000511913  0.489999999303082  0.489999999180483  0.489999999044127  0.490000000772063  0.489999999907643  0.495962067498484  0.489999999723136  0.48999999876077  0.489999999502733  0.490000000001036  0.489999999778172  0.489999998900384  0.489999998600512  0.489999998668672  0.489999998669667  0.489999998678702  0.489999998692218  0.489999998707991  0.489999998724609  0.489999999184829  
0.489999998835895  0.489999999900869  0.489999999880955  0.490000000248779  0.490000000406481  0.489999999750584  0.490000000452798  0.489999999503352  0.489999998871562  0.490000000171118  0.490000000566759  0.489999999987577  0.490000000047657  0.490000000062351  0.490000000253444  0.490000000229667  0.490000000346347  0.490000001862638  0.489999999997758  0.490000000346676  0.490000000462911  0.489999999456203  0.490000000133696  0.48999999955625  0.490000001136869  0.489999999572793  0.490000000495218  0.489999999577539  0.489999999474291  0.490000000433964  0.490000000217558  0.490000001419607  0.489999999264068  0.49000000388085  0.489999999649074  0.48999999969261  0.489999999589154  0.490000001498555  0.489999999523106  0.489999998764333  0.489999998864719  0.490000000853455  0.490000000035795  0.490000003173499  0.490000000570083  0.489999998368646  0.489999999457648  0.490092681580587  0.493393862428697  0.497817488512842  0.502818269567982  0.507567388976697  0.512136691461747  0.516290116972796  0.52012212724858  0.489999999591043  0.489999999929055  0.48999999981566  0.490000000368711  0.490000000535724  0.489999998972699  0.489999998949457  0.48999999974676  0.489999999708756  0.490000000658817  0.490000000748154  0.490000000485488  0.489999999520263  0.490000000009642  0.490000000013087  0.490000000163216  0.490000000240695  0.489999999842956  0.489999999555468  0.490000000320725  0.48999999943574  0.489999999933462  0.489999999995592  0.490000000290726  0.490000000451734  0.489999999746027  0.489999999407761  0.48999999989111  0.489999999576615  0.490000001098431  0.490000000767143  0.490000000690963  0.490000000891183  0.49000000097266  0.490000001051863  0.4900000011278  0.49000000015479  0.490000000149343  0.490000000121606  
0.490000000003885  0.490000000392684  0.489999999642749  0.490000000112541  0.489999999728947  0.490000000104825  0.490000001321485  0.490000000180849  0.489999998928135  0.489999999737832  0.490000000291258  0.490000000075378  0.490000000659145  0.489999999694972  0.489999999898758  0.489999999535815  0.489999999869964  0.490000000551197  0.489999998625312  0.489999998904441  0.489999999800125  0.490000000254274  0.490000000200027  0.489999999774729  0.490000000639072  0.489999999196752  0.490000000259061  0.489999999568627  0.490000000637223  0.489999999305283  0.490000000813113  0.489999999110349  0.490000000220426  0.48999999904021  0.489999998880481  0.48999999864854  0.490000000552494  0.489999999766184  0.490000000796449  0.49000000021224  0.490000000597225  0.490000000105332  0.48999999807049  0.489999998886266  0.489999999109477  0.489999999313523  0.48999999890511  0.489603731093765  0.494444931598895  0.499187943448557  0.499698294230033  0.503493301179487  0.507435671698463  0.512494079748506  0.490000001073233  0.489999997895535  0.490000000219347  0.490000000421346  0.490000000393999  0.489999999152784  0.489999999203226  0.490000000023509  0.489999999978929  0.4900000000469  0.490000000033538  0.490000000121873  0.490000000710607  0.489999999973889  0.490000000054894  0.48999999967858  0.490000000408947  0.489999999436603  0.489999998991229  0.490000000396972  0.490000000653767  0.489999999946111  0.489999999071552  0.490000000516334  0.48999999996985  0.490000001448424  0.490000001415566  0.489999999793277  0.489999999825057  0.490000000281178  0.490000000082515  0.489999997545634  0.48999999971128  0.4899999997418  0.48999999975633  0.489999999766957  0.48999999984168  0.490000000955358  0.48999999981898  0.490000000028972  
0.489999999826307  0.489999999410131  0.489999999550045  0.490000000100607  0.490000000523272  0.489999999880188  0.49000000010223  0.4900000000939  0.490000000286465  0.489999999981562  0.49000000012817  0.490000000115328  0.490000000184864  0.489999999910142  0.489999999961702  0.490000002259605  0.490000000589371  0.490000001855956  0.489999999287065  0.490000000177839  0.490000001342725  0.489999999769146  0.489999999866276  0.490000000072556  0.490000000627962  0.489999999184753  0.490000002767573  0.490000000938382  0.489999999354724  0.490000000371148  0.490000001648323  0.489999999289296  0.490000001247597  0.490000000690418  0.489999998685536  0.489999999948356  0.490000000562716  0.490000001154978  0.48999999970317  0.489999999843808  0.490000001206212  0.489999999830006  0.490000000162797  0.490000001842527  0.489999999907908  0.490000000494502  0.490000000334553  0.489632614451609  0.491844986080982  0.495601560443538  0.499957684993013  0.504804230478928  0.490000000949136  0.489999999109247  0.490000000543346  0.490000000449647  0.490000000459622  0.489999999565644  0.489999999804447  0.489999999870198  0.489999999748876  0.489999999760395  0.489999999500972  0.489999998959335  0.489999999456736  0.489999999977957  0.489999999791185  0.489999999099472  0.490000002762637  0.490000002647268  0.48999999997566  0.489999998518128  0.490000000759077  0.489999999884704  0.490000000153419  0.490000000173707  0.490000000926578  0.490000000004172  0.490000000056278  0.490000000658451  0.489999999721082  0.489999999855547  0.489999999923204  0.489999999773148  0.489999999667866  0.490000000466096  0.49000000044214  0.490000000026379  0.490000000778337  0.49000000079258  0.490000000475514  0.490000000534758  0.490000000266902  0.490000002100504  
0.490000002218229  0.489999999827578  0.489999999799098  0.489999999624532  0.490000001377733  0.490000000395014  0.490000000014159  0.490000000898947  0.49000000076586  0.489999999583334  0.489999999836416  0.49000000011106  0.489999999634571  0.489999999595255  0.490000000134202  0.489999999850202  0.490000000252366  0.489999999862943  0.490000000155613  0.49000000011793  0.489999999999152  0.489999999876307  0.490000001682128  0.490000000479201  0.489999999520169  0.489999999898645  0.489999999107254  0.490000000283359  0.490000001045248  0.489999999380845  0.490000001326809  0.4900000001013  0.490000000079824  0.490000000195711  0.489999998658689  0.490000001280339  0.490000000851126  0.490000001000097  0.490000000814647  0.490000001593768  0.489999999084665  0.490000001490453  0.490000002399217  0.490000000236155  0.48999999976744  0.490000002555383  0.490000000686498  0.490000000062517  0.491042691090033  0.494426689719763  0.498760849088405  0.489999999966776  0.489999998055153  0.490000000333599  0.490000000323422  0.490000000374558  0.489999998951177  0.489999998918662  0.490000001327747  0.489999999783381  0.489999999760177  0.489999999739855  0.489999999621286  0.489999999619854  0.489999999634683  0.489999999295848  0.48999999958128  0.490000002260373  0.489999998988499  0.489999999108453  0.489999999883309  0.490000000565781  0.489999999701124  0.489999999348684  0.489999999632644  0.489999999457679  0.489999999937136  0.490000000043327  0.489999998818796  0.489999997156121  0.489999999515749  0.489999999990243  0.489999999723298  0.489999999644336  0.489999999953643  0.490000000493576  0.490000000351191  0.489999999767006  0.489999999976593  0.48999999877754  0.489999999097581  0.489999999678261  0.489999999721272  0.489999997173976  
0.489999999959745  0.489999999907221  0.489999999999013  0.490000000036316  0.490000000037787  0.489999999951276  0.490000000057266  0.489999999961638  0.490000000693865  0.490000000032543  0.49000000030577  0.489999999292442  0.490000000148041  0.490000000136575  0.489999999888619  0.49000000203939  0.490000000674388  0.490000003492936  0.489999999721923  0.490000000824213  0.489999999748083  0.490000000239446  0.489999998975391  0.489999998983951  0.490000000236254  0.489999999210319  0.489999999703847  0.490000000824847  0.490000000278166  0.490000000287442  0.489999999725937  0.490000000532165  0.490000001061718  0.489999999508667  0.4899999986289  0.490000001693099  0.490000000477222  0.489999999957698  0.489999999573348  0.490000000153639  0.490000000457121  0.489999999566426  0.48999999910485  0.489999999654304  0.489999999902152  0.490000002222166  0.4899999997977  0.489999997599354  0.490000000241965  0.490000000982317  0.490000002044562  0.490000000799515  0.489999998784004  0.489999998830266  0.489999998952849  0.489999999016044  0.489999999085227  0.489999999156957  0.489999999229163  0.489999999300417  0.489999999369574  0.489999999435588  0.489999999497377  0.489999999553725  0.489999999603177  0.489999999643909  0.490000000104606  0.490000000112271  0.490000000163224  0.490000000223237  0.490000001356344  0.489999999777012  0.489999999486993  0.490000001501039  0.489999999937821  0.489999999295577  0.489999999991279  0.48999999987838  0.490000002976631  0.489999999851698  0.490000000002181  0.490000000082733  0.490000000517452  0.489999999743982  0.490000000392471  0.49000000025074  0.489999999680306  0.48999999967554  0.490000000153215  0.490000000162167  0.490000001574064  0.489999994904933  0.489999999906505  0.490000000335685  
0.489999999809038  0.489999999701958  0.490000000131859  0.489999998709007  0.489999997733604  0.489999997871973  0.489999999255605  0.490000000404667  0.490000000384604  0.489999999823126  0.490000000014058  0.489999999889082  0.489999999212033  0.489999999859409  0.490000001798436  0.490000000320613  0.489999999926393  0.490000000571763  0.490000000730896  0.490000001122757  0.490000000009192  0.489999999883502  0.489999999974024  0.490000001522115  0.490000001054379  0.490000001236527  0.489999999329688  0.490000000393465  0.489999999885469  0.489999999613537  0.489999999782377  0.489999998958935  0.489999999762287  0.490000000490386  0.48999999982212  0.490000000179334  0.489999999576542  0.490000000784536  0.490000000576128  0.490000000824091  0.48999999908441  0.490000000738432  0.48999999944547  0.489999998845218  0.490000000055314  0.490000000637022  0.489999999308309  0.489999999312234  0.489999999969069  0.489999998423406  0.489999997866698  0.489999997724909  0.489999997665259  0.489999997666061  0.489999997705253  0.489999997769371  0.489999997850334  0.489999997943113  0.489999998044447  0.48999999815214  0.489999998264653  0.489999998380877  0.489999998499982  0.489999998621325  0.489999998744389  0.489999998868737  0.489999998993975  0.489999999119722  0.489999999245571  0.489999999371051  0.489999999939364  0.49000000006934  0.489999999674813  0.490000001229082  0.490000001169971  0.490000001059245  0.489999999245853  0.490000000608391  0.490000000306425  0.490000000389724  0.49000000042129  0.490000000114463  0.489999999717784  0.490000000267461  0.489999999850997  0.490000000311155  0.490000001754648  0.490000000196738  0.490000000723299  0.489999999943056  0.490000000222107  0.489999999947095  0.490000000071548  0.489999999403256  
0.489999999136826  0.490000000092044  0.489999999754685  0.490000000027289  0.49000000006345  0.489999999596963  0.490000000244529  0.490000000283063  0.490000000166828  0.490000000067642  0.490000000162033  0.4900000001023  0.490000000100395  0.490000000118102  0.490000000373083  0.490000001814292  0.490000000861665  0.49000000226932  0.489999998202583  0.48999999992211  0.490000000807964  0.489999998490089  0.490000000027976  0.490000000339278  0.489999999603828  0.489999999563811  0.490000000497229  0.490000001982355  0.489999999862343  0.490000001365002  0.489999999684924  0.490000000331323  0.49000000059613  0.490000000385349  0.489999999948126  0.490000000051492  0.490000000250016  0.489999999594523  0.490000001066382  0.489999998512355  0.489999999129765  0.490000001425322  0.490000000112616  0.490000000034055  0.490000000779509  0.490000001298027  0.490000000744123  0.490000000206589  0.490000001087816  0.490000000628854  0.490000001149105  0.489999999823825  0.489999999855484  0.48999999987729  0.49000000104891  0.490000001044412  0.490000001031968  0.490000001014254  0.49000000099282  0.490000000968621  0.490000000942266  0.490000000914157  0.490000000884553  0.49000000085362  0.490000000821452  0.490000000788082  0.490000000753492  0.490000000717603  0.49000000068027  0.490000000641245  0.490000000600094  0.490000000555973  0.49000000050691  0.490000000447293  0.490000000358994  0.490000000199061  0.490000000198623  0.48999999982574  0.490000000788775  0.489999999420691  0.490000000061894  0.490000000782565  0.490000000831565  0.490000000194613  0.490000000389811  0.489999999380587  0.489999999860283  0.490000000375268  0.489999999874165  0.489999999857796  0.489999999746189  0.489999999795921  0.490000002832546  0.490000000131545  
0.490000006819927  0.489999993215558  0.489999993517363  0.489999999736873  0.48999999972517  0.490000005038146  0.490000004704431  0.489999999920289  0.489999998393369  0.490000000230345  0.489999999907659  0.490000000299958  0.489999999977436  0.490000000051568  0.490000000385419  0.490000000089007  0.490000000213206  0.490000000757407  0.48999999977202  0.490000000700771  0.490000000695529  0.489999999669994  0.489999999946089  0.490000000206898  0.489999999395122  0.48999999974469  0.489999998702462  0.489999999887435  0.49000000013455  0.490000000137028  0.490000000285415  0.49000000008754  0.490000000416225  0.49000000060616  0.49000000088392  0.490000000720669  0.490000000019443  0.490000000404244  0.490000000135704  0.490000000058307  0.489999999490393  0.489999999737034  0.490000000608139  0.490000001132804  0.489999999382152  0.490000000698243  0.490000000392794  0.490000001580081  0.490000000946827  0.489999999413  0.490000000458132  0.490000000011511  0.490000000778925  0.490000000137097  0.490000000137002  0.490000000201901  0.490000000209732  0.490000000216727  0.490000000223311  0.490000000229777  0.490000000086076  0.490000000099276  0.490000000114404  0.490000000131291  0.490000000149835  0.490000000169987  0.490000000191715  0.490000000214963  0.490000000276543  0.490000000307802  0.490000000338934  0.490000000367352  0.490000000386644  0.490000000380037  0.490000000298869  0.489999999964379  0.489999998036193  0.49000000025995  0.490000000543201  0.490000002244173  0.490000000581144  0.490000000524505  0.489999999993393  0.490000000585236  0.490000000027507  0.49000000080011  0.490000000222978  0.490000000798452  0.490000000638746  0.490000001155985  0.490000000551072  0.49000000034202  0.490000000029848  0.489999999993116  
0.490000004373492  0.490000000008092  0.489999999997196  0.489999999994702  0.490000000011147  0.490000000010312  0.490000000007076  0.490000000012579  0.490000000187006  0.490000001652915  0.489999998904598  0.489999999863553  0.48999999945066  0.489999999975713  0.490000000109535  0.489999998201057  0.490000000105607  0.490000002160546  0.489999999742224  0.490000000407492  0.490000001714732  0.489999999409397  0.490000000860077  0.489999999333263  0.490000000534337  0.4900000000025  0.490000000026712  0.490000000063543  0.489999998806272  0.48999999991973  0.490000001727488  0.490000001694792  0.48999999971309  0.489999999718667  0.490000000337589  0.490000000050528  0.490000000708299  0.489999999637763  0.490000001931244  0.490000000143663  0.489999999784677  0.490000001078409  0.489999998271097  0.490000000559348  0.490000002717301  0.489999998667798  0.490000001748593  0.490000001241008  0.489999999185477  0.490000001258291  0.489999999743598  0.48999999958502  0.489999999807493  0.490000000443853  0.490000000859344  0.490000000082942  0.489999999846991  0.489999999802462  0.489999999276566  0.489999999314453  0.48999999934878  0.489999999380022  0.489999999408529  0.489999999434538  0.489999999458193  0.489999999479546  0.489999999584163  0.489999999595735  0.489999999606898  0.489999999617631  0.48999999962799  0.489999999638255  0.489999999649302  0.489999999663652  0.489999999688235  0.489999999741927  0.490000000136073  0.489999999644489  0.489999999777379  0.489999998265884  0.489999999967028  0.490000000609547  0.490000001871397  0.489999999934399  0.490000002172562  0.490000000193498  0.490000000653071  0.489999992133613  0.490000000001488  0.489999994223833  0.490000000025326  0.49000000002  0.489999999699663  0.489999999657154  
