DSAA
100   100
-99.25   -98.85
19.2   19.6
0.248110236618901   4.23225016171769
0.49  0.49  0.489999999978419  0.489999999975228  0.489999999615895  0.490000000131018  0.490000000735259  0.489999999198994  0.489999999691231  0.489999998991965  0.4900000001259  0.490000000011323  0.490000000538218  0.490000000332244  0.489999997944198  0.490000000274266  0.490000002063577  0.489999999387506  0.489999999295176  0.489999999656141  0.489999999864229  0.489999999896145  0.489999999743773  0.489999999961872  0.490000000923591  0.489999999320925  0.489999999973642  0.490000000327104  0.48999999878105  0.489999999491561  0.489999999934653  0.489999998959989  0.49000000009837  0.490000000905959  0.490000000626442  0.489999999014796  0.490000000207761  0.490000000507499  0.490000000836469  0.489999998099052  0.490000000063587  0.489999998996969  0.489999999841338  0.490000001394587  0.490000001001539  0.489999999604284  0.489999999378316  0.489999999574911  0.490000000471089  0.490000001435944  0.490000002452854  0.489999998720198  0.489999999565916  0.490000003375708  0.490000001062138  0.489999999526763  0.489999997003361  0.489999998814828  0.490000000442521  0.489999999319958  0.489999999242287  0.489999999188426  0.490000000012074  0.489999999129999  0.490000001354806  0.490000000456714  0.490000000851472  0.490000000347397  0.489999999388228  0.490000000075003  0.489999999577876  0.490000000656119  0.490000000520211  0.48999999892831  0.490000000458863  0.489999999568428  0.489999999996968  0.490000000142316  0.489999999849807  0.490000000597105  0.490000000120237  0.489999999642849  0.490000000041378  0.489999998235219  0.489999999325044  0.489999999994965  0.490000001288314  0.489999999563947  0.489999999967981  0.490000000177687  0.490000000470815  0.490000000654889  0.49000000044428  0.490000000395848  0.49000000018911  0.489999999186263  0.490000000108947  0.490000000072793  0.490000000078915  0.489999998918478  
0.490000000043762  0.490000000104087  0.490000000169665  0.490000000240272  0.48999999974651  0.489999999732998  0.490000000019816  0.489999998708784  0.489999999828338  0.490000000137996  0.490000000260157  0.489999999519601  0.490000001458888  0.489999998570985  0.490000000377738  0.490000000155104  0.49000000004678  0.489999999521568  0.490000000322823  0.489999997966944  0.489999999781183  0.490000000391919  0.490000000241387  0.490000000127865  0.489999999855082  0.489999999638185  0.490000000090779  0.489999999976153  0.490000001388249  0.489999998880994  0.490000000276252  0.490000000955665  0.489999998041331  0.490000001000485  0.489999998854802  0.490000001474695  0.489999999942078  0.490000000059494  0.489999999947566  0.489999999991804  0.489999999848015  0.489999999765199  0.490000000441949  0.490000000387677  0.49000000014162  0.489999999927924  0.490000000479905  0.490000000072301  0.489999999671278  0.489999998568357  0.490000001314809  0.49000000093454  0.489999998896177  0.490000000400582  0.490000000324777  0.490000000159721  0.48999999883361  0.489999999318031  0.489999999671162  0.48999999998556  0.489999999905738  0.489999999727112  0.489999999273528  0.489999999176205  0.489999999713039  0.49000000073758  0.48999999977095  0.489999999938703  0.490000000247421  0.48999999914979  0.489999999762879  0.490000000876842  0.489999999971413  0.490000000344097  0.49000000121736  0.48999999947114  0.489999999615207  0.489999998425735  0.490000000653612  0.490000000440532  0.489999999932843  0.489999999228526  0.490000000837499  0.48999999927935  0.489999999185049  0.490000000623441  0.489999999741137  0.49000000032242  0.489999999433161  0.489999999488245  0.490000001104114  0.48999999944899  0.490000000320169  0.490000000095197  0.489999995245837  0.490000001032336  0.490000000060165  0.489999999795349  0.490000000601302  0.490000000751608  
0.4900000003505  0.489999999969215  0.489999999310788  0.489999999544866  0.490000000080145  0.489999999396455  0.489999999949875  0.490000001253404  0.490000001116437  0.490000001029717  0.489999999582269  0.490000000013414  0.490000000025791  0.490000000650549  0.489999998119938  0.490000000008907  0.489999999878818  0.490000000803409  0.490000000033068  0.490000000735606  0.489999999069623  0.490000001998596  0.490000000132418  0.489999999693194  0.489999999044686  0.490000001519923  0.489999999362328  0.490000000218121  0.489999998855714  0.489999999643242  0.489999999952095  0.489999998406978  0.490000000306963  0.489999998104978  0.489999999911257  0.490000000731324  0.489999999974183  0.490000000235317  0.490000000851307  0.490000000299448  0.489999999956621  0.489999999206985  0.490000000286131  0.490000000462862  0.489999997794337  0.489999998709128  0.490000000226111  0.489999999101585  0.489999998635148  0.489999999502947  0.490000000232033  0.489999999513698  0.490000001773017  0.489999999492062  0.489999999617072  0.489999999175532  0.48999999811546  0.490000000835826  0.489999999841726  0.490000000645371  0.490000000260777  0.489999999486753  0.490000000878046  0.490000000038817  0.489999999922248  0.489999999426602  0.490000001263201  0.490000000105281  0.489999999294919  0.490000001262877  0.489999998167403  0.489999999411837  0.489999998746725  0.490000001089528  0.490000001344441  0.49000000114979  0.489999998962324  0.489999999327805  0.489999999217748  0.490000000555164  0.489999999895338  0.490000000008412  0.490000000117422  0.489999999080604  0.490000000775214  0.490000000548338  0.490000000354865  0.490000001477292  0.489999998865213  0.490000000882025  0.490000000573699  0.490000000352903  0.489999999231398  0.489999999752062  0.489999999959859  0.49000000036917  0.489999998954501  0.490000000084069  0.490000000266467  0.49000000215461  
0.48999999973083  0.490000000451241  0.490000000301871  0.490000000340161  0.490000000108703  0.49000000012867  0.490000001132925  0.490000001311483  0.489999999150376  0.48999999980771  0.490000003410009  0.490000000071588  0.489999999077589  0.489999998035137  0.490000001811797  0.489999999610275  0.490000000191348  0.489999999775654  0.490000000577238  0.489999999457177  0.489999999928084  0.490000000741325  0.489999999525189  0.490000000914928  0.489999999593806  0.490000000964384  0.490000000504595  0.490000000320987  0.490000000333565  0.490000000637429  0.489999999849813  0.489999997978501  0.48999999895546  0.490000001175729  0.489999999344849  0.490000001652206  0.490000000629274  0.490000000863298  0.490000000126466  0.490000000851303  0.48999999978669  0.489999999278481  0.490000001305293  0.49000000025452  0.489999999922295  0.490000000511595  0.489999999333075  0.490000000098673  0.489999999649968  0.489999999982261  0.490000000778439  0.490000000657421  0.490000000785194  0.490000000257417  0.490000001343939  0.48999999953581  0.490000000111176  0.490000001511574  0.490000000355859  0.490000000950966  0.489999999107499  0.489999999620229  0.490000000854658  0.489999999331724  0.489999999198129  0.49020671527879  0.490114395085822  0.490032504343849  0.494910489323812  0.489999998031303  0.48999999846054  0.490000000250854  0.490000001194445  0.490000000382166  0.489999999730713  0.49000000023065  0.489999999280101  0.489999999869021  0.48999999955621  0.490000000063658  0.490000000138717  0.490000000618927  0.48999999977438  0.489999999974619  0.489999999841997  0.48999999923448  0.490000000288148  0.490000000404819  0.489999999391843  0.489999998564657  0.490000000283572  0.489999999995526  0.490000000275269  0.489999998859501  0.489999999850505  0.489999999402128  0.489999999608881  0.489999998993307  0.490000000894165  0.4900000008646  
0.489999998800795  0.489999997625295  0.489999999429009  0.489999999404321  0.489999993877909  0.48999999396692  0.489999994061479  0.489999999454748  0.489999999378666  0.48999999890009  0.489999998650343  0.490000000734935  0.48999999952789  0.490000000926673  0.490000001320654  0.489999996080585  0.490000002232711  0.490000000683831  0.490000000194749  0.489999999871979  0.489999999065245  0.489999998952652  0.490000003378123  0.489999999984751  0.489999999841326  0.48999999977255  0.489999999491175  0.490000000624634  0.489999999561731  0.49000000017173  0.490000000261205  0.489999999427888  0.489999999982731  0.489999999654468  0.49000000029563  0.489999998097888  0.48999999954044  0.489999999958575  0.489999999969837  0.490000000114519  0.490000000237337  0.489999999736446  0.48999999886798  0.490000000113955  0.489999999904399  0.490000000519511  0.48999999931724  0.490000000322464  0.48999999949107  0.489999999396159  0.490000001040593  0.490000000999767  0.489999999950662  0.489999999623911  0.489999999492372  0.489999999647815  0.489999999141632  0.48999999942714  0.489999998872822  0.489999999596932  0.490000000739882  0.489999999989452  0.490000001037982  0.490000001680813  0.49027535590912  0.490088690657575  0.490036200364399  0.489964613118529  0.506599950033813  0.515420485123851  0.489999999906151  0.489999999054286  0.490000000498869  0.490000001354491  0.489999999722047  0.489999999934234  0.489999999856465  0.489999999969503  0.489999999741948  0.490000000039403  0.490000000123278  0.490000000023912  0.490000000627117  0.48999999944828  0.490000000479282  0.489999999675075  0.490000000731526  0.48999999947671  0.489999998903522  0.490000001730629  0.490000000641841  0.490000000514146  0.489999998959584  0.489999998955568  0.489999998970713  0.49000000033844  0.489999999031952  0.490000000175688  0.490000000246767  0.490000000230797  
0.489999997288246  0.489999999241364  0.490000000205509  0.490000000177972  0.490000000148112  0.490000000519668  0.490000000543111  0.490000000567945  0.489999997733135  0.489999997344208  0.490000000022043  0.489999999619103  0.490000003095008  0.489999999416244  0.490000002024407  0.489999998364173  0.489999999981943  0.490000000014337  0.490000001245294  0.490000001012652  0.490000000170487  0.489999999067283  0.4900000007657  0.489999999130323  0.490000000248687  0.489999999639937  0.489999998652019  0.490000000312735  0.490000000164862  0.490000001150046  0.489999999661334  0.489999999985051  0.490000000053636  0.490000000288059  0.489999999963971  0.490000000553076  0.490000000520275  0.490000000367433  0.49000000016651  0.489999999294482  0.489999999309507  0.490000000643597  0.490000001343149  0.490000000382755  0.490000000484183  0.489999999629129  0.489999999774769  0.489999998836207  0.490000000872213  0.489999999060556  0.490000000495636  0.490000000447351  0.490000000419278  0.489999999852231  0.490000000032347  0.489999999258748  0.490000000584986  0.490000000166269  0.489999999799103  0.489999999447022  0.489999999712884  0.490759998681113  0.490586850054991  0.490397415816078  0.490187545519046  0.489987133592373  0.48992189059845  0.48985136896974  0.52182368995458  0.533364321187449  0.549217074984813  0.555021357894816  0.490000000264794  0.490000000478971  0.49000000009102  0.489999999662051  0.490000000171572  0.489999999497653  0.489999999500279  0.489999999943736  0.490000000273974  0.490000000669602  0.489999999678158  0.489999999701946  0.490000000310946  0.489999999822752  0.490000000099502  0.489999998794235  0.489999998305191  0.490000000232734  0.490000000415775  0.490000000952164  0.490000001280043  0.489999999590323  0.48999999951974  0.48999999937121  0.4900000012639  0.490000000714586  0.490000000710444  0.489999997539928  
0.490000000022775  0.489999998607548  0.489999998574596  0.48999999854011  0.490000000803709  0.490000000829569  0.490000000934545  0.490000000892208  0.49000000084848  0.489999998355091  0.490000004379764  0.489999999477571  0.489999999109758  0.489999999643278  0.489999999446761  0.490000000011988  0.490000000470532  0.489999999777491  0.490000000125187  0.489999997654939  0.489999999714113  0.490000000056479  0.489999999471193  0.490000000090314  0.490000001455409  0.490000000528663  0.490000000495154  0.489999998398336  0.490000000664071  0.490000000170321  0.490000000061624  0.489999999671983  0.490000001322142  0.490000000163209  0.490000000169983  0.490000000537506  0.490000000422191  0.489999999927955  0.48999999960407  0.489999999787223  0.490000000332093  0.489999999031773  0.489999999589358  0.49000000127799  0.489999999733929  0.489999999083447  0.489999999545293  0.489999999666009  0.489999999746267  0.489999999992504  0.490000000655191  0.490000000545114  0.490000000755739  0.490000000578112  0.490000000963133  0.489999999788798  0.489999998847863  0.48999999921249  0.489999999609563  0.489999999273158  0.490834443873601  0.490698121693137  0.490517946869009  0.490330482307256  0.490141741382691  0.489972509718288  0.489808408044416  0.489676292454348  0.540137953256044  0.55428565110067  0.589939767746467  0.583348888888594  0.490000000203438  0.49000000025504  0.490000000644763  0.490000001893101  0.490000000491238  0.490000000130889  0.489999999991915  0.4900000003076  0.489999999803748  0.49000000049643  0.489999999933453  0.490000000953445  0.489999999526831  0.490000000490117  0.489999999733038  0.489999999567594  0.48999999871361  0.490000000150262  0.49000000051108  0.489999999116721  0.490000000589298  0.490000000220309  0.490000000045296  0.490000000149055  0.490000000103088  0.490000000057236  0.490000001001718  0.489999999528934  
0.49000000015898  0.490000000889847  0.490000000928692  0.490000000969708  0.49000000101267  0.490000000400962  0.490000000405773  0.490000001835813  0.490000001828506  0.489999999861931  0.490000000274565  0.490000000387926  0.489999999356711  0.490000000155703  0.489999999491824  0.489999999537831  0.489999999904689  0.489999999621668  0.489999998587168  0.489999998627721  0.490000005314853  0.490000000335281  0.48999999997042  0.490000001188107  0.49000000017668  0.489999999844018  0.490000000908489  0.489999999834711  0.490000000136855  0.490000001254972  0.49000000024291  0.490000000803803  0.48999999934004  0.490000000062285  0.489999999921055  0.490000000374127  0.490000000290226  0.490000000097333  0.490000000075474  0.490000000263327  0.489999999868969  0.490000000048593  0.490000000508047  0.489999999420713  0.489999999162701  0.49000000057388  0.489999999633827  0.489999998812748  0.49000000054583  0.489999999637567  0.489999999781942  0.489999999286048  0.490000000048223  0.489999999619818  0.4900000013503  0.49000000034785  0.490000000943218  0.489999999832417  0.490000000616822  0.490893174135676  0.490767631081899  0.490615612186782  0.490425856179155  0.490230906261737  0.490045295650351  0.489837033818045  0.48964352839674  0.489482830561957  0.575126172264056  0.594879339205834  0.626567416243765  0.615103373100323  0.490000001276144  0.490000001239242  0.48999999944799  0.490000000437546  0.490000000964232  0.489999999542158  0.627996480378482  0.62130796585281  0.612556489456705  0.489999999278959  0.490000000949259  0.489999999752134  0.490000000793908  0.489999999173899  0.489999999692132  0.490000000393297  0.489999999304044  0.490000001926338  0.490000002016259  0.48999999867555  0.48999999967786  0.490000001151662  0.490000001292361  0.490000001400409  0.490000001478607  0.490000001532471  0.490000001567504  0.490000001588575  
0.490000000192057  0.490000002556131  0.490000000627095  0.489999999961095  0.489999999973128  0.489999999986216  0.490000000000481  0.489999999779471  0.489999999813481  0.489999999662085  0.490000002498951  0.490000000986389  0.490000000591536  0.490000000205764  0.490000001292204  0.490000000107372  0.489999999453201  0.490000000532591  0.490000000228233  0.490000000980294  0.489999995765995  0.489999999540599  0.490000001906611  0.490000000496195  0.4899999996097  0.490000001273091  0.489999999439374  0.490000001224233  0.489999999673418  0.490000000764025  0.489999999874788  0.489999999099366  0.489999999301992  0.489999999138847  0.490000000280489  0.490000001154286  0.489999999699811  0.490000000005169  0.490000000650383  0.489999999957285  0.489999998943546  0.489999999825307  0.489999997715561  0.490000000370521  0.489999999860629  0.490000000167797  0.490000000172954  0.489999999140366  0.489999999558111  0.490000000541  0.489999999194792  0.490000000967452  0.490000000240403  0.490000000469476  0.489999999275538  0.490000000490591  0.490000000121225  0.490968662200636  0.490901451601419  0.490815727758741  0.490683015025551  0.490502705047634  0.490290387243151  0.490068592480817  0.489834364505675  0.489606796925141  0.489413914161367  0.489250533848006  0.601035438471662  0.623269509499355  0.678910828202577  0.647215706542586  0.48999999943023  0.490000000952044  0.490000001291312  0.667595859745044  0.624403432224024  0.623879757685774  0.621405153231643  0.617203287797831  0.591063076473345  0.489999999128348  0.490000000393001  0.490000000719613  0.490000000324432  0.489999999991956  0.489999999396288  0.490000000172935  0.489999999411519  0.490000000163633  0.490000000078405  0.489999999044928  0.490000000967609  0.490000001108008  0.490000001233011  0.490000001321795  0.490000001370383  0.490000001383632  0.48999999907278  0.489999999013171  
0.489999999199579  0.490000000579885  0.490000000138403  0.490000000059447  0.490000001818389  0.490000001885568  0.490000001954731  0.490000002025422  0.489999999896323  0.490000000229081  0.490000000110721  0.490000001074516  0.490000000122496  0.489999998546956  0.490000001203992  0.489999998333678  0.489999999831999  0.490000000219098  0.490000001160663  0.490000000040292  0.489999997843235  0.490000000657965  0.490000002486192  0.490000001243312  0.490000000032904  0.490000000438763  0.490000000541696  0.489999998959027  0.490000000246136  0.490000001328161  0.48999999992913  0.489999999121355  0.49000000061967  0.48999999950932  0.490000000791565  0.49000000018419  0.48999999992759  0.489999999065611  0.489999999627259  0.49000000025407  0.490000000075343  0.489999999328432  0.490000000906415  0.490000000623407  0.489999999837871  0.49000000035449  0.489999999662316  0.48999999910651  0.48999999985659  0.489999999700222  0.489999999250225  0.489999999332884  0.490000000419986  0.490000000134472  0.490000000628559  0.490000000208521  0.490926587231283  0.490887738266868  0.490816227583483  0.490740680260428  0.490573602272036  0.490358582025409  0.490109026217638  0.48985140300722  0.489560019692915  0.489317965593911  0.489134989815952  0.488971747744189  0.628544735357252  0.654512644524118  0.721589617447835  0.65530616948258  0.488858857138153  0.488491458575127  0.488505198325976  0.647481697785387  0.65013133838892  0.649204090435584  0.646307097680945  0.683820728912735  0.610726217151242  0.490000000956995  0.489999999776557  0.489999997578912  0.489999999728647  0.490000000225953  0.489999999923629  0.489999999586235  0.489999999946882  0.489999999706822  0.489999999696293  0.489999999587977  0.489999999285468  0.490000000012029  0.490000000109634  0.49000000015673  0.490000000179716  0.490000000188872  0.490000000189475  0.490000000184709  
0.48999999977416  0.49000000008806  0.490000000089215  0.490000000090272  0.490000000174925  0.490000000648765  0.490000000975785  0.490000000894755  0.490000000811517  0.489999999136546  0.489999999721166  0.489999998307188  0.490000000210275  0.490000000844689  0.489999997971607  0.490000002621921  0.489999998785715  0.48999999778626  0.490000001299826  0.489999999745408  0.490000002022155  0.490000000796415  0.490000000092716  0.490000001358136  0.490000000639743  0.490000001661997  0.489999999788608  0.490000000007405  0.489999998871176  0.489999999902494  0.490000000595875  0.490000000289909  0.490000000138618  0.489999999870066  0.489999999466635  0.490000000427706  0.490000000049605  0.489999999972922  0.489999999722498  0.490000001037021  0.490000000377103  0.490000001560736  0.489999999513744  0.489999999865521  0.489999996252183  0.489999999800335  0.489999999235476  0.490000000053902  0.490000000415065  0.489999999723817  0.49000000068847  0.49000000069222  0.490000000732282  0.489999999187375  0.489999999394217  0.489999999661557  0.490853835554632  0.490808130686739  0.49071445179122  0.490613373262256  0.490412327559255  0.490162203360806  0.489877140183072  0.489546935799979  0.489222592517325  0.4889755405016  0.488807604172428  0.488645773925036  0.659281948600599  0.680560176417685  0.726528656881359  0.603085564394167  0.488636890715757  0.488666548340601  0.488729216369015  0.675085448720028  0.678301237132407  0.676589239932213  0.725594562304626  0.676043089649893  0.632140276573733  0.490000000644779  0.489999999904226  0.489999999727898  0.490000000130501  0.490000000622353  0.490000000978537  0.490000001495858  0.489999998611927  0.490000000496385  0.489999999528281  0.489999999429309  0.489999999968772  0.490000000428862  0.490000000626254  0.490000000714194  0.490000000752935  0.490000000768159  0.490000000771588  0.490000000768934  
0.490000000356809  0.489999999833963  0.490000000415626  0.490000000398418  0.490000000379454  0.490000000358458  0.490000000194769  0.490000000785867  0.490000001955595  0.490000002008597  0.489999999327703  0.490000002232942  0.490000000269865  0.489999999836446  0.489999999671387  0.49000000241542  0.489999999100805  0.490000001040721  0.490000001192047  0.4900000003936  0.490000001175778  0.490000000388555  0.48999999921321  0.490000002894221  0.489999999401537  0.489999999768485  0.489999999973705  0.489999998861344  0.490000000285028  0.489999999282993  0.489999999062913  0.490000000252197  0.4900000014655  0.489999999906269  0.490000000311282  0.489999999280605  0.489999999917548  0.489999999953492  0.490000000133441  0.489999998461801  0.490000000233869  0.490000000200746  0.489999999885534  0.490000000729737  0.489999999926939  0.489999998408855  0.490000000127832  0.489999999844209  0.490000000540718  0.490000000062373  0.489999999639335  0.489999999605071  0.4900000002989  0.489999998867339  0.489999999706159  0.490705551766054  0.490705605163407  0.490649388932259  0.490543937699908  0.490397315322428  0.490192701291167  0.489887647759094  0.489521342265196  0.489165813820371  0.488826497760739  0.488577758946768  0.488425663117568  0.488292150819303  0.683014584007544  0.713863395520277  0.769039486191277  0.624343389360723  0.488429032238254  0.488494403387965  0.644195867246445  0.643666041429798  0.64189159932674  0.698085086418231  0.700493969284329  0.712245835603039  0.687540849414277  0.489999999782383  0.490000000066888  0.490000000259101  0.489999998942131  0.490000000576904  0.490000000075224  0.49000000043692  0.489999999485653  0.4900000015894  0.490000000258173  0.489999999422924  0.490000000199841  0.489999999741474  0.48999999982887  0.489999999856449  0.489999999872891  0.48999999988567  0.489999999896626  0.48999999990638  
0.489999999681895  0.490000000012856  0.490000000027285  0.490000000112431  0.489999999857314  0.489999999880099  0.489999999904429  0.489999999930421  0.490000000536574  0.489999999686228  0.489999999690021  0.489999999478261  0.490000000809723  0.490000000706289  0.490000001251646  0.490000000940198  0.489999999886252  0.489999996023798  0.490000000242975  0.489999999487288  0.490000003895869  0.489999999975429  0.49000000105122  0.489999998181584  0.490000000537428  0.49000000110055  0.490000000855593  0.489999999392765  0.490000001207967  0.490000000263394  0.489999998992698  0.489999998882866  0.490000000201673  0.490000000523397  0.489999998180439  0.489999997830814  0.490000000936872  0.489999998600003  0.48999999966475  0.490000000018849  0.489999999189824  0.490000000665851  0.490000000529  0.489999999838303  0.490000000971433  0.489999999187376  0.489999999965594  0.48999999999071  0.489929892161916  0.489957873741097  0.490000000335472  0.490000000237334  0.490000000653302  0.489999999785284  0.489999999628209  0.490508028540345  0.4904986503264  0.490426342971642  0.490299249610502  0.490099575694987  0.489813847761541  0.489462347528246  0.489072503660519  0.488704064535084  0.48836561277417  0.488125493227284  0.487780669156286  0.487550922113814  0.713727844430655  0.749367712474596  0.813134664828094  0.64956731492558  0.488170544461229  0.488255713583458  0.668402740619508  0.669373618945408  0.66632253332704  0.749308384944161  0.735694814123455  0.737736420820272  0.706367128030633  0.490000000138794  0.490000000287926  0.490000000119035  0.48999999991318  0.4900000000315  0.490000001161212  0.490000001044566  0.489999999953368  0.489999998227898  0.490000000623636  0.490000001352759  0.490000002059457  0.489999999225276  0.489999999233165  0.489999999366915  0.489999999533071  0.489999999713051  0.48999999990003  0.490000000089845  
0.489999999648191  0.490000000306373  0.48999999995056  0.490000000776412  0.490000000808009  0.490000000840796  0.489999999484235  0.490000000928171  0.490000001005571  0.490000001595481  0.490000000553008  0.490000001111532  0.490000001033825  0.490000000927007  0.490000001100073  0.490000000486378  0.49000000033153  0.490000000021299  0.490000001286476  0.489999998083179  0.489999999762783  0.490000002016613  0.490000000362637  0.489999999695819  0.490000001612794  0.490000001444976  0.490000000760197  0.489999999477765  0.48999999886691  0.490000002092955  0.489999999356614  0.489999999129368  0.485238858765857  0.488610080306187  0.490406253694521  0.495802369497862  0.489693023787759  0.489573702100307  0.48946857587585  0.489380651496525  0.489307050539094  0.489205332685308  0.48938848159101  0.490000000117465  0.489999999958201  0.489999999789821  0.489999999042787  0.489793262774677  0.489665684571198  0.489661534513943  0.489764184841471  0.489909066839348  0.49001013379885  0.490055347526319  0.490201555815968  0.49031295658893  0.490224262019175  0.490089290175955  0.489908965648854  0.48962456082104  0.489263948949023  0.488914816754198  0.488530405135618  0.488167195118503  0.487820526551303  0.487523175571533  0.487270749685809  0.487049482807609  0.744663150674249  0.788468394149817  0.862819512378116  0.676630376880107  0.48794556997502  0.693499985675452  0.695930530984277  0.695350933592179  0.795450987015954  0.781589374591111  0.769255489063721  0.762392502443325  0.727746034261152  0.489999999670101  0.489999999969942  0.489999999358779  0.490000000884249  0.490000000286299  0.489999999982891  0.490000000191362  0.490000001609417  0.489999999970699  0.489999999088386  0.489999998465381  0.489999999599031  0.489999999641922  0.489999999426203  0.489999999460624  0.489999999534041  0.489999999606781  0.489999999671674  0.489999999728186  
0.489999999613223  0.489999999456977  0.489999999519345  0.489999999517089  0.490000001087993  0.490000001063483  0.490000000212191  0.490000000225891  0.489999999732367  0.489999994864915  0.490000000300722  0.490000000597842  0.490000000155912  0.490000001002812  0.490000001212031  0.49000000160646  0.490000000302225  0.489999999316231  0.49000000038767  0.48999999998484  0.489999999690465  0.490000000808628  0.489999998507324  0.490000000875726  0.489999999788653  0.489999999576931  0.490000001789204  0.489999999201427  0.490000001109764  0.489999999912408  0.490000000490673  0.490000000369599  0.489263842537  0.494587183339185  0.502914109066367  0.505554741758095  0.489491861314964  0.489294868891434  0.489105152795723  0.488954973053694  0.48881001069586  0.489064236471459  0.489129309586816  0.489128421915245  0.489155957721919  0.489205162657659  0.489239885531286  0.48917568856734  0.489137930156319  0.489128795295155  0.48921999774035  0.489308966115761  0.489447453209781  0.489627430875481  0.489912319285786  0.489893664476585  0.489722244304229  0.489507388600041  0.489254104768098  0.488969727287316  0.488571749528885  0.488221358078174  0.487876481367792  0.487571564660992  0.487256045965203  0.487024956520857  0.486806400342485  0.486614577716762  0.778002713323956  0.822105814324184  0.907984845998361  0.706734554513178  0.487644725405701  0.725118109884828  0.727997327852116  0.808313009344849  0.825161040190223  0.816624574158725  0.7995548935365  0.786259163945944  0.748081227386359  0.490000000418198  0.489999999038592  0.4900000015285  0.489999999960072  0.490000001339445  0.489999998854036  0.490000001324487  0.489999999010634  0.490000000169769  0.490000000555378  0.490000000080979  0.489999998358453  0.489999998529529  0.489999998757779  0.489999999053523  0.489999999338248  0.489999999598103  0.489999999831864  0.490000000040666  
0.49000000022862  0.49000000017031  0.490000000178088  0.490000000186224  0.490000000194717  0.490000000203564  0.489999999977394  0.489999999734537  0.489999999707375  0.490000000876637  0.490000000894705  0.489999999831285  0.49000000053129  0.490000000525524  0.489999999372109  0.489999999499201  0.49000000191157  0.490000000077746  0.489999999687588  0.490000002009735  0.490000000136541  0.490000000214828  0.48999999969984  0.490000002014326  0.48999999915305  0.490000003564241  0.490000001873298  0.489999998050371  0.490000000138683  0.490000000561221  0.489999999464829  0.489442512050839  0.492171325537181  0.505436473564534  0.521636611447521  0.532100434104582  0.489204444364725  0.488963085128497  0.48872381003765  0.488557836872778  0.488361274147882  0.488727980507387  0.488661877717322  0.488601140082925  0.488567537065987  0.488513451888921  0.488514591403752  0.488440954380617  0.488465901091976  0.488448728946414  0.488526680895196  0.488640991859404  0.488735740547294  0.488964616622759  0.489070837886933  0.489070884186957  0.488933097412474  0.488721624750266  0.488470363597697  0.488218780117441  0.487814520450836  0.487487147094891  0.487167597250377  0.486892924138127  0.486584376299558  0.486368927854442  0.486184393916991  0.486019948077977  0.80355676784656  0.854457682150422  0.952336497114087  0.740176816357148  0.487321614150041  0.761506169399549  0.762890740815023  0.871967048421276  0.856190164273174  0.856224184801789  0.830699743219087  0.806888633220253  0.490000000131293  0.490000002150315  0.489999998657967  0.490000000070995  0.489999998941043  0.490000000181139  0.490000000045156  0.49000000056164  0.490000000770768  0.490000000612842  0.489999999015894  0.489999998599827  0.490000000134206  0.489999998800936  0.489999999876187  0.490000000519291  0.49000000088168  0.490000001076288  0.49000000117371  0.490000001216282  
0.490000000564672  0.489999998803224  0.48999999873954  0.489999998672412  0.48999999860167  0.489999998527133  0.489999998448602  0.489999998365863  0.489999998278683  0.49000000023053  0.490000000473675  0.490000000037218  0.489999999814522  0.490000001667586  0.489999998394112  0.490000000911266  0.48999999896006  0.489999999945303  0.489999999344929  0.490000003166721  0.490000000203402  0.490000000226623  0.489999999464013  0.490000001322743  0.490000000070784  0.489999999901305  0.489999999975207  0.490000000045668  0.490000000658807  0.454268593660225  0.479632449607782  0.490381817332197  0.497035649141711  0.523921334087369  0.627631433742184  0.650795862437607  0.633579532035528  0.634212909812286  0.630845784282153  0.620336347798498  0.607347888928714  0.595439636531288  0.585552012331185  0.554379528657384  0.538538316528127  0.521840347370877  0.487706623411059  0.487634762642503  0.487687692902839  0.48766317320758  0.487739950166219  0.487843213107193  0.487982765519934  0.48812796336576  0.48812016781461  0.488108545342135  0.488007245730603  0.487824608422294  0.487597614721322  0.487392955920369  0.487005716697835  0.486692384241883  0.486400418148811  0.486162760272695  0.48587401132933  0.485678838386651  0.485526302522447  0.485394334596668  0.826995594837905  0.885229482220551  0.99839199701697  0.882522724238307  0.794010716430006  0.802390521991255  0.921341721797532  0.913838073118252  0.898828866224862  0.877710063212426  0.860278560274312  0.825722822609958  0.489999999662143  0.490000000316285  0.490000001149209  0.489999999408427  0.490000000586759  0.490000001841278  0.490000001211389  0.489999999917386  0.490000000018711  0.490000000306526  0.49000000045368  0.489999999729757  0.490000000443834  0.489999999345487  0.489999999552758  0.489999999695057  0.489999999743894  0.489999999720288  0.489999999644996  0.489999999533509  
0.489999998267648  0.490000000084853  0.490000000112544  0.490000000141281  0.490000000171034  0.490000000201755  0.490000000233388  0.490000000265858  0.490000000299071  0.490000000352664  0.490000000199682  0.489999999698889  0.489999999689639  0.489999999802681  0.490000000806613  0.490000001007822  0.489999999423706  0.490000000363082  0.489999999575884  0.490000002512301  0.490000000589589  0.490000001268345  0.490000000193536  0.489999999204441  0.49000000051301  0.490000002015816  0.489999999047625  0.489999999070557  0.439361362943026  0.480242559204378  0.500770815317699  0.559630124650273  0.626231430994175  0.695872099198185  0.742361370454937  0.77065301277603  0.703541112046369  0.708629877351361  0.695655873917761  0.697473118169692  0.705881335521684  0.681008719793235  0.651547215531071  0.609246544984684  0.558520232093956  0.546945426991181  0.486687872598037  0.486813259627055  0.486844152867096  0.486796750222504  0.486907995151924  0.48696688647471  0.487078237540611  0.487216310268175  0.487125896703354  0.487104444077851  0.487020752948689  0.486864480302135  0.486670603305535  0.48651814036094  0.486258055070533  0.485856699498242  0.485591919409296  0.485383002701464  0.485126397881361  0.484963649881945  0.484837923979122  0.484737415940307  0.848089661000801  0.914658849673985  1.04428606154299  0.957842531113955  0.83908541785807  0.938154803016239  0.965960091390578  0.953552200907238  0.939073338454759  0.912309489547968  0.890000987689268  0.842615965422666  0.490000000251854  0.490000000528075  0.490000000377385  0.490000000039191  0.490000000882147  0.490000001292103  0.489999999471469  0.489999999832294  0.489999999848053  0.489999999816783  0.489999998176797  0.489999998612795  0.489999998451317  0.490000000423125  0.490000000478752  0.490000000666252  0.49000000084887  0.490000000998766  0.490000001116088  0.490000001206858  
0.489999999984036  0.490000000402058  0.48999999998767  0.489999999978826  0.489999999969923  0.489999999961033  0.489999999952244  0.489999999943664  0.489999999935425  0.490000000970775  0.490000002326801  0.49000000315254  0.490000002616828  0.48999999959838  0.48999999988483  0.48999999915632  0.490000000562322  0.48999999915471  0.490000000331515  0.490000000323801  0.490000000355103  0.490000000424608  0.490000000311527  0.490000000111405  0.490000000700641  0.490000000950258  0.404652774926686  0.416854729665787  0.4538354217801  0.50044942613047  0.593862581153677  0.708885190452334  0.795929727247388  0.843255441717096  0.868862326950993  0.877917862694298  0.777037408738517  0.821293334488754  0.79678913461351  0.774578477824012  0.751651928573481  0.717455946334927  0.656231566569623  0.622252193324587  0.566300210106122  0.485845453553987  0.485852237135349  0.485956626936706  0.485959841182614  0.485942912255344  0.486010780560898  0.486029020967475  0.486129333290678  0.486267075080295  0.486126488079324  0.48609668925573  0.486005926350043  0.485884934982933  0.485697666342782  0.48561978615126  0.485381368319675  0.484991233512893  0.484752111220481  0.484581849047153  0.484348362461272  0.484237650196085  0.484140840713493  0.484078187213983  0.86545608844606  0.94194834870747  1.09097269454639  1.00796581382376  0.924106454328384  1.02088191629431  1.01854956032656  1.00873257230805  0.980830209433823  0.947749990390639  0.882296891524543  0.856091049000069  0.49000000052114  0.490000000173712  0.489999999523148  0.490000001088548  0.490000000456912  0.489999999986111  0.489999999459166  0.490000001324188  0.490000000541332  0.490000000274388  0.489999999830842  0.490000000920224  0.489999998556844  0.489999998645434  0.489999999562096  0.490000000204258  0.490000000618252  0.490000000877199  0.490000001038901  0.490000001141848  
0.4899999999006  0.48999999985741  0.490000001283702  0.490000001316869  0.490000000129833  0.490000000147642  0.490000000166198  0.490000000185542  0.490000000205734  0.490000000234635  0.490000000909534  0.490000000375055  0.489999998214839  0.489999996841736  0.490000000140315  0.490000001592799  0.490000001036596  0.490000000482563  0.490000001619878  0.490000003025302  0.489999999730414  0.48999999591134  0.489999999414222  0.490000000213939  0.489999999405928  0.490000000285612  0.433437187359913  0.436489200403505  0.452994256999662  0.541568258039873  0.747111165511682  0.910239461815026  0.98475253442112  1.00170338319681  0.991448661969893  0.981323597126816  0.960270042575433  0.895512888537283  0.858896452300177  0.835902623039345  0.775369981927545  0.742771119221719  0.67488072168172  0.607646636598436  0.485224173008046  0.485024895062166  0.485041064249973  0.485070525495824  0.485055842624124  0.485008254550706  0.485079034364566  0.485083255272249  0.485140325348808  0.485296357161304  0.485106618430884  0.485073061301881  0.4849930733935  0.484893455308272  0.484743009771136  0.484687300795561  0.484478787498956  0.484107934920467  0.483886780787058  0.483757468680023  0.483550650911606  0.48347701605598  0.483444033881026  0.483413761408767  0.878822643924631  0.967278055510202  1.13927803910196  1.06508000821006  1.10848305385977  1.07929104278824  1.07458718000116  1.05983601766629  1.02386178817106  0.982860063422575  0.898453905966891  0.489999999887546  0.490000000334835  0.490000000512892  0.490000000228093  0.490000000728644  0.490000000599981  0.48999999715274  0.49000000105686  0.489999999617404  0.489999999109396  0.489999999501887  0.489999999264155  0.489999999728933  0.49000000176305  0.489999999142772  0.489999999696431  0.49000000023961  0.49000000071452  0.490000001106679  0.490000001422906  0.490000001676907  
0.489999999700836  0.489999999528501  0.490000000254395  0.490000000208754  0.489999998195872  0.489999998186933  0.490000001791596  0.489999996089593  0.489999996301527  0.490000000374785  0.490000001781239  0.489999999609283  0.489999999397512  0.489999999717805  0.489999999794934  0.490000001744401  0.489999999647662  0.489999998548144  0.490000001007953  0.490000001103625  0.490000000389387  0.490000000399367  0.490000000568527  0.489999996349846  0.490000001791781  0.489999999846529  0.463350350466688  0.476859996615379  0.519245782110944  0.6760294668719  0.953009856969541  1.16708283500713  1.18543125758853  1.14945180737891  1.10261430866296  1.06585438912957  1.02954964932273  0.981645801487498  0.922434989890775  0.813732261748381  0.763251586570279  0.720509517250073  0.651045222031634  0.484605551786253  0.484448726166239  0.484211994804369  0.484207372312681  0.48418136271099  0.484134493039291  0.484041304579315  0.484091347665967  0.484085785769668  0.48414402579503  0.484312542166958  0.484098204001487  0.484052421880844  0.483979220397041  0.4839043374641  0.483773274019222  0.483751024980853  0.483553258182488  0.483237557613214  0.483014800550105  0.482913410156656  0.482738248432661  0.482725183815196  0.482729727965475  0.482745340548625  0.482715160935027  0.988727658290943  1.19109299821003  1.11774788483476  1.17113031774366  1.16087425401387  1.14227429914882  1.11317261506624  1.07697131274821  1.03201178788639  0.907340851876849  0.490000001305104  0.489999999648445  0.490000000778235  0.489999998771556  0.490000001718642  0.490000000284632  0.490000000405421  0.489999999617932  0.489999999412128  0.490000000183253  0.489999999555058  0.489999999518368  0.490000000752958  0.489999998800475  0.489999998120115  0.489999998615372  0.489999998891706  0.48999999910083  0.489999999289021  0.48999999946815  0.489999999640418  
0.490000002378479  0.490000001815075  0.490000000588196  0.490000002526938  0.490000002482263  0.490000000946136  0.490000000044056  0.490000000695586  0.489999999922591  0.489999999700316  0.490000000660464  0.490000000397712  0.490000001665552  0.489999999319325  0.490000001013677  0.489999997835719  0.48999999929425  0.490000000261592  0.490000001074175  0.490000001956949  0.490000001029884  0.490000003545019  0.49000000133508  0.490000002028502  0.490000000889226  0.490000003498  0.490211378932038  0.541797362466296  0.633573437225155  0.820777342519389  1.08814720413931  1.3213744864404  1.31199990939629  1.26032715538253  1.21114476559672  1.16330908049892  1.10197587097452  1.04963748016996  0.929043060141959  0.856747806844347  0.799568453879711  0.727287093325873  0.661180426449845  0.483913483647927  0.483700973738866  0.483429836555209  0.483347939544908  0.483285455403244  0.483287185987735  0.48305909589899  0.483098005837105  0.483084726728363  0.483149699105288  0.483320836034041  0.483100978675713  0.483061970098854  0.482991484329188  0.482929293856458  0.482853574144772  0.482814067417383  0.482620215763525  0.482390034551092  0.482145812458108  0.482061340130015  0.481917500434912  0.481967971914348  0.4820353621625  0.482085704016844  0.482112299479551  1.00549212698129  1.24454702733539  1.25536036285037  1.2440750805538  1.26576803685675  1.20762050935745  1.16782536926936  1.13020857011578  0.98903687103721  0.912330357970421  0.489999999462593  0.489999999168501  0.490000001687754  0.490000000480011  0.490000000172406  0.490000001582116  0.490000001328682  0.489999999015928  0.489999998519029  0.490000000532221  0.489999999845435  0.490000001014666  0.489999996157632  0.48999999789892  0.489999999270386  0.489999999172413  0.489999999177995  0.489999999249621  0.489999999359109  0.489999999488417  0.489999999626871  
0.489999997935259  0.489999998921409  0.489999998956288  0.490000001993453  0.490000001914774  0.490000001834947  0.490000001754418  0.489999999730417  0.490000000657844  0.490000000072251  0.490000000200117  0.489999999918561  0.49000000025648  0.490000001244292  0.489999998516491  0.489999999452879  0.489999998412915  0.489999999708141  0.490000000993739  0.490000000338302  0.48999999811319  0.489999997941136  0.490000002540084  0.490000000053658  0.490000002462068  0.490000000239355  0.500427004564248  0.589305789264088  0.713689950360728  0.892405685833461  1.09613135637268  1.26592653553656  1.3234336365194  1.30936826735271  1.26912182142034  1.19721527784017  1.18206621911464  1.09947918629635  0.984098679737765  0.904113910828197  0.827730582182278  0.74525205875331  0.592941139323548  0.483213415459177  0.482981041960519  0.482675713765352  0.482516175606446  0.482392956192311  0.482340958852758  0.482092817117014  0.482121335576196  0.48207097078177  0.482180331743642  0.482325629580037  0.482135773355966  0.482098762803002  0.482042715306662  0.481989176797817  0.481918227877901  0.481868922641259  0.481693934555562  0.481514147978961  0.481290584292251  0.481208526246876  0.481102505683974  0.48123864877811  0.481345998179908  0.481454402209196  0.481538479863053  1.01516887603118  1.24715563579541  1.32236042221051  1.32391378226516  1.34081439709608  1.31549629554194  1.23825009395658  1.17042086624094  0.998781344087119  0.910755539055627  0.490000001720468  0.490000001540254  0.490000000163354  0.490000000121847  0.489999999360558  0.49000000102383  0.489999999589103  0.489999999921004  0.490000001400485  0.489999999665808  0.490000001033095  0.489999999602023  0.490000000559578  0.489999999924935  0.490000002766425  0.490000002479418  0.490000002210392  0.490000001967047  0.490000001743409  0.490000001537535  0.490000001348631  
0.490000001061457  0.489999999820753  0.489999999783286  0.4900000004948  0.48999999987455  0.489999999898475  0.489999999980271  0.49000000023307  0.490000000030581  0.489999999725703  0.490000000087965  0.489999999215741  0.489999999097906  0.490000000337601  0.490000001078131  0.490000000589147  0.489999999196102  0.490000000029273  0.490000000225522  0.490000000963944  0.490000001671967  0.49000000149397  0.490000000253314  0.489999999985068  0.490000003162278  0.489951565315948  0.528496262772927  0.614308354351709  0.744580434986377  0.907603363509456  1.07550159183274  1.22595834361058  1.30601385779681  1.32992320898156  1.27894111580028  1.24140183275949  1.19387971037853  1.14473276390091  1.06177930410451  0.931752097845399  0.855085234219148  0.757502642806775  0.593252428467687  0.590231528794017  0.482305256499831  0.482035721850595  0.481740346766644  0.481520268728135  0.481391155517986  0.481169131762174  0.481142254657263  0.481182458580777  0.481236263068017  0.481354453220916  0.481230400060872  0.481209142968824  0.481186720074602  0.481135704470094  0.481030957526799  0.480961972036485  0.480805325431682  0.480668199894064  0.480506783476724  0.480391631413401  0.480350486845788  0.48052699247886  0.480722191600988  0.480909160818966  0.48104187716908  1.0090454388899  1.28936393961054  1.40118850763535  1.42214640379129  1.42262237508461  1.39346681444625  1.29007983859599  1.20253895016771  0.994096818245379  0.490000000199088  0.48999999875386  0.490000000591981  0.490000000844152  0.49000000098043  0.490000002102458  0.490000001167626  0.490000000337487  0.489999999655167  0.489999999282105  0.490000000901648  0.490000000480857  0.490000000087631  0.489999999913701  0.490000002069352  0.490000000220222  0.489999999542328  0.489999999212381  0.489999999035706  0.489999998934031  0.489999998871967  0.489999998832114  
0.490000000419073  0.489999999973478  0.489999999964743  0.489999999831708  0.489999999234693  0.4899999998816  0.490000001180699  0.490000001094141  0.490000000836202  0.490000000296349  0.490000000009768  0.490000000181074  0.489999999876426  0.490000000857307  0.489999999719  0.489999999043566  0.489999999940809  0.489999999792787  0.489999999109082  0.489999999766831  0.489999999066909  0.489999998857671  0.489999997680498  0.490000002014461  0.489999999769012  0.490471776379616  0.520366371175509  0.602200442611488  0.743341197782475  0.901497232021074  1.05540628609183  1.20209787213183  1.26304918450966  1.30753066453624  1.30511693394882  1.26947775864113  1.21860222536096  1.17231170422243  1.0895600228773  0.996298705905885  0.89451405196581  0.765404095096304  0.586138830618261  0.563823489149927  0.554606130504738  0.481407203773805  0.48106159588259  0.4807601634714  0.480482105451988  0.480339763269036  0.480344570963705  0.480392027370704  0.480397029520086  0.480338330912105  0.480382845430921  0.480446351362207  0.480477445503165  0.480403633827405  0.480287658821134  0.480189105301973  0.480073334049889  0.48001100248669  0.479975510646246  0.480000000142971  0.479999999186231  0.47999061092402  0.480186540728619  0.480406635164898  0.480518313110365  0.480859242460281  1.30026837749714  1.48642391671439  1.52197255570979  1.5114700164111  1.45871866209176  1.36663893789741  1.22945838907981  0.487776939579341  0.488154858862301  0.488420162428254  0.48869156580336  0.489032579278831  0.489258450973362  0.489411630068571  0.48952462276727  0.489406495453428  0.489518196458718  0.489717672183353  0.489999999826605  0.490000001149572  0.489999999386567  0.490000000465147  0.489999999017146  0.490000000795269  0.490000001185436  0.490000001259832  0.490000001268777  0.490000001259489  0.490000001244184  0.490000001227479  
0.489999996434321  0.490000000634931  0.490000000637693  0.490000000641128  0.490000000645371  0.490000001415973  0.490000000234468  0.489999996524244  0.490000002147369  0.48999999996234  0.489999998837937  0.490000001413596  0.490000000273823  0.489999999533104  0.489999999856726  0.489999998491946  0.490000001440372  0.490000000135158  0.489999999903661  0.490000000208638  0.490000001177181  0.490000001057902  0.489999999199128  0.489999999768328  0.490000000666486  0.473076278025133  0.486215144500384  0.568129731541628  0.720714631476128  0.893505169224207  1.03466159475618  1.15876521864697  1.25139698530389  1.30801223178158  1.3140407448061  1.2979711488039  1.23356802458818  1.18200586034457  1.0925891684253  0.992282245524859  0.892741208944349  0.78416619179529  0.574641352229549  0.555321509785214  0.541589515363192  0.520034193806181  0.480544848762048  0.480252019443852  0.480001472561843  0.480000000404552  0.480000000199325  0.480000001593963  0.480000000229767  0.479999998856885  0.479999999927612  0.480000000507444  0.480000001258338  0.480000000175328  0.479999998911372  0.48000000035299  0.480000000245023  0.479999999828719  0.480000000141755  0.480000000446833  0.480000000282008  0.479999999569714  0.480009912826972  0.480235004999153  0.480325977902247  0.480519036130702  1.30839398830514  1.60862902609538  1.66212865077935  1.58536734672708  1.47774843419339  1.35407679688534  1.17586164273107  0.487960118908681  0.488361398421272  0.488629857919358  0.48891645200972  0.489253898975293  0.489468872079527  0.489595483637341  0.489663118381458  0.489553984351852  0.489644134959358  0.489781851544251  0.489687531967724  0.48969621853429  0.490000000713965  0.489999999610097  0.489999999591576  0.489999999805883  0.490000000019114  0.49000000005716  0.490000000052133  0.490000000042895  0.490000000038261  0.49000000003879  
0.489999999837125  0.49000000008021  0.490000000807753  0.490000000551755  0.490000000581345  0.49000000060989  0.490000000568456  0.489999999345277  0.49000000002438  0.489999999739943  0.489999999636558  0.489999999951755  0.489999998834007  0.489999998737308  0.489999998917343  0.490000000549665  0.490000000153252  0.489999998709249  0.490000000266519  0.489999998218261  0.490000000419535  0.490000000416466  0.490000000116689  0.489999999954021  0.44570850359993  0.449909711348641  0.480305908148283  0.558165865735861  0.710848421411653  0.882740807462848  1.03384680509449  1.15241465956614  1.24779511056727  1.2939851440397  1.32104296233467  1.3314244459872  1.26953454543563  1.19785297757266  1.08821426781815  0.980144986661572  0.874507803528028  0.756195713875551  0.584302901352932  0.542100372873414  0.527470027085761  0.50812430420013  0.480211729275907  0.479991829922978  0.479983006616983  0.479999999487607  0.479999999920394  0.479999999681377  0.480000001609565  0.47999999912542  0.48000000060688  0.479999999638895  0.480000000045935  0.480000000314081  0.479999999174061  0.479999999194379  0.480000000790561  0.480000000922721  0.480000000134234  0.480000000597606  0.479999999650599  0.479999997243063  0.480000000282983  0.480011285406576  0.480183679330467  0.480228925999284  1.2071719553383  1.80795605093282  1.74642241090234  1.58276739706042  1.40128585380489  1.26637432434684  1.13880182792566  0.488168975352442  0.488590919004798  0.48887291235719  0.489181610163047  0.489513722862754  0.489705331166139  0.489777857096799  0.489685916833569  0.489727059104558  0.489801342120617  0.489889682626301  0.489791713082423  0.489789512409693  0.489936564421093  0.4900000005788  0.489999999807545  0.490000000035546  0.489999999887919  0.489999999754673  0.489999999650622  0.489999999568517  0.489999999501589  0.489999999445902  
0.490000000313947  0.490000000132153  0.49000000013051  0.490000000436238  0.489999999555901  0.489999999558854  0.489999999564004  0.490000000732201  0.490000000015851  0.490000001869452  0.489999999109291  0.490000000421477  0.489999999682882  0.489999999064334  0.490000001649675  0.489999999785808  0.489999999687115  0.490000000746244  0.4900000001226  0.489999999861092  0.489999999688772  0.490000000994627  0.490000000719613  0.490000001331496  0.41030833272467  0.441138288178342  0.484693050248208  0.574412604726599  0.716403052244309  0.882131579501322  1.03519545604786  1.15449136104925  1.2406961128551  1.29892852239215  1.33391400051252  1.35382371361629  1.29033418409075  1.19439374866598  1.06177371314453  0.933849728352937  0.822487944878974  0.578981256646843  0.5599667000443  0.541598170762669  0.50958700921605  0.497559909529127  0.48380805766767  0.479919648428375  0.479910672325411  0.480000000347132  0.480000000237798  0.480000000340091  0.479999999649005  0.479999999965371  0.480000001016116  0.479999999871725  0.479999999991962  0.480000000099481  0.480000000233675  0.480000000070516  0.479999997794257  0.479999999594256  0.479999998940426  0.479999999659112  0.479999999232351  0.479999999741858  0.48000000111614  0.480000000295625  0.48000000021863  0.479999999623199  0.816406474183666  1.45987933608362  1.50399826493286  1.40333045086825  1.28292107935232  1.16335019592841  1.05407573643768  0.914166112618432  0.781611219967949  0.691977274517683  0.610202939878457  0.542698011253491  0.516118201273379  0.517001645099807  0.52615374187756  0.515642066446727  0.507160914793031  0.515618307981739  0.516074519831138  0.50930584297247  0.484943120219937  0.468060401755507  0.489999999739117  0.489999998677929  0.4899999984455  0.489999998228828  0.489999998073259  0.48999999797315  0.489999997913031  0.489999999426045  
0.490000000946088  0.489999999912957  0.489999999332476  0.489999999321293  0.489999999313892  0.490000000807666  0.490000000784759  0.490000000755488  0.489999999964291  0.489999999417631  0.490000000458236  0.489999998945835  0.490000000062907  0.49000000018432  0.489999999706912  0.490000000080116  0.490000000865125  0.490000000359443  0.489999999601461  0.490000001618906  0.490000000508984  0.490000002271757  0.489999999991101  0.405788251368018  0.400405993416125  0.436037037544411  0.49209129699941  0.576677006744139  0.721819462692826  0.89247974323726  1.05435451225376  1.16798754880185  1.24121178347878  1.29166961591775  1.32884923446579  1.35966339111426  1.30487279518359  1.15603229147391  1.00539352057588  0.857160529004315  0.60099310827391  0.570215519073371  0.547794341645376  0.53210582743011  0.499937698344626  0.490638598045943  0.482040625819652  0.479999999788874  0.479999999950743  0.479999999371517  0.479999999321466  0.479999999864209  0.479999999954835  0.480000000362953  0.480000000330738  0.480000000585033  0.480000000102245  0.480000000020837  0.480000000351081  0.480000000411258  0.480000000758371  0.479999999404764  0.480000000359753  0.480000001618531  0.480000001342898  0.479999999842399  0.479999999025777  0.479999999073749  0.48000000002292  0.480000000157758  0.505477548445933  0.901878326956605  1.07719379910269  1.09692361733788  1.0421913644645  0.95618611053791  0.861516556706317  0.770176130536897  0.686486122435493  0.606324102185773  0.522199256977057  0.47564825681349  0.489999999740382  0.48999999905053  0.490000001305489  0.490000001640614  0.489999999362172  0.489999998846313  0.489999999697638  0.490000000825554  0.489999996646306  0.490000000601664  0.490000000088035  0.490000001435797  0.490000001557264  0.490000001716134  0.490000001714  0.490000003215749  0.490000003166298  0.490000002712766  
0.490000000706912  0.489999999857639  0.489999999867178  0.490000000145782  0.490000000956718  0.490000000958019  0.49000000095976  0.489999997678387  0.489999997615311  0.490000000092578  0.489999998882429  0.490000000825623  0.490000000855735  0.490000000177255  0.490000000180194  0.490000000613596  0.489999999233352  0.49000000045805  0.490000000204038  0.490000001519706  0.384950542151228  0.388344341861864  0.395454651636485  0.402814578829256  0.396131213549151  0.424231073585882  0.46900248621519  0.555988066051338  0.726239958685767  0.911150217993958  1.06988102524539  1.17748899860061  1.23239666392043  1.24828278796517  1.26096882795037  1.28567696021466  1.22456029320039  1.02353502757141  0.871328662327541  0.749765740582747  0.667007001723932  0.599965112699766  0.546485930243862  0.526701234494351  0.504341402907452  0.48932164445288  0.479854864327836  0.480000000591336  0.479999999828018  0.480000000181704  0.479999999523056  0.480000000294681  0.480000000421676  0.48000000019068  0.480000000125771  0.480000000597686  0.480000000983252  0.48000000002942  0.480000000800888  0.479999999152942  0.479999998823471  0.479999999916347  0.480000000729261  0.479999999514981  0.479999999440978  0.479999999487636  0.480000001410284  0.480000000104498  0.479999999689349  0.480000000964002  0.479999999001384  0.632288564175269  0.482288773315083  0.483589376623408  0.485226133628101  0.766611631208967  0.695497955204636  0.633270465074563  0.574732099612767  0.523773131192294  0.487928017383579  0.489999999990604  0.489999999118464  0.490000000241929  0.489999998654518  0.490000001274065  0.490000000728939  0.489999999412014  0.490000000579997  0.489999999774169  0.490000001159827  0.489999999510358  0.489999998103333  0.49000000096053  0.490000000982286  0.489999999629187  0.48999999962424  0.489999998295527  0.489999998252776  0.490000000538238  
0.489999999856131  0.489999999032275  0.490000000455868  0.490000000469949  0.490000000481376  0.490000000489559  0.490000001164864  0.490000001134309  0.489999999987272  0.489999999434692  0.489999997414594  0.489999999879992  0.490000000223439  0.490000002208405  0.489999999240819  0.490000000566804  0.490000000668367  0.489999999904641  0.384816882890835  0.362446879871794  0.353693890876101  0.372917555886984  0.382333965429383  0.398840636000047  0.409490420712642  0.418904153880165  0.46077508026485  0.551727233620796  0.760293841402982  0.955833066642912  1.11219007861858  1.21050651311656  1.23003730420985  1.19262537219038  1.13641970952305  1.06390858775364  0.926145684011623  0.790162993530855  0.684127073710112  0.60177856719563  0.5600500551879  0.524911352310768  0.492730950339999  0.493952647974165  0.51830398078848  0.531464632555508  0.473876748530453  0.480000000638698  0.479999999689103  0.479999999632309  0.47999999637409  0.479999999562184  0.495151268168119  0.452083507690676  0.480000000186473  0.47999999992155  0.480000000147143  0.48000000003349  0.480000000069342  0.480000001004153  0.480000000359711  0.479999999303549  0.48000000025483  0.479999999438201  0.480000000131669  0.480000000158161  0.479999999826296  0.479999999264761  0.480000000376037  0.480000000506099  0.480000000364895  0.570619334354912  0.481370709435351  0.483659761043319  0.485527758618972  0.487388122005442  0.48916637703417  0.51007117157569  0.502530159931202  0.489999999415456  0.489999999507686  0.490000000074982  0.490000000520625  0.490000000578391  0.490000001527443  0.49000000007564  0.49000000044615  0.490000000939379  0.489999999281622  0.490000000180004  0.490000003824314  0.490000000052177  0.489999998242943  0.489999999051814  0.490000002641489  0.489999998816692  0.490000000286126  0.490000000313528  0.490000000336235  0.490000002681833  
0.490000000382922  0.489999999076818  0.489999999091277  0.489999999860825  0.489999999851513  0.490000001182143  0.490000001341865  0.489999999977684  0.4900000002527  0.490000001315561  0.489999999947834  0.490000000656052  0.490000000064773  0.490000000515874  0.490000000009822  0.490000000832853  0.490000000206962  0.490000000843112  0.35392107057901  0.3595012028057  0.375927910920413  0.376432057630319  0.380696195107334  0.391542012630174  0.416117459200335  0.439987746824853  0.513978449792019  0.6564099190715  0.843485612538916  1.03091185031761  1.18946742137712  1.27203666266313  1.2345663172124  1.1384024126071  1.00882012062758  0.84912594282073  0.651484401099612  0.529409076363411  0.506668665512346  0.463630279886065  0.474632213198345  0.48076876555141  0.478014780233436  0.496849404680489  0.5408730607576  0.591203834207275  0.638103128693615  0.667123487307711  0.677040127493213  0.68662546358641  0.695441043844298  0.480000000212614  0.609735389885528  0.489454318846047  0.391921102734288  0.480000000016809  0.480000000249614  0.47999999969469  0.480000000243234  0.479999999880041  0.479999999757792  0.480000000156308  0.479999999976078  0.48000000026753  0.479999999838727  0.480000000377714  0.480000000665295  0.480000000801647  0.480000000081859  0.479999999411117  0.479999999745809  0.487132741786711  0.481294193072769  0.483731757457313  0.486083429891828  0.488418893617818  0.489692597450196  0.489999998891501  0.490000001352436  0.489999999776174  0.489999999994141  0.48999999943031  0.490000002623339  0.490000000774718  0.490000000043441  0.489999999666959  0.489999999740932  0.489999999139999  0.490000001143386  0.490000000515494  0.489999999225185  0.489999999711771  0.489999999826624  0.490000001861173  0.490000001828435  0.490000001794248  0.489999998260429  0.49000000119814  0.489999997920917  0.489999997869529  
0.489999999707896  0.489999999552155  0.489999999578181  0.490000000848894  0.490000000849201  0.490000000791449  0.490000000036611  0.490000000063011  0.490000000089497  0.490000000137008  0.489999999051017  0.489999999584273  0.489999999592528  0.490000000334989  0.489999999660117  0.490000000216911  0.489999999352096  0.391543228047544  0.370892811774795  0.377437905869278  0.393370966685162  0.394612545233258  0.399093199606574  0.41072789336864  0.440584953679606  0.493237877736081  0.606963552366469  0.764890007677007  0.943607421993247  1.12259423944978  1.28107814930487  1.36435787912204  1.22723298326793  1.05794470129613  0.870596261220053  0.673739556923511  0.493503667978915  0.438345179933242  0.428962230298425  0.479999999374819  0.480000000406247  0.479999999730556  0.47438141518494  0.518199251370961  0.59735684189222  0.688459144119534  0.77908986898362  0.856375582598591  0.922172998133289  0.968971724321102  0.994826944709085  0.958619983426753  0.841532102111381  0.646937531738033  0.473970372466912  0.366956668769153  0.290300557354257  0.248110236618901  0.47999999969791  0.480000001023352  0.480000000422557  0.479999999829426  0.479999999589719  0.479999999725717  0.479999999732066  0.480000000903293  0.479999999336223  0.47999999997966  0.480000002607795  0.480000000405495  0.480000001424225  0.480000000717674  0.480647930176985  0.483506024354915  0.486463425490147  0.488995421652496  0.490257006400178  0.489999999988063  0.489999996444795  0.489999999560072  0.490000000383574  0.489999999645429  0.490000000847488  0.490000000391781  0.49000000150045  0.490000001343194  0.490000000992919  0.490000001441271  0.48999999735885  0.490000000781179  0.490000002753167  0.489999998603014  0.490000001608812  0.490000000339811  0.490000004722515  0.490000004599741  0.490000004485892  0.489999998016391  0.48999999810818  0.49000000184658  
0.490000001009384  0.490000000653718  0.490000000674568  0.489999999927697  0.489999998583802  0.489999998608523  0.489999998640829  0.489999999425106  0.489999999400221  0.489999999239067  0.489999999260744  0.490000000440745  0.490000000636856  0.49000000038511  0.490000000362143  0.489999999285918  0.489999999978869  0.383603255058912  0.412443764776645  0.422762643291643  0.431872314308885  0.436874029348384  0.441608444861882  0.453928956792503  0.48304136512489  0.584756827911799  0.716498671000857  0.86941809128883  1.03515402185862  1.18969907490355  1.29927774065736  1.31509426488343  1.16583827399303  0.958417552887881  0.746758896317591  0.564596716754706  0.440010099429776  0.398511613365703  0.479999999993476  0.479999999109402  0.480000000147583  0.479999999922958  0.462373225626609  0.534599279815912  0.653952063504368  0.785855813632339  0.916340217372765  1.05261749259324  1.17515526607861  1.27449957293862  1.31778171306792  1.28429471954942  1.14342612550631  0.905324777924043  0.64922899477867  0.431306763116428  0.316133738479353  0.264490511365082  0.480000000156986  0.480000000230588  0.480000000356624  0.479999999640129  0.480000000387307  0.48000000021585  0.480000000388772  0.480000000679031  0.480000000302236  0.479999999575287  0.480000000934701  0.479999999432378  0.480000000271486  0.48000000003835  0.480072123623731  0.483238792600486  0.486971699763993  0.489956027693682  0.489999999524047  0.489999998929584  0.489999999203692  0.489999998850299  0.489999999064297  0.490000001235448  0.489999999357444  0.490000000986079  0.490000001084761  0.489999999566994  0.489999999464052  0.489999999994895  0.489999999612589  0.490000000458085  0.489999997331897  0.489999999236261  0.489999999373421  0.490000000920319  0.490000000114684  0.490000000128331  0.489999999192442  0.490000002013216  0.490000002591438  0.489999998440237  
0.489999999484328  0.489999999219593  0.489999999634295  0.489999999583832  0.489999999537812  0.489999999493282  0.489999999521035  0.489999999514602  0.490000000351442  0.490000000081252  0.489999999698653  0.490000000085218  0.490000000405802  0.489999999815003  0.489999999465945  0.489999999638106  0.49000000036318  0.41251757519986  0.431387282198004  0.451470406033739  0.468368935151011  0.475886039166893  0.484932183233407  0.512431295066919  0.578283632775086  0.683955260766772  0.81689437486859  0.967999253534228  1.11591200423661  1.25179624695222  1.31363921486931  1.27300469980647  1.12804624721581  0.925774074005742  0.708763711174764  0.535170617713148  0.426685043768237  0.479999999665524  0.479999999956922  0.479999999965719  0.479999999917403  0.42229536605727  0.455258382403744  0.557535032779304  0.713546494885165  0.884622521799209  1.05694546587647  1.24136656304776  1.4205061141114  1.58231440237128  1.67830240089059  1.67789734775121  1.5101463903018  1.22201160251286  0.854506676653261  0.5113375670873  0.366975892237678  0.30642559751605  0.479999998269998  0.480000000029727  0.480000000927032  0.480000001284925  0.480000000261971  0.480000000034029  0.480000000537362  0.479999999767639  0.480000000793837  0.480000000006979  0.480000001462894  0.479999999344963  0.479999999676985  0.4799999986998  0.479337634691929  0.482575733875103  0.487961198419922  0.490910140117105  0.489999999941966  0.48999999982605  0.489999999786796  0.489999999975693  0.48999999846698  0.490000000822759  0.490000000762138  0.490000000321625  0.490000000091095  0.490000000725187  0.489999999539745  0.489999999613745  0.490000000933624  0.489999999710253  0.489999998928769  0.490000001506623  0.4900000009058  0.490000000857593  0.490000004343368  0.490000001965904  0.49000000562386  0.49000000079035  0.489999998655431  0.489999998230096  
0.490000001886176  0.490000000967904  0.489999999417755  0.489999999431192  0.490000000755456  0.489999999837885  0.489999999853871  0.48999999987517  0.489999999585386  0.489999999572067  0.490000000770471  0.490000000217408  0.490000000875024  0.490000000512368  0.490000000050396  0.490000000280155  0.490000000376478  0.427198593180191  0.452524196935391  0.482782138200302  0.506823755963824  0.526267933564269  0.551780899616729  0.598390471074778  0.678164501857816  0.781001622911744  0.913028519575171  1.04896399535704  1.18980188764923  1.30979294307093  1.35382891197464  1.27511465048082  1.10909168523259  0.908764237170732  0.675270167131001  0.4858810041546  0.421472596338824  0.422652560878852  0.479999999652838  0.479999999512914  0.357311352999401  0.422023148884837  0.475693579180144  0.598457844140467  0.778168592636677  0.969734085510489  1.17825962672042  1.39518337151451  1.6316422934651  1.85163372089414  2.05398114640174  2.12619338660665  1.91513613058644  1.5317903707593  1.10143043915872  0.728263563424532  0.498556021515937  0.382880714856054  0.331084632773128  0.47999999923137  0.480000001767865  0.480000000668558  0.480000000894041  0.479999999290988  0.480000000529886  0.480000000284649  0.479999999768783  0.480000001269026  0.479999999823057  0.479999999647793  0.480000001081289  0.480000000439326  0.479324826447128  0.483662930311713  0.48963564510401  0.48999999943941  0.490000000527739  0.490000001073442  0.490000000979522  0.489999999394536  0.49000000243767  0.490000000733533  0.489999997676396  0.489999999990457  0.490000001059685  0.489999999496896  0.490000000412237  0.489999999495455  0.490000000388798  0.490000000509379  0.490000000989214  0.48999999968605  0.489999999091894  0.489999998780978  0.49000000028139  0.490000003295675  0.490000000740863  0.490000000711974  0.490000001479656  0.489999998133933  
0.490000000316696  0.489999998635447  0.489999998640657  0.489999998643458  0.489999998643215  0.490000000620854  0.490000000651728  0.490000000678803  0.490000000700277  0.490000000773473  0.489999999360803  0.49000000032542  0.490000000695986  0.490000000030384  0.490000001041102  0.490000000127741  0.489999999689631  0.457750923204829  0.477800483650394  0.501021033383282  0.523986515959543  0.576268223615309  0.620024284508065  0.678789441811345  0.760359739300482  0.864912278180961  0.989394758194196  1.11706120363601  1.25285019965274  1.36706860892494  1.41462588744374  1.29542740784385  1.13313090942508  0.931356681577049  0.703218419738464  0.503237538037589  0.470249971359887  0.447763181058763  0.426304723015063  0.374443979392668  0.361751059313143  0.437513930686428  0.505812063505053  0.645262951711779  0.826526679528812  1.03342441250745  1.25803203232948  1.49941247767899  1.75956446626055  2.04410466200244  2.33222498023952  2.60804916203676  2.25003763165805  1.76944145658764  1.3130994557684  0.935693642911276  0.657463485911346  0.48864315086298  0.389951676898792  0.480000000116997  0.479999999212054  0.479999999618073  0.48000000055389  0.479999999247376  0.479999999374856  0.480000000823491  0.479999999781911  0.480000000573789  0.480000000511535  0.47999999961104  0.48000000051747  0.479999999283897  0.481265735023223  0.486527055082851  0.490830313958886  0.489999999878472  0.490000000180091  0.490000001110492  0.489999998020498  0.490000000709168  0.489999999941338  0.490000000196336  0.490000000395446  0.489999999876501  0.490000001181532  0.490000000688427  0.490000000710797  0.490000001151313  0.490000000396281  0.490000000346752  0.489999997469258  0.490000000153003  0.489999998697827  0.490000000092086  0.489999999999029  0.489999999211357  0.489999999245159  0.490000001543846  0.48999999976114  0.490000003032365  
0.489999999114002  0.489999999452878  0.489999999462916  0.489999999474635  0.490000000659271  0.49000000067437  0.490000000689505  0.490000000704899  0.489999999306037  0.48999999934411  0.489999999988605  0.490000000140217  0.490000000108417  0.490000000266035  0.489999999984306  0.489999999623646  0.490000000333566  0.467868185627289  0.489620385471087  0.518392881675375  0.569477296533598  0.616326527394331  0.671504977239264  0.732661981062573  0.811571460534698  0.920368682498649  1.03836750764896  1.16009590316505  1.27015417485526  1.35553803642737  1.37575499996996  1.29656578830704  1.16458335219551  0.998135682193164  0.81478579771525  0.66017889500963  0.529148214145403  0.47399154103019  0.399479599568178  0.358341458621197  0.373538161526335  0.43586134197726  0.480000000068948  0.67472476895519  0.864147592170475  1.07413964292739  1.30072380872907  1.54083314825597  1.79572177591712  2.09821403521689  2.34918948242096  2.48072556505242  2.25545267291773  1.84914546186738  1.42939977647826  1.06656134419898  0.774274274379142  0.556960689100995  0.479999999709552  0.480000000166906  0.480000000795909  0.480000000693994  0.480000000609381  0.47999999979567  0.480000000702799  0.479999999674566  0.480000000179823  0.480000000689521  0.479999999722673  0.480000001320645  0.479372448471104  0.480512408059393  0.484269376697219  0.488762812748949  0.490936479873849  0.491697170581244  0.492041863158965  0.492176152614254  0.490000001826821  0.490000000213348  0.490000001651335  0.490000000419213  0.489999998570634  0.490000002023695  0.489999999306033  0.49000000116002  0.490000001126965  0.48999999939425  0.489999999426639  0.490000000256866  0.490000000740235  0.489999998751495  0.490000000753495  0.489999998602147  0.490000000104602  0.489999996106465  0.490000001362867  0.490000002236455  0.490000000183589  0.490000000038813  
0.490000000766737  0.489999999956926  0.48999999992224  0.489999998212224  0.489999998178025  0.489999998146115  0.489999998117456  0.489999998093424  0.489999998076072  0.490000000411025  0.489999998956236  0.490000000276259  0.49000000007146  0.490000000275282  0.490000000108745  0.489999999825067  0.490000001102111  0.47833846840411  0.511646831618488  0.55206302927406  0.599121173440274  0.656584139552883  0.714946389450163  0.785999868527375  0.876978274692758  0.973503861005177  1.08444723181435  1.19090233626012  1.28296844995582  1.35242209978458  1.36301823913506  1.31195807628592  1.21275528605242  1.08362555963621  0.940786513780202  0.809298848205974  0.671468935035985  0.548442943949018  0.426758331101178  0.374531646107561  0.377184787809894  0.447882660325921  0.546753410467022  0.83995521209533  1.07955938452081  1.31391303090142  1.54193180351564  1.76381041237189  2.02206403939646  2.25425187999885  2.40490653055246  2.41480721187362  2.24603380856752  1.94282953041947  1.59228746710501  1.22963454122606  0.90712506361626  0.626138938021276  0.467312980864625  0.479999999692842  0.479999999785193  0.479999999692533  0.479999999322444  0.479999999771235  0.480000000540277  0.479999999903478  0.480000000314208  0.480000000322552  0.47996764218964  0.479727664005763  0.480735635041885  0.483070512676722  0.486663485635117  0.490217797504933  0.490000000075108  0.48999999969816  0.489999999993336  0.490000000882038  0.489999999430084  0.490000000317188  0.489999999831275  0.490000000198984  0.490000000065827  0.490000000142333  0.489999999097529  0.490000000486907  0.490000000892225  0.489999999301693  0.489999999758435  0.489999999807452  0.490000000915362  0.489999998815359  0.490000000149597  0.490000000005847  0.490000000707224  0.489999999614894  0.489999999542278  0.490000000474892  0.490000000184917  0.48999999981064  
0.489999998485456  0.489999998477023  0.489999998501715  0.489999998528684  0.48999999855848  0.48999999859184  0.489999998629764  0.489999998673632  0.489999998725367  0.489999998792562  0.490000000082115  0.490000000356735  0.489999999019728  0.489999999279325  0.489999999998948  0.489999999762397  0.490000000644065  0.49324063184292  0.532610949935266  0.581101605443254  0.634330491994963  0.687696424429073  0.750457755300644  0.82773047900875  0.917801094323823  1.01245824029669  1.12402343328429  1.21521693439686  1.29855445270171  1.35303065763638  1.37437267685661  1.36102907784944  1.30186034138294  1.21675771110881  1.10995562824092  1.00237222873941  0.872908910964884  0.743563890519977  0.601295223892451  0.483712963423221  0.445566842336714  0.567470486398368  0.698660751565608  1.03329761857023  1.26699316592027  1.42796973438803  1.63123321987181  1.82187363649522  2.13103687454542  2.27579313119354  2.35245340401052  2.35572356960119  2.20097389054224  1.95708839962076  1.662640952775  1.34829184774609  1.03365181965189  0.736133663762089  0.479775425812191  0.447638360918696  0.465188194520509  0.479999999956827  0.479999999801135  0.479999999760642  0.480000001618191  0.480000000149624  0.480000001435659  0.479904944380998  0.480051302953553  0.480743217691203  0.482553135799717  0.485266829318981  0.488341492379732  0.490725507253207  0.489999999583788  0.489999999553411  0.490000001306251  0.489999999442498  0.490000000787215  0.489999999188624  0.489999999545849  0.490000000349558  0.489999997727168  0.490000002056795  0.49000000092733  0.49000000057613  0.489999998931276  0.490000000428761  0.489999999309963  0.490000001279379  0.489999999795987  0.489999999158352  0.489999997144885  0.490000001115982  0.490000001444654  0.489999998285049  0.489999999581986  0.490000000392575  0.48999999862947  0.490000000589853  
0.489999999721418  0.490000000752332  0.490000000681622  0.490000000607089  0.490000000528166  0.490000000444135  0.490000000354085  0.490000000256839  0.490000000150869  0.489999999528947  0.489999999508628  0.489999998526049  0.490000000093644  0.490000000924423  0.489999999742264  0.489999999223131  0.490000000244971  0.508213911857545  0.553081672190404  0.604001145827733  0.660109497894594  0.715490320684299  0.779296857088449  0.855330391214751  0.955319909818973  1.05048342616872  1.15320632627578  1.24210262855416  1.32035787216322  1.37828911506612  1.42906013622162  1.41903627953302  1.39109712012198  1.32925820839757  1.25130812578932  1.20559779290412  1.13679020676739  1.04895365337146  0.93863683227657  0.823499008651896  0.78114589887961  0.853348511389771  0.947104549847115  1.28242208823565  1.48861234213092  1.69002473326714  1.88147080952207  2.08771672493964  2.17317104101459  2.25096443975369  2.27912430285666  2.25899935559797  2.26311944891001  2.0450455631307  1.76402804218689  1.45899664045632  1.15959103149305  0.888206973563038  0.589190999413117  0.532344516540379  0.521384133679108  0.549387355153263  0.54830170283631  0.538420165832602  0.540800452525328  0.511622055140176  0.479267288353495  0.472170116989855  0.480432296599623  0.481888263387214  0.483983234247085  0.486532024704158  0.489244416341776  0.491008649277996  0.490000000129132  0.489999998977817  0.489999999616688  0.490000001158901  0.490000000266995  0.490000000518872  0.490000000957122  0.490000000859862  0.490000001223559  0.489999999352463  0.490000000121975  0.489999999367989  0.490000000557251  0.489999999151722  0.490000000127631  0.490000000224577  0.489999999318106  0.489999998789561  0.49000000196283  0.490000000615406  0.489999999939672  0.490000002464708  0.49000000121766  0.48999999918286  0.490000000313795  0.489999999880411  
0.49000000118939  0.490000000953959  0.490000000912368  0.490000000868359  0.490000000821471  0.490000000771089  0.490000000716381  0.490000000656204  0.490000000588958  0.490000000517289  0.489999999701004  0.490000000085643  0.490000000150906  0.489999999956598  0.489999999630777  0.489999999849159  0.489999998642467  0.522523283333992  0.572249751828427  0.628062870681262  0.690763107583232  0.750945070739144  0.819957442720945  0.902429465868481  0.997950280296892  1.09199373537556  1.19346170533078  1.27846101234948  1.36345366149717  1.44889506128427  1.49842342095918  1.51351772022869  1.52369424312565  1.49821843293463  1.45617133421587  1.43754240847164  1.42310588507828  1.39760730175269  1.35074322718295  1.26882190348991  1.21366715260348  1.21801802861412  1.40920836983335  1.56474811502299  1.7293153447123  1.89832946387958  2.05621210859455  2.14318195455117  2.22064843202463  2.27002872283196  2.26267316317212  2.16943712508358  2.13224219257586  2.07955502101348  1.8340201909417  1.56707789233472  1.29871229931853  1.05545525638384  0.711675412911408  0.647857482004817  0.610416547483075  0.588494024708124  0.569274103190521  0.546093426025493  0.625592030599729  0.587248595612072  0.568279421986998  0.536645412576097  0.48133448220544  0.482913281758523  0.484858196760594  0.487151603718212  0.489447804776156  0.490983421527969  0.489999999499491  0.490000000948932  0.489999999425805  0.489999998981697  0.49000000073457  0.489999999693177  0.489999999255873  0.489999998823297  0.489999999840059  0.49000000026295  0.490000000865345  0.489999998288136  0.489999999536822  0.489999997634115  0.489999999527554  0.489999999945862  0.490000000165038  0.490000002179574  0.489999998312981  0.489999999852387  0.490000000762271  0.490000000074871  0.489999997699755  0.490000000757139  0.48999999932717  0.489999999307573  
0.48999999957024  0.489999997487992  0.489999997476011  0.489999997466313  0.489999997459593  0.489999997456777  0.489999997459122  0.489999997468379  0.48999999748704  0.489999998564832  0.489999999045082  0.489999999231171  0.489999999861895  0.489999999066252  0.490000000979639  0.490000000070865  0.489999999379435  0.533786915970303  0.590855387276503  0.654599733631817  0.72412684172283  0.791042222218297  0.864833779636859  0.959130568738094  1.04241347444387  1.12876450197867  1.2300389724573  1.32662436421161  1.4349515994388  1.51373582268511  1.57956201409153  1.61684436909107  1.64490497286123  1.65495374608196  1.66029975420532  1.68316950430577  1.72126857393626  1.76022973522218  1.79353271587218  1.71072854343062  1.6274024545275  1.58791487010851  1.74563540168144  1.85688134135449  1.97292881591921  2.10350642559792  2.16998591566757  2.24102690786513  2.29080676337428  2.30566214242192  2.23932081259942  2.17942554725199  2.13920080415851  2.00386239482127  1.90334441658779  1.6664389384449  1.4265298338307  1.21044123039852  0.844867719004641  0.769031976086265  0.708321255038717  0.663849884148532  0.632463122228017  0.595704120816281  0.608547762213232  0.570014558516111  0.633580575968782  0.583669593362271  0.482081435070379  0.483460249796855  0.485207870708959  0.487165053128356  0.488909393320009  0.490273343498077  0.489999999906953  0.490000000193177  0.489999998744264  0.489999996517563  0.490000000446535  0.490000002210956  0.489999998527508  0.489999998598669  0.490000000858603  0.489999999714512  0.489999998928998  0.490000000116294  0.490000000057993  0.490000002402508  0.489999999926891  0.490000000100802  0.490000002118092  0.489999999920934  0.490000000190564  0.489999999874646  0.490000000176083  0.490000001730689  0.489999999965497  0.490000000673498  0.489999999953114  0.490000000032549  
0.489999999452139  0.489999999755514  0.48999999973983  0.489999999724743  0.489999999710396  0.489999999696946  0.489999999684573  0.489999999673474  0.489999999663871  0.48999999967357  0.490000000103776  0.490000000676824  0.490000000295727  0.489999999219858  0.489999999268421  0.489999998254624  0.489999997841002  0.541138941781039  0.610624403792605  0.686359647549385  0.766497102353499  0.840941016918775  0.919362222161424  1.01002103929577  1.08743504719578  1.16871799700277  1.27347731604548  1.39529111448944  1.50087943512782  1.59431064011201  1.67048223158478  1.72437264475219  1.76979535808635  1.81102674703752  1.85066220863146  1.90209793361315  1.97791184947992  2.0546333506882  2.13253810574683  2.06526442745316  1.98048316960009  1.92988695006538  2.06267979360475  2.13860576544591  2.21602620652667  2.3089401082512  2.30677425775248  2.32064960104273  2.34876288745888  2.30617352233821  2.27377293500247  2.20564557593531  2.10082566082414  2.04753370238952  1.99815736455471  1.77962173065969  1.56157540109922  1.35962363148348  0.977289567127985  0.889536327490233  0.810614008488188  0.753934400892425  0.698288759030477  0.649658845427731  0.665504436968803  0.612768529101021  0.599410287216565  0.549492719377071  0.481553627585337  0.482639467375218  0.484094448982228  0.485964723667316  0.488048940895388  0.489918270944517  0.49110810432807  0.490000000245488  0.490000000379693  0.489999999996902  0.489999999582836  0.49000000092228  0.489999998561889  0.490000000190248  0.489999999734987  0.489999999652427  0.489999998711695  0.49000000094798  0.489999999899855  0.489999999590258  0.490000000601266  0.490000000421725  0.490000000617222  0.49000000086658  0.490000000676461  0.489999999938323  0.48999999920325  0.490000000784665  0.489999998045974  0.489999997874003  0.489999997631721  0.489999998934785  
0.490000000009792  0.489999998674516  0.489999998671869  0.489999998670378  0.489999998670389  0.489999998672367  0.489999998676968  0.489999998685127  0.489999998698238  0.489999997037807  0.489999996966404  0.489999997942725  0.489999999569518  0.489999999542951  0.489999999357028  0.489999999069309  0.487424328365321  0.548422525631321  0.628040188283902  0.716774616052621  0.808170572819995  0.892073187563229  0.974506438064651  1.06344922010012  1.14545630666691  1.23156884099323  1.34227697922606  1.46575640672792  1.58119768491337  1.68195760618611  1.76791495869177  1.83654920816404  1.89846111587987  1.95785431503123  2.01852631781036  2.08929489414442  2.18083368759012  2.26040961820701  2.31845676084483  2.31626262010373  2.27574317130409  2.23543900568116  2.34756585197487  2.39804752775759  2.45103241059143  2.4221801328123  2.45864539405997  2.42884625828721  2.42485249902903  2.38602712540873  2.33941958270155  2.2636764225679  2.16079661080324  2.11235397007875  2.07877806611216  1.8819731583772  1.67930763023216  1.4918038174072  1.10053472131404  1.01320309091717  0.918750245247592  0.838529641146642  0.774243243603224  0.707146642511907  0.71409666955731  0.649405642887998  0.629593100008774  0.568500114369373  0.481455052435569  0.482240089383418  0.483273717009326  0.484481533538027  0.486211236217341  0.488403252344268  0.490540523152949  0.491490176308977  0.489999999471931  0.489999999986852  0.489999998788657  0.489999999673408  0.490000001550172  0.490000001458146  0.49000000060343  0.489999999829962  0.489999999529968  0.489999999766371  0.490000000315357  0.490000000106939  0.489999999488592  0.489999999562144  0.489999999038282  0.490000000477442  0.489999999447065  0.489999999143696  0.490000000978506  0.490000001034158  0.490000000974711  0.490000000960849  0.49000000014161  0.489999999508347  
0.49000000057871  0.490000000481063  0.490000001862759  0.489999999630494  0.489999999638124  0.489999999642944  0.489999999644137  0.489999999640619  0.489999999630927  0.489999999589003  0.489999999747582  0.490000000331418  0.490000000604578  0.489999999906973  0.489999999783801  0.489999998223623  0.489999999743927  0.553295316088443  0.643329647556942  0.744389133110916  0.850823222842767  0.942979026502846  1.03113140513675  1.12238255852289  1.21469187376591  1.31335260890537  1.42446577468826  1.54554502875692  1.66634220232714  1.77446938686232  1.86761115491587  1.94729097154655  2.01708624264589  2.08743147040241  2.16108171271304  2.24428316248049  2.3451900708401  2.42833364622855  2.49624306640206  2.53384485453474  2.53247714097272  2.50622277998855  2.60220705329487  2.64182871114942  2.61589619204516  2.61482796145449  2.57380689968354  2.56654811286411  2.54329193194257  2.50646761246183  2.44373922457901  2.35428194982557  2.24520147537185  2.20001523404447  2.07053122456973  1.98149611694307  1.79166551609755  1.6253305281469  1.23479741456379  1.1252152222636  1.01874983010239  0.924684161237766  0.844387333597694  0.764401467810256  0.747667003214016  0.6838162436644  0.655387238930919  0.590590394766826  0.481003450677339  0.481827886695621  0.482272721661399  0.482817724130799  0.483657830632206  0.484606200779178  0.486072790735679  0.48960289956299  0.490000001501312  0.490000000619429  0.490000000169538  0.490000004114897  0.490000000488049  0.490000001447729  0.490000000297856  0.490000000726164  0.489999999131992  0.490000000413319  0.489999998543393  0.490000000608821  0.489999997985304  0.490000000961281  0.49000000047696  0.489999999656063  0.49000000108102  0.48999999990769  0.489999998825329  0.489999998840165  0.489999999726522  0.489999997897081  0.489999997858568  0.48999999889235  
0.490000001236963  0.490000000359861  0.490000000358536  0.490000000736737  0.49000000075278  0.48999999982729  0.490000000992754  0.490000000960615  0.490000000920066  0.489999999381132  0.48999999905933  0.489999997617469  0.489999999973691  0.489999999683099  0.489999999245273  0.489999997545887  0.489999999396911  0.554508936532778  0.654822324401092  0.765593877643988  0.880090993024463  0.980992251756901  1.07973721138443  1.18166101280212  1.28333356836665  1.39007613271531  1.50527814721853  1.6292307683983  1.75361682369872  1.86944109621406  1.96501862137361  2.04628333218414  2.12285235601094  2.20068178969489  2.28198166401912  2.37262544416084  2.48129018968778  2.566514631718  2.6541219629288  2.73087302611084  2.76804566523682  2.75759444325425  2.82748703092001  2.79810591346174  2.78625722491868  2.74854403749287  2.7279075716357  2.70432139439407  2.670690328042  2.61784596985705  2.54751199571416  2.45472756681868  2.33885121751429  2.21145163933795  2.16645653403975  2.10114718119783  1.91738730418818  1.74100053935036  1.35458598514803  1.23592596893928  1.11616760808487  1.00959124324373  0.916687723591601  0.824276853159812  0.793270437617208  0.711316890498955  0.67368156710038  0.600312206225007  0.48069077105971  0.480899229552835  0.481064827537158  0.481057751760134  0.480856524361572  0.480812416128851  0.47962448333447  0.48362213775737  0.490312881819297  0.491394963707029  0.489999999216426  0.490000000928309  0.490000001669716  0.490000000756558  0.490000000571687  0.48999999985678  0.490000001331811  0.490000001626792  0.489999999831614  0.490000000318907  0.490000000635674  0.489999999752119  0.490000000278699  0.49000000037363  0.490000000176628  0.489999999785164  0.490000002171692  0.490000000796656  0.4900000007247  0.490000002545096  0.490000000089796  0.490000000259064  
0.489999999626481  0.489999996965345  0.489999996921156  0.489999996873875  0.489999996823234  0.489999996769015  0.489999996711147  0.489999996649875  0.489999996586118  0.489999996564914  0.489999999767289  0.489999999867336  0.490000000757409  0.489999999761862  0.489999999827625  0.489999999774627  0.46472928393141  0.552585926374757  0.665502689921388  0.786497169004033  0.908357356976053  1.02163844268823  1.13247501896006  1.24084832518658  1.35057121450363  1.46368193397333  1.58376392346172  1.71103588591099  1.83857533974446  1.96355477745534  2.05417730472705  2.13264911540623  2.21303357799275  2.29387531765166  2.38062730031235  2.47683193881087  2.58986739585777  2.68355822370391  2.78812920583324  2.9007894137917  2.98854213199205  2.98459619910122  3.0151654595017  2.97630836282505  2.93689765810782  2.90983616810402  2.88441626546989  2.84622097096997  2.80237841481568  2.7424394995839  2.66033416172565  2.56398582513198  2.44715273211157  2.3170152212729  2.28511814443681  2.20364850522541  2.02676111178073  1.85017194263083  1.47052428487179  1.34229767935954  1.2140599195925  1.10190189652056  0.990245694135696  0.883729184645591  0.836578882969924  0.73862530370221  0.682201568142128  0.598068543079792  0.480337605921063  0.479999999535417  0.479999999691876  0.480000000180324  0.480000000172382  0.479520882452589  0.478575224209039  0.479143874241786  0.487001704937767  0.489899340071839  0.490628821100191  0.490000000243086  0.489999999408867  0.490000000421536  0.490000000089943  0.490000000569968  0.489999997561843  0.490000000584176  0.489999999118083  0.490000000414891  0.489999999793634  0.489999999163207  0.489999999487474  0.489999998802764  0.489999998198504  0.489999999660056  0.490000000352202  0.490000001140764  0.489999999561562  0.490000000809901  0.489999998741529  0.490000000418861  
0.489999997320786  0.48999999903625  0.490000001632353  0.490000001273066  0.490000001358018  0.490000003884235  0.489999997870465  0.48999999787154  0.489999997877802  0.489999998252601  0.489999999108307  0.489999997822877  0.490000000321934  0.49000000005526  0.489999998957945  0.489999998722566  0.448398247849729  0.550229951675178  0.677155977889465  0.81053013148263  0.943344350272781  1.07072223312621  1.19125708124015  1.30717268126942  1.42243896297957  1.53717256728286  1.66080914534286  1.78855363655475  1.91150394248016  2.0250750741298  2.12039092857342  2.2033557782887  2.28324752869484  2.36610713220003  2.45483621113421  2.55554290186604  2.67033336125502  2.77702089994851  2.88776657521389  3.009235989814  3.11278414354458  3.12511155744721  3.1529340643909  3.10502606517947  3.09180661017054  3.07215898190904  3.04497728724591  3.0026486856276  2.95359792700709  2.88463664153931  2.79631630826479  2.69036788346204  2.57410233594102  2.4382305529069  2.39562996618476  2.29719228156177  2.12044567715456  1.93517122113946  1.52920812187263  1.40478701583166  1.27601576773671  1.15862559385061  1.04119589391469  0.928137625963218  0.849392056003196  0.750879764799484  0.655293901080757  0.585925452126567  0.479999997301738  0.480000002633694  0.479999999905191  0.479999999805474  0.480000001700588  0.479540609904737  0.478771780407506  0.479834446135701  0.48342366723002  0.487221417030222  0.489405443215639  0.490031515155846  0.490349937348073  0.490000000273712  0.490000000750766  0.489999999611396  0.490000001841714  0.490000000005011  0.490000000342192  0.490000000203598  0.489999999775423  0.490000000050899  0.490000000346452  0.490000000231285  0.490000000418044  0.490000001053201  0.490000001396956  0.490000001413047  0.490000000518418  0.490000000511616  0.490000000118582  0.489999998926502  
0.489999997695724  0.490000000307918  0.489999998023261  0.489999998844256  0.489999997578208  0.489999999214578  0.490000000670462  0.489999998803333  0.490000000393123  0.489999999533492  0.489999999897874  0.489999999620437  0.490000000951572  0.489999999884154  0.489999999362059  0.373227699054233  0.445184824387909  0.555269954666212  0.695132311672514  0.842318861929015  0.987148744145458  1.12571266496072  1.25179217654665  1.37223994985394  1.49460605488321  1.61697557980368  1.74224793085932  1.8636596144577  1.97722624759568  2.08125452281442  2.17440414685106  2.25883191931044  2.34038706262349  2.42421519133224  2.51069611943034  2.60959725814516  2.72475176268059  2.83277167260767  2.94399063034254  3.06290366475217  3.14395555114231  3.18102610315503  3.24210758874127  3.22605632177394  3.22179585335382  3.20604538041651  3.1835549572245  3.14341360900505  3.08891596020338  3.01482744580044  2.92275308450004  2.81941614135492  2.70035539600044  2.55721181877555  2.50152894879905  2.3574328838129  2.22152741624148  2.04573346986845  1.81039927637737  1.50921287702393  1.37305352671222  1.2407218133606  1.11356327716059  0.980018578533366  0.88972962541499  0.776233431946317  0.664232242872179  0.57409584486554  0.479999999180036  0.479999999817108  0.479999999742212  0.480000000440036  0.480000000474966  0.479529984607258  0.479616329295174  0.479585344722693  0.481692439713586  0.484850903011059  0.487328532195451  0.488901929758813  0.489688495343535  0.489889342056055  0.490075485708364  0.490268622388899  0.49000000000114  0.48999999869289  0.489999999846008  0.489999999962228  0.489999998964378  0.490000001084792  0.489999998346059  0.490000000588145  0.489999999628517  0.490000001912109  0.490000001842078  0.489999998842151  0.489999999731141  0.489999999733833  0.489999999205456  0.489999999849011  
0.490000000442298  0.490000000498056  0.489999999154764  0.490000000652834  0.490000000989534  0.490000000384919  0.490000000312055  0.489999999283461  0.489999999337043  0.489999999906831  0.489999999641698  0.48999999920891  0.489999999559487  0.490000000181396  0.49000000007781  0.362520047882629  0.442829403733329  0.565996854918105  0.721572210470304  0.885216318513388  1.04342491505987  1.1892770117602  1.31585111368226  1.43614947730276  1.56514679891202  1.69705350738214  1.82385804635522  1.9374387220096  2.0392414745621  2.132819425675  2.22010420188811  2.30221283386033  2.38041675670278  2.46143717089823  2.5479824465156  2.64326539538894  2.75498463283922  2.8617847763453  2.97074226683671  3.07362766820844  3.17164542506903  3.21935378073923  3.31351261410304  3.31648335677048  3.33074957881795  3.32956972144736  3.31668357944535  3.27975574391627  3.22369216978783  3.14863561255518  3.05901584038193  2.94763611183219  2.81888423377868  2.67753367287607  2.6089834542263  2.46017842117891  2.31734369445446  2.13769103094355  1.89835212270662  1.60572597610013  1.46092524327237  1.31888173910786  1.16665408646863  1.03288341923838  0.926250202783296  0.800725293163437  0.67508444403598  0.567691081006561  0.478424131745633  0.479999998626002  0.479999999904505  0.479999998238074  0.480000000550497  0.479654224214715  0.479999999756798  0.479939018030745  0.480774912945202  0.483527187547721  0.485758081911584  0.487474581056912  0.488613407629179  0.489278190439371  0.489681936347672  0.490034178703631  0.490385020687698  0.489999999926743  0.490000000067634  0.490000000448911  0.489999999776765  0.490000000569383  0.490000000913398  0.490000001658428  0.490000000538551  0.490000000327736  0.490000000329491  0.490000001275127  0.490000001277757  0.490000000659291  0.490000001154707  0.490000000990431  
0.490000000541126  0.489999999934421  0.489999999266109  0.489999998839083  0.48999999929008  0.489999999466251  0.489999999889054  0.490000000515632  0.490000000467583  0.490000000326567  0.489999999793004  0.490000000058825  0.490000000088632  0.490000000257306  0.30807134235645  0.364042585205196  0.444776541972732  0.581416784919842  0.760523680861861  0.945065498670774  1.12022444554058  1.27097092747828  1.39087262824757  1.49722513858679  1.63585811889114  1.78068234635043  1.90842063104698  2.0086407304996  2.09501619792449  2.17617597040824  2.25522422780524  2.33227451706241  2.40388704890988  2.48065229618007  2.56402985731255  2.65851852548031  2.76434307209788  2.8676705214446  2.97599956592637  3.08078987013317  3.18864902867117  3.26295324890816  3.34260011622729  3.39375023945624  3.42750444615867  3.44621339775853  3.44138194053837  3.41769823117994  3.36705908732872  3.29155771604775  3.19470667814244  3.08360697076027  2.94584781728728  2.79787543903879  2.63505232966995  2.55368319286738  2.40539097958512  2.22878163320624  1.98857358556755  1.69841544488674  1.54524349395802  1.37824347669621  1.22750461675616  1.08543031405018  0.96809333115303  0.830535498736139  0.690799245954476  0.565379296993075  0.474039377854851  0.480000000920221  0.479999999218336  0.48000000008121  0.4800000003009  0.48000000070096  0.479988233950516  0.480136073353797  0.48093738112154  0.482867300161253  0.484906942260556  0.486457223562587  0.488279102973933  0.488908243083652  0.48937192913562  0.489740511315625  0.490162659081241  0.489999999777813  0.490000000300497  0.490000000485292  0.489999999895112  0.490000000032192  0.489999999419609  0.489999999391734  0.489999999513755  0.490000001108753  0.489999998919444  0.489999998812337  0.489999997836234  0.489999999956602  0.489999999917241  0.490000001205257  
0.490000000211017  0.490000001101363  0.490000001046263  0.490000000365013  0.49000000002892  0.489999999803844  0.489999999716122  0.490000001112933  0.490000001024637  0.489999999917195  0.489999999705431  0.490000000021752  0.490000000226188  0.489999999961079  0.313003459859952  0.366664665227006  0.454114241376801  0.610336427871815  0.807318872916475  1.01446878621277  1.21359994140794  1.38149628464018  1.4988211482367  1.56710889110031  1.72509085608951  1.87012561067752  1.99441334303364  2.06951392028527  2.13875926960657  2.20707337243892  2.27574000389921  2.34318162595321  2.41253437417838  2.4827315785125  2.56272569087861  2.65392809416901  2.75436660555867  2.85769050215326  2.9666641902678  3.07638774084208  3.19432998576973  3.28688475742125  3.38543215834398  3.45898382594496  3.51724050434323  3.55246140333887  3.56663533673849  3.56015889737445  3.52033276103142  3.43647460708196  3.33668991747359  3.21005030399924  3.06960194665151  2.9073284389235  2.73279051835236  2.6564067307346  2.61923553587335  2.4189799301636  2.07282717807391  1.79597610777701  1.63497427269953  1.47628426631553  1.3190682114205  1.16700075693833  1.01543488901756  0.884952154868099  0.73113885693624  0.587572932176408  0.468542960771762  0.422652431768676  0.411001170904828  0.480000000102789  0.479999999563484  0.480000000637468  0.479996856890622  0.480422340488842  0.481162058146703  0.482788862449814  0.48446643478813  0.485911901014988  0.487731221844139  0.488461314263545  0.489039136146546  0.489505913984635  0.490012607237048  0.490000000611791  0.489999999663237  0.490000000358473  0.49000000100391  0.490000000861736  0.490000000066961  0.490000004220452  0.489999999048061  0.489999999026083  0.490000001528666  0.490000001511508  0.490000000250034  0.490000000247492  0.490000000332109  0.490000000756514  
0.489999999996473  0.489999999772579  0.490000001172805  0.489999999987336  0.489999999750005  0.489999999877454  0.489999999706062  0.489999999535088  0.489999999141014  0.489999999547199  0.489999999382066  0.490000000009804  0.489999999763781  0.284403240780942  0.323725809350771  0.383235238696994  0.475878523667402  0.646436264328571  0.858145989881699  1.08711124722773  1.31962315343641  1.52244855712338  1.65552273349316  1.74951864413908  1.8527835447666  1.95771336301551  2.04411865506224  2.10824039236339  2.16413556241577  2.22268776508605  2.28318776494769  2.34213003814054  2.40404872313182  2.47246173348982  2.54621046397141  2.63422707469796  2.73167385695175  2.83301855040134  2.94354069219544  3.05995806964489  3.17959114208435  3.30494984326078  3.42392923112241  3.51945972352099  3.60077560135243  3.66156697518503  3.70170508786692  3.70015064806752  3.66153245948917  3.58713939364807  3.47438346709824  3.24692492600726  3.17974271398474  3.01136611243947  3.07816768983646  2.88936248487984  2.68313719467399  2.48778798672362  2.15737387391912  1.89090298855965  1.72369432128438  1.55872014035465  1.39510885838261  1.23627212051339  1.07720169567846  0.937152884896576  0.781814600027402  0.63511123372498  0.507016420580693  0.441412672339089  0.422361098165431  0.423485298078752  0.479999999881973  0.479816319174688  0.480122640063173  0.480682985307824  0.482488453644869  0.482783263825913  0.484111123346829  0.485538076034891  0.486632108167137  0.48814564527723  0.488831346976842  0.489354081132345  0.489892749647174  0.489999999690497  0.490000000045327  0.489999999846336  0.490000000245148  0.489999999767789  0.490000000032116  0.489999999573932  0.489999999311815  0.489999999464707  0.489999999467669  0.489999999805739  0.489999999807684  0.48999999981132  0.489999998412115  0.48999999976347  
0.490000001212901  0.489999999298793  0.489999999288586  0.490000000161636  0.490000001231198  0.49000000216124  0.490000000292185  0.490000000039711  0.489999999838452  0.490000000733696  0.489999999638283  0.490000000220622  0.49000000002176  0.30878167129871  0.351350637617514  0.407274606490164  0.504351709442278  0.68495195247887  0.900525829668731  1.13964856067045  1.40055951035133  1.67140859432856  1.80071525137924  1.89671858809037  1.962972209225  2.0305047692703  2.08160868264728  2.12152174263188  2.16784505411013  2.2213814545579  2.27898874157362  2.33326252263234  2.38386953502822  2.44553581315682  2.52101232156568  2.60712919669946  2.69728093316409  2.79587073883529  2.90761486518124  3.03319003262496  3.16625745167328  3.32691818060615  3.45552435147623  3.57528129004975  3.68157186447246  3.7732834682469  3.82900005489171  3.84363368643649  3.81089582402029  3.72686066285566  3.59974009350897  3.3882906533675  3.28794310349537  3.29985769320979  3.14068692927153  2.95556980506198  2.75153013063896  2.55892660685537  2.22522614819224  1.97857202603394  1.80634781357809  1.63682131408487  1.46894282199254  1.30711620086973  1.14533487889037  1.00053677502216  0.846674612460324  0.702305193493859  0.563548608686188  0.472266168550593  0.451378274147027  0.452825366609357  0.479867062936972  0.479927571875388  0.480321341850106  0.480987483477557  0.482531030735964  0.483762096852428  0.484127679594302  0.485419423391488  0.486442663376063  0.487985265953278  0.488687590999248  0.48924773057493  0.489795968830849  0.489999999482522  0.490000000250764  0.489999999987515  0.489999999731956  0.490000000564492  0.489999998593273  0.490000003629137  0.49000000415196  0.490000004040437  0.490000004012369  0.490000003982645  0.490000003952027  0.490000003921005  0.490000003889904  0.490000004412669  
0.490000002050846  0.490000001394381  0.490000000658705  0.489999999397779  0.489999999424878  0.489999999757622  0.490000000240202  0.490000000097252  0.4899999999883  0.489999999259895  0.490000000233511  0.490000000107059  0.376204545998389  0.377401939459457  0.392506495061875  0.449860753975149  0.55502006829597  0.724559624209061  0.925255172787847  1.15000627326503  1.3940514269618  1.63296443019127  1.83050170270635  1.94885503333795  2.00304151665261  2.0689964482597  2.08484223082596  2.09544926365713  2.13936648879372  2.20505944558043  2.27088825020304  2.31917529798557  2.35591605336627  2.40872115194652  2.48746815408845  2.57246178082485  2.65691822423988  2.74855247981288  2.85861970773534  2.99447028446934  3.14639889726859  3.29854728629871  3.46976689691848  3.61317918364887  3.75058436701688  3.86307495920966  3.95578120057702  4.00867084732394  3.99801842506279  3.85985538508706  3.68108346010505  3.52196348945488  3.52345269815266  3.36365093852011  3.1987848437895  3.01394805656056  2.80880978652544  2.61191994903272  2.29610385187352  2.06288352746488  1.8868761089698  1.71538667021055  1.54357110051895  1.37922845666003  1.216692856307  1.07242721315839  0.922446712915941  0.784101472791366  0.652145059041498  0.55480192733442  0.508530122333766  0.488804547773531  0.482405057457649  0.476032703449392  0.470567808453967  0.467951050482333  0.457029655745704  0.453897430297823  0.461556558661352  0.465338805518717  0.458635843249514  0.632750661431812  0.596927197158411  0.56370796366393  0.516643155686188  0.49000000082937  0.489999999807517  0.489999999670115  0.490000000367384  0.489999999913277  0.490000000558783  0.489999999863688  0.490000000752424  0.489999999961108  0.489999999962564  0.489999999963758  0.490000001148295  0.489999999139242  0.49000000093277  0.490000000158068  
0.489999999806848  0.489999999378891  0.489999999366375  0.490000000355529  0.490000000802396  0.489999999541919  0.489999999573702  0.489999999672347  0.489999999707748  0.490000001391786  0.490000000585574  0.48999999998234  0.387540671721818  0.410827665579686  0.453208935925022  0.509411196486602  0.614640972765685  0.757137101093621  0.928010683350799  1.11941645451797  1.32139492338119  1.52247557645351  1.7054859878056  1.84080587405363  1.93448891321365  2.0227667768245  2.00382534595697  2.00129470271226  2.07040555443014  2.17252080744848  2.26299335825019  2.3190678951372  2.33956040202587  2.3795171010736  2.4639548686378  2.54403993293209  2.61849791860313  2.69533336959331  2.79690935798481  2.94730132114495  3.12272307750264  3.29236624274319  3.48853599702288  3.65031747596745  3.80362610724055  3.93991656003323  4.05822863872068  4.14630748881625  4.11204240017225  3.9596614796239  3.79767284517307  3.65215215969789  3.5836011500654  3.41637185476682  3.24319082983803  3.06587846164348  2.8661723085838  2.67003477342304  2.36035479236712  2.14116481778813  1.96443456830074  1.7915925530084  1.61999724369373  1.45504413680242  1.2953352644732  1.15211909458894  1.00711459256068  0.876042560966793  0.745491274083594  0.647636344859486  0.576330518757172  0.537867122110112  0.504886051583979  0.493156723692068  0.495512914837278  0.485783296059236  0.471065004881357  0.472528327320677  0.475320641227822  0.474163001330486  0.476081828015789  0.479519137508005  0.610985284329662  0.572477941184846  0.520900598753394  0.489999999879346  0.490000000866796  0.490000000421602  0.489999999866756  0.490000000070247  0.489999999170543  0.490000001638238  0.490000001966524  0.490000001867114  0.490000001838584  0.489999998759185  0.490000000017231  0.489999999883579  0.489999998807942  0.489999999834473  
0.490000000590274  0.489999999938696  0.48999999994246  0.49000000063956  0.490000000638958  0.489999998905521  0.490000000321082  0.49000000031226  0.490000000288223  0.490000000251632  0.489999999461138  0.385282728470568  0.40508956548908  0.437076646441301  0.48666624651463  0.557274884677443  0.653869805689678  0.775875656536204  0.913776803195846  1.06678560141722  1.22133111893749  1.37799097186994  1.54681978325099  1.68760389056532  1.78570452574605  1.83311573760074  1.80839411819972  1.82446546031978  1.9690493178975  2.13664012097384  2.27072466632688  2.33729897017513  2.36253936719903  2.3990059557829  2.45958944360212  2.52906318791275  2.59393456985124  2.65401589151589  2.72105811813506  2.90924945566903  3.10834712127614  3.29100519584431  3.50423969345483  3.67779854948151  3.84104240996332  3.98689107925326  4.12773549141519  4.23225016171769  4.19457335617901  4.04933007101349  3.89007479345455  3.72507015521571  3.6206327820868  3.45584084879993  3.28018338923725  3.10812006958212  2.90915621446624  2.7147207777802  2.4006542230448  2.21379727741991  2.03586783257503  1.8630025317871  1.69385230752819  1.52982858761726  1.37310319887647  1.23357522060617  0.960761204778168  0.869719684452553  0.749350535262803  0.664932640191616  0.613723745593441  0.571343210236934  0.535879144107486  0.527278147021542  0.527167960702358  0.513911966921245  0.497558709554089  0.492213270757673  0.491017227002561  0.491653162093155  0.492405269104988  0.480509763168816  0.612046688601819  0.572290287198319  0.521324471038148  0.490000001735449  0.49000000017425  0.489999999871992  0.490000000111385  0.490000001177546  0.490000000157522  0.490000000586205  0.490000000340658  0.490000000900286  0.489999998303069  0.489999999710541  0.490000000890194  0.490000000479837  0.49000000000463  0.489999997474744  
0.489999999944724  0.490000000367312  0.490000000341308  0.490000000107569  0.490000000127425  0.490000000148247  0.490000000168122  0.490000000183617  0.490000000189017  0.490000001203873  0.489999999588316  0.41361799551813  0.439337501921245  0.470410438390815  0.51311079496209  0.588469289559019  0.678711861574355  0.780686442053019  0.896894601833272  1.017250240618  1.13031813738531  1.23853173715969  1.40455020845617  1.53728210143613  1.62974917485687  1.67553905617861  1.61945304548898  1.58619873655747  1.88315985954908  2.103183195087  2.30080699817154  2.355949509987  2.37046553359291  2.404020929559  2.45897602433131  2.52522071689645  2.5917769940776  2.6607074576077  2.75522761891423  2.92019961800483  3.1136674075671  3.29614332102565  3.51644329182025  3.69554734573406  3.85865177512997  4.01779682337202  4.13244355810616  4.20104981993826  4.17341987839146  4.06555839696047  3.92373429520122  3.76682426988225  3.64406920091779  3.47396013462302  3.29971598629429  3.13683361154622  2.94228730414865  2.75302049905231  2.45627490874414  2.27563858530922  2.06393325988826  1.89432219414739  1.72859640903312  1.56744672810559  1.41813760814307  1.27831799808937  1.14813782370693  0.915008462887411  0.797172286407533  0.723050157855884  0.641866125640188  0.597080894601067  0.549832861849369  0.541971674750973  0.538176114037649  0.523301375989774  0.493438101135045  0.486860287101367  0.482551448482011  0.482888484398919  0.483423512142841  0.487551732556391  0.512506523964601  0.582196361165062  0.490000000478412  0.490000000131368  0.490000000614596  0.490000000151798  0.489999999085953  0.48999999963565  0.489999999587128  0.489999999713332  0.490000000069687  0.490000000347918  0.490000000238589  0.490000000449882  0.489999998891696  0.490000000838368  0.490000000414795  0.490000000596719  
0.490000000649745  0.49000000065176  0.490000001717298  0.490000001710829  0.49000000019075  0.490000000174798  0.490000000154842  0.490000000130277  0.490000000100651  0.490000000085422  0.490000000264835  0.432646229934975  0.457620888850626  0.489944726848017  0.541846424146102  0.612023245601691  0.693766571688105  0.775848094190239  0.873797550858583  0.974691213238456  1.07518977896914  1.18058047869031  1.30171041427155  1.41303816021921  1.49627583022385  1.55088881489885  1.55571804784736  1.70314877660688  1.8614091486699  2.02266054027584  2.20350313384777  2.28739441341283  2.32979510228872  2.38031864633919  2.44158048902241  2.5219703209528  2.60043692916682  2.68942853226364  2.80721263937756  2.95474517553967  3.1327279633638  3.30484496884005  3.5261740985488  3.71992045593225  3.88272384195318  4.01735149849928  4.12099640804478  4.16108334173355  4.13780414921481  4.04833178694007  3.92510622224838  3.78083543676932  3.64518855577179  3.47685458661321  3.30200436703043  3.12430852097419  2.96515827031719  2.77987574977911  2.50204398699873  2.32127605744483  2.11546520710939  1.94874671732791  1.78604716712116  1.62893513910646  1.48353214527757  1.34547029576745  1.18481383857629  1.05746437574631  0.822073664359565  0.745071754879873  0.685135856318287  0.635107186178792  0.582486300438903  0.574609971961201  0.565951974299348  0.547472018401132  0.514219179207891  0.500083246711087  0.494287413104085  0.490193687652452  0.488624351408289  0.492516741611656  0.522450255980746  0.593534711550967  0.489999999676114  0.490000000748893  0.489999999796245  0.490000000033279  0.490000000109139  0.490000000713009  0.490000000497685  0.490000001340306  0.490000000372154  0.489999999874453  0.48999999984363  0.489999999578563  0.490000000795919  0.48999999965846  0.490000000711949  0.490000001206723  
0.489999998723278  0.48999999923638  0.49000000050492  0.490000000477571  0.490000000440357  0.490000000390641  0.490000000325322  0.490000000241408  0.490000000137606  0.490000001084851  0.490000000050424  0.458521179690297  0.478572609164075  0.502767859597887  0.566488397132975  0.629568615331583  0.702098682524537  0.768903462263048  0.853301543638364  0.941013552621302  1.0311275631807  1.12277214084173  1.22068076863118  1.31047881734087  1.3870301228279  1.44888724577709  1.50996218209728  1.62317693270496  1.7353438233652  1.86008912223707  2.01480721146672  2.14718607853612  2.24612387958857  2.33040389699239  2.41169606616637  2.51307818393877  2.60705051099234  2.71094328590873  2.83862333103151  2.97881941443154  3.14597031825643  3.30777067314243  3.51972179113614  3.71746947002037  3.87720413844638  4.00928888019746  4.09503843498023  4.12749550563846  4.10114734004994  4.02313460622902  3.91196937550664  3.77001210756602  3.63303117459481  3.46816752958828  3.29645913682963  3.12041732503933  2.97374516625249  2.79788350873633  2.5359800409504  2.35962703087864  2.20083245825064  1.99471843848085  1.8370081638596  1.683042597518  1.54089404105856  1.36106683641802  1.22701774835689  1.05041651135812  0.866425050291589  0.787351660396067  0.724998867571399  0.67120573637511  0.614714515921632  0.601517113825563  0.587946104578843  0.564553383477472  0.534779748582546  0.518241437829762  0.506928681460453  0.500286202734165  0.496089258749487  0.498941788335802  0.529567478378316  0.488768112888989  0.489999999128041  0.489999999484401  0.490000000161135  0.490000000417845  0.489999999414682  0.489999999887349  0.489999999711579  0.490000002711289  0.490000000082946  0.48999999962509  0.490000000996714  0.490000000152787  0.489999999422484  0.490000000866371  0.490000002024756  0.490000001973566  
0.490000001507414  0.490000001318792  0.490000001229804  0.490000001125819  0.490000001005396  0.490000000867698  0.490000000712918  0.490000000542528  0.490000000358174  0.490000000075699  0.468701950538672  0.467970362687797  0.48936190840914  0.531485569617401  0.581838548928362  0.640972346212795  0.706645731302716  0.757764456725281  0.83151545063271  0.908381013037393  0.988832193521308  1.06711833349257  1.14865059100616  1.2226809334922  1.29038372395714  1.35120921402802  1.4072107046376  1.47572610393077  1.54116200358705  1.6444782519488  1.82685065701552  2.00562841049715  2.14988946678734  2.26620198249597  2.37148734686046  2.46524761448402  2.60141504328778  2.71548955345403  2.84781946884468  2.98263727955071  3.14289221539533  3.29331915409751  3.52579119400319  3.70190152833408  3.86871685454851  3.99536988626795  4.07619739423724  4.10089285105104  4.06807733652082  3.98841445493887  3.88151302799139  3.74969060553533  3.60055067666852  3.44571327305905  3.27767880738165  3.10608675812096  2.97001411761854  2.80081030719396  2.55858067039494  2.38762020972867  2.23643013426256  2.07713477500067  1.87989809427924  1.71550132053289  1.53241094070711  1.31456793350631  1.19849428638234  1.08905408661596  0.904252047167366  0.824257307338533  0.760267070733986  0.703425964582033  0.64409786234165  0.629490155902171  0.603285315358124  0.574977543408205  0.555023277486284  0.534130197811909  0.519612923637252  0.509365911734373  0.503133847704893  0.505820498722589  0.539739078889725  0.488684712280909  0.490000000458426  0.489999999348982  0.490000000082077  0.489999999816375  0.48999999996631  0.490000000877356  0.490000001935279  0.48999999984074  0.489999999528114  0.489999999405335  0.490000000421424  0.490000000051873  0.489999999770614  0.489999999773976  0.489999999170259  0.489999999136738  
0.489999999282396  0.490000000022848  0.490000000039605  0.490000000057378  0.490000000075662  0.490000000093498  0.490000000109182  0.490000000119811  0.49000000012188  0.490000000405994  0.472631863268339  0.477461289308527  0.50157794286079  0.548462483893027  0.596824281179905  0.648773632448543  0.717239883442692  0.747943943317429  0.812255475092162  0.87856173157049  0.946945286924485  1.01263694573832  1.08118383391899  1.14393810410015  1.20359471877154  1.25748256849527  1.29897097073105  1.34427766262964  1.37541091017585  1.43817027761874  1.67572940204365  1.88972278842368  2.06192331600569  2.1969479351288  2.31711580314796  2.42993527037174  2.52400675112981  2.70030830571088  2.83239484881063  2.96128537935669  3.11591087420934  3.27039302986986  3.49497060759641  3.677558152612  3.85153494593869  3.985858784326  4.06652811781977  4.08215786409023  4.03739792172643  3.94816875360639  3.84256260244698  3.71052905712297  3.56301051585376  3.4116790715142  3.24960504856672  3.08433860049924  2.96224201889058  2.79901177892618  2.56862285257082  2.40365441492466  2.26156523565192  2.09092886820547  1.8963406987953  1.68244618064987  1.46266705175917  1.34393267766627  1.22858652517956  1.12055863962007  0.936354756887667  0.855596069430072  0.790525061765249  0.731657353438095  0.669994704309735  0.65202963562333  0.629266561085527  0.588193782107627  0.571428366456038  0.550585995125151  0.533394922205726  0.519658200508516  0.51051809771757  0.513786292850301  0.55378524888385  0.488583725905466  0.490000000206586  0.490000000485155  0.490000000456948  0.49000000108447  0.490000000640163  0.490000000200195  0.489999999848831  0.49000000020283  0.490000000099078  0.489999999642348  0.490000000732073  0.48999999940788  0.489999999364249  0.490000000227665  0.490000000242942  0.490000000262167  
0.489999999224062  0.489999999211746  0.489999999320873  0.489999999444486  0.489999999580544  0.489999999723486  0.489999999861987  0.48999999997598  0.49000000003311  0.48999999928865  0.476787958071862  0.490066330372286  0.506838918313855  0.562261111384589  0.605823153621564  0.650772687767667  0.707561521081581  0.740550033800221  0.796529254941128  0.853233235110347  0.910430748410127  0.962600224153186  1.01994657278998  1.07642627338031  1.12528004812044  1.17325073615716  1.20918333275234  1.25281896554276  1.3047245746466  1.40576063875626  1.58624183142488  1.79412059342537  1.9735382078442  2.11426711628468  2.25209531112566  2.38599789268658  2.48885367924389  2.56327359417589  2.78943372028237  2.91054128673569  3.05898429486889  3.21148457560592  3.44259459092033  3.6259482323121  3.80797212002485  3.96213524200621  4.05894061023772  4.06162801385309  3.98722643633489  3.89225039143917  3.7822183657843  3.65383176193439  3.51231897654644  3.36047856773233  3.20262722702089  3.0433207205539  2.9329500302948  2.77887275858087  2.56728264654654  2.39067482950495  2.23773860874843  2.03753256747974  1.85299492244918  1.60402308731745  1.48092400611722  1.3651155132464  1.25012245927517  1.14642574696617  0.962607945448513  0.882103264808762  0.816234630507577  0.755741278467835  0.692887697912276  0.673639753512082  0.645880281790498  0.607435886556559  0.58523668459449  0.566178908274628  0.545791363444205  0.530819309361217  0.518768158721587  0.521284378961786  0.488205992851151  0.488490674452737  0.489999999194114  0.49000000071314  0.490000000050331  0.489999999349359  0.490000000561794  0.490000000146916  0.490000000628193  0.490000000685246  0.490000000439063  0.490000000380785  0.489999999895191  0.489999999877258  0.489999999864915  0.489999999577169  0.489999999556149  0.490000000428731  
0.489999999854865  0.489999999802218  0.489999999788016  0.489999999769227  0.489999999744426  0.489999999711912  0.489999999670524  0.489999999622675  0.489999999579032  0.489999999231366  0.481069735142746  0.496896963868341  0.516280366800353  0.571270810081897  0.609065737807194  0.651459517770921  0.703138343166499  0.731018563390314  0.779533251276961  0.827793130434875  0.876197261107929  0.918094873127214  0.965446022843355  1.01209278775105  1.05525035635509  1.09984454906741  1.13251159406308  1.18397500432366  1.25223180503222  1.35794449580145  1.5062290908678  1.68010776601271  1.85035324149482  2.00797743086493  2.16765951476358  2.33071354865258  2.44701722826276  2.50715142613069  2.70382411871585  2.82247397359296  2.96420187073804  3.16523486265519  3.34487570652489  3.53771483015267  3.73861999285695  3.92941055628127  4.05409765290821  4.02737159331521  3.92089705988382  3.81095660353314  3.70149402428474  3.57468667233348  3.44297785897738  3.28933769234487  3.14299475286857  2.9916153177288  2.8904095275365  2.72797074259501  2.52854336614517  2.37952274701673  2.18913703785027  1.99590615256243  1.85891850450099  1.60955636569678  1.49061328428973  1.37887844991182  1.2653442859648  1.16368735582134  0.985292346883471  0.904592745833907  0.838527762483309  0.777963415935181  0.714667429858127  0.694280773303913  0.664349344521058  0.6201788987264  0.596178460758785  0.580375282475423  0.560738744653578  0.54380338769018  0.530213752244764  0.530312934056558  0.488267980850385  0.488421877378582  0.490000000011447  0.489999999461951  0.489999999523023  0.490000000480975  0.489999999736423  0.4899999997582  0.490000000229816  0.490000000661782  0.489999999743153  0.489999999803132  0.489999999809476  0.489999999864465  0.489999999865652  0.49000000103705  0.490000001034647  0.49000000108967  
0.489999999335196  0.489999999449158  0.489999999508808  0.489999999582365  0.489999999671897  0.48999999977916  0.48999999990536  0.49000000005178  0.490000000222648  0.489999999992543  0.484867382902671  0.503017992617358  0.525048508669257  0.576221173824772  0.611066291988666  0.65301998612148  0.702535815287022  0.723810111413073  0.765580739856262  0.805748975013639  0.834178905476766  0.880466231163352  0.915725962208499  0.955199131937536  0.959070328146334  0.999318700560658  1.04446986386362  1.09693215082824  1.16839837015149  1.26522115860072  1.39020085168371  1.53663601278549  1.69344184299166  1.85445546014096  2.03545329985477  2.23849161209328  2.42191111031517  2.50572380545697  2.58264451452962  2.68945869931075  2.82617816969976  3.02194973989916  3.20318653372733  3.40210082359846  3.60678075889431  3.8186355884842  4.00359940100193  3.91641542922806  3.8005677492391  3.67979860086019  3.57745050032874  3.47510862248389  3.34911844007548  3.20621660102562  3.06682736103998  2.9063096863541  2.84472676693679  2.68618052870002  2.52259690182765  2.29627537673947  2.10354327462388  1.985753249368  1.8540884746136  1.60643311351455  1.49200497573999  1.38534350412448  1.2732374068096  1.17463626334773  0.484103572775194  0.484148278855983  0.484240817227929  0.484370239882212  0.484536825864747  0.48474360393547  0.485487870881014  0.485811607920321  0.486165943792025  0.4865272915278  0.486931544498094  0.487330665090997  0.487747828353443  0.488087033910024  0.488291244813439  0.488650529089115  0.489999999528276  0.489999999951699  0.489999999986532  0.490000000094088  0.489999999573847  0.490000000275054  0.489999999857808  0.489999999651033  0.489999999266228  0.490000000239505  0.4900000002283  0.490000000223135  0.490000000223203  0.4900000002275  0.490000000235127  0.48999999993424  
0.489999999291944  0.489999997969006  0.489999998016729  0.489999998111831  0.48999999823945  0.489999998407737  0.489999998623012  0.489999998877046  0.48999999908468  0.490000000054889  0.488396230461197  0.509055507465994  0.533236268818076  0.578407911904631  0.605967858333622  0.646491161407912  0.687182681526709  0.709463824798855  0.74712800334834  0.779115756409149  0.809454949520572  0.837613333348427  0.868382389462607  0.899379674278191  0.894452381208529  0.930485258496774  0.967621294254203  1.0217657426109  1.08569082906922  1.16939191132233  1.27295390471071  1.39643381970534  1.53431424168896  1.68307909835168  1.86325009579695  2.06821482567885  2.26102447748149  2.32276789982306  2.39956546680601  2.50458739938412  2.64234447480987  2.83417419232853  3.01333129987911  3.20823899080476  3.40072292969174  3.58074317869613  3.69539855336309  3.6899171093858  3.61415115257989  3.5161004836446  3.43661526267992  3.33253118600693  3.22935916102557  3.12247485214905  2.95973192884416  2.82870633034687  2.73628300993644  2.60709919106269  2.36681293201233  2.24651427339288  2.10206005958623  1.99086870714397  1.86356736050168  1.71583381420776  1.48649844688923  1.38333168584766  1.27618586794787  1.17861158740544  0.484456893945479  0.484504256295057  0.484595403279936  0.484719680832447  0.484875645166433  0.485602465376012  0.485801889546927  0.486103266143625  0.486438446276018  0.486794990216783  0.487166359901963  0.487536150367199  0.487869120274741  0.488179956260734  0.488271313440867  0.488623001519623  0.48872915617775  0.490000000256969  0.489999999670962  0.490000000023204  0.490000000052578  0.489999999520751  0.489999999546728  0.490000001047756  0.490000001203318  0.490000000943026  0.49000000074705  0.490000000535333  0.490000000315944  0.490000000093714  0.48999999986558  0.489999999649441  
0.490000000269746  0.490000000267105  0.490000000248408  0.490000000209887  0.490000000147851  0.490000000060006  0.489999999948372  0.489999999824822  0.489999999724409  0.490000000346923  0.493111694726908  0.514786144937843  0.546038110609988  0.578722887945126  0.606074008336112  0.638563791474384  0.673185737105434  0.705830314645964  0.747245612997986  0.760900991214246  0.780035257100543  0.799676161375383  0.82366170527077  0.822795114632951  0.843217605566406  0.86581575645672  0.894896718865095  0.941091929757525  0.99339478295518  1.05898820359474  1.14381301728223  1.24158768925873  1.34038604594554  1.48171517495498  1.64217139668085  1.80921589005968  1.93266413250516  2.03847713032233  2.15225812088676  2.26870656595672  2.41536520420987  2.6067504548588  2.78625625954818  2.97388537999668  3.14919630948803  3.29764689869033  3.39530368289359  3.42070398270221  3.38579427480434  3.31970086557351  3.26070583089395  3.17522456525958  3.07695909772272  3.01319551682337  2.83835032632435  2.73984458177549  2.58909069706432  2.44820059200428  2.33837732128627  2.2019240358335  2.06584153810204  1.94260240281987  1.84069958445383  1.72314517529925  1.59095571524374  1.37564484770348  1.27119543469962  1.17665055681257  0.484788492844242  0.48485944431786  0.484948407643659  0.485069215059595  0.485217953458024  0.485918023132416  0.486110145743772  0.486399192295606  0.486702675117298  0.487028811187694  0.487350778936617  0.487676591982503  0.487966018168104  0.488230651288125  0.488285566994207  0.488564895358902  0.488648925509678  0.489999999774518  0.490000000020348  0.490000000035198  0.490000000205725  0.48999999970982  0.490000001681064  0.490000000478212  0.490000000092447  0.489999997874098  0.4899999978298  0.489999997800837  0.489999997781272  0.489999997767859  0.489999997758673  0.490000000687402  
0.490000000252326  0.490000000249329  0.490000000245519  0.490000000239967  0.490000000230725  0.490000000213695  0.490000000180448  0.490000000115476  0.490000000002201  0.489999998206566  0.496481355989173  0.519198444647451  0.545287521004856  0.577393297771443  0.601936025629776  0.630013104242327  0.66278675976827  0.69519226257189  0.732820590975246  0.769722265477743  0.754290558836483  0.760760710753536  0.793199871688219  0.779657307763178  0.783615879442823  0.802930568689531  0.821770408206659  0.85917741109793  0.897332826570314  0.945858408257741  1.00504978979619  1.07853327505682  1.16270045489067  1.26361124629109  1.39196034957614  1.51823188658732  1.59629690998025  1.71224512273016  1.85798127220819  1.99051236097609  2.1619009590267  2.34909075336734  2.53258148241961  2.7152859771374  2.8768563575185  3.01286146169397  3.10520624823326  3.14844078161526  3.13475304478894  3.09699870182531  3.07664582051541  3.01427096309342  2.93465328317892  2.85193836224166  2.69432724774971  2.58701610108852  2.44425421466103  2.39841693138347  2.27711301329512  2.15023010211225  2.03134333775927  1.90492423356737  1.81042469737258  1.69948056400853  1.59591150158655  1.47475902971758  1.2615825575597  1.17214113337817  0.485128312435518  0.485197338188374  0.485285366364022  0.485402543388727  0.485543395239531  0.486208562892753  0.486403334171941  0.486673476217924  0.486931391832072  0.487229663982278  0.48750968974022  0.487772011620192  0.488015282693962  0.488216565669245  0.488185946618715  0.488489279495946  0.488574134724922  0.490000001245282  0.48999999891909  0.489999999805546  0.489999999539503  0.489999998539985  0.489999997603897  0.490000000715207  0.490000000684571  0.490000000619325  0.490000000569957  0.490000000526795  0.490000000489741  0.490000000457969  0.490000000430579  0.490000000407207  
0.48999999994858  0.48999999994072  0.48999999995108  0.489999999985943  0.490000000053054  0.490000000160634  0.490000000313253  0.490000000499121  0.49000000066148  0.489999999877612  0.498455168270574  0.522167893003094  0.548270103254801  0.575775642238037  0.599839643792507  0.622478799423862  0.652668859224437  0.680706526449546  0.713172781441537  0.7484381582784  0.787802470993674  0.741365851387346  0.753837143147915  0.732482841052581  0.729316852159058  0.741490366876948  0.747738885822865  0.776257936384957  0.803392511513681  0.833596487511366  0.869907723328925  0.913323673477673  0.966828988979179  1.03048739926972  1.12237843176982  1.21410676822151  1.25881938137806  1.40738042146027  1.53717746960328  1.68853709229181  1.87319173219974  2.07777369571331  2.26565458422639  2.4469540277206  2.60320584451574  2.73330005602141  2.82678202419156  2.8734045552952  2.88741601191372  2.87381975839218  2.88403582484679  2.84402914450415  2.75832053700646  2.6828889371671  2.59424387894081  2.42937351344805  2.37451273211623  2.32235405833579  2.20875245209239  2.08564735781002  1.97867502521273  1.87066462201302  1.7732436590754  1.66884232111179  1.57158629023713  1.4800278209341  1.24587742479809  1.16009470905458  0.485450822757787  0.485514546610135  0.485604187372318  0.485715802326027  0.486262905437433  0.486470292978204  0.486671614003733  0.486899330243465  0.487121101675376  0.487364333779195  0.487592350374253  0.487785387291247  0.488013697462461  0.487947808964671  0.487976729999193  0.488335893558463  0.488606428773256  0.490000000083398  0.489999999904446  0.490000000074793  0.489999999869662  0.490000000602283  0.490000001545317  0.490000000697703  0.490000000849017  0.4899999995683  0.489999999454234  0.489999999361156  0.490000001859333  0.490000001922828  0.489999999143724  0.489999998472238  
0.48999999975687  0.489999999766678  0.489999999777622  0.489999999789448  0.489999999801522  0.489999999812508  0.489999999819972  0.48999999982069  0.489999999818044  0.490000000582412  0.50093410606713  0.524397581795337  0.548708330300438  0.573886211659158  0.596529600091806  0.614727007451361  0.642059504300447  0.663863404399963  0.708233531005889  0.731828436890292  0.766726522141863  0.811617061238668  0.717791666776425  0.680435093654307  0.683228000110008  0.682645501043886  0.677486231634932  0.696646723797695  0.709724011625129  0.726191759336684  0.744805015384141  0.762233267069894  0.7800367012474  0.804604060936378  0.847776103491675  0.909906834358015  0.936445617901412  1.06590995172926  1.19986228289824  1.37743695656426  1.58219909873852  1.80903049994585  2.00431041986913  2.18649269715704  2.33361716022902  2.44915519116683  2.55153076547818  2.61753302403325  2.64531289222138  2.6499363246047  2.66500278615344  2.65551344327523  2.60749852644684  2.54103419632782  2.41793458002077  2.37782643275516  2.28194663429513  2.23552961763182  2.13267325534801  2.03048570957168  1.91857877467414  1.81944173414225  1.72920415419257  1.63092650747797  1.54084629966586  1.45501138267496  1.36321933887898  1.1433065244075  0.48575160628473  0.485812421187768  0.485895982198728  0.486001476435496  0.486169170366633  0.486675026733978  0.486863421177299  0.487046752497733  0.486913970587169  0.487127894456449  0.487364639976452  0.487616631207014  0.487878020334592  0.48809436772987  0.488087134767579  0.488428645004969  0.488655753605225  0.490000000720432  0.489999999024957  0.489999999897774  0.49000000011946  0.489999999979878  0.489999999848021  0.490000000529823  0.490000000462015  0.490000000314355  0.490000000246064  0.490000000198289  0.489999998909663  0.490000000480147  0.489999999882232  0.49000000086582  
0.489999999607841  0.489999999618614  0.489999999629883  0.489999999641559  0.489999999653184  0.489999999662888  0.489999999663566  0.489999999629479  0.489999999484279  0.489999999341213  0.504177627159411  0.526024880583541  0.548918179455066  0.571592416382287  0.593328749279617  0.60673648459173  0.631535582846202  0.663550982592032  0.69070085265318  0.711827543803677  0.743238523122847  0.786782018935491  0.795590047811251  0.822370894149692  0.620543128182879  0.606079589112729  0.615127516643122  0.62329344195009  0.626166522319059  0.630270758033461  0.634247359073586  0.632571940066247  0.628080399436923  0.613747927090824  0.596459233738772  0.615989732992469  0.664002393355864  0.727060351292286  0.860430630134056  1.08469428479604  1.31261728851176  1.55547197671151  1.75535909606691  1.91779885492637  2.06551131611106  2.19366321411743  2.29833633240743  2.37296174219  2.44605276769628  2.45146677127201  2.49166028066898  2.48105517087754  2.44874747154315  2.35586537047819  2.37266070917768  2.28493293798982  2.18174241832624  2.08882770641832  2.0509596713147  1.95799757612743  1.85487878831584  1.76395012525798  1.67305053789723  1.58957677351444  1.506982926592  1.42602810125085  1.34028034232696  1.2258381193358  0.486018903897003  0.486074648552369  0.486151720439275  0.486247660514141  0.486475101218362  0.486637646305549  0.486792691349893  0.486964641200102  0.487153774785004  0.487353192356723  0.48757470589898  0.48780168294444  0.488052059826201  0.488242098826796  0.488200197251249  0.488522402465272  0.488696927210645  0.489999999863053  0.490000000094215  0.490000000024996  0.48999999980023  0.490000000223048  0.49000000061877  0.490000000181372  0.490000000075637  0.490000000784112  0.490000000906276  0.490000000998888  0.489999999480569  0.490000000425832  0.489999999041211  0.490000000080159  
0.490000001644  0.490000001636737  0.49000000162663  0.490000001612954  0.490000001594658  0.490000001569801  0.49000000153321  0.490000001465946  0.49000000130716  0.490000001472341  0.504881952567387  0.52622590808535  0.548305630714642  0.568544150092465  0.589779175803868  0.611697824451161  0.602115333181564  0.62930200741774  0.648773489907808  0.668627795609451  0.677459115094494  0.700739830538458  0.714204244647564  0.724814720475285  0.732756052143311  0.730279002877965  0.69824137112016  0.614650995015637  0.668797403962586  0.644023971094146  0.624134449408206  0.587129265069098  0.595146186964138  0.553621216945263  0.506801726083667  0.489396041001042  0.495440452197216  0.493062516666939  0.593097776226766  0.830417195557899  1.0579603030192  1.26562907028401  1.46336938461932  1.64521635979939  1.79193190676973  1.92354322283505  2.01793545341748  2.10211656771594  2.18183573013456  2.20714659399953  2.2730311907118  2.26387504704484  2.18455709810387  2.14992561857599  2.10093387845884  2.04563313114364  1.92699547914412  1.85986885118808  1.7851824670668  1.71219091089315  1.63753286731522  1.56262214289437  1.48478363005649  1.4110201399081  1.33854482931118  1.26686157072136  1.19777775714923  1.13312648344436  0.486241153679127  0.486292328231227  0.48636199054244  0.486590063954884  0.486736678449124  0.486882222240091  0.487032230728044  0.487217958269947  0.487398793936194  0.487585688738011  0.487794422553201  0.488005240617482  0.488234225152  0.488404273997055  0.488327417368828  0.488629923264831  0.488732419361462  0.49000000103813  0.489999999753817  0.489999999826667  0.490000001882288  0.489999999688706  0.489999999634423  0.490000000762974  0.490000000725023  0.49000000045266  0.490000000205569  0.49000000103674  0.490000000748116  0.489999999377398  0.490000000310554  0.490000000251239  
0.489999999273607  0.489999999430431  0.48999999959696  0.489999999772836  0.489999999956334  0.490000000142784  0.490000000321358  0.490000000468843  0.490000000549883  0.489999998965133  0.50456183512739  0.525346672017463  0.547069551914004  0.571632828105784  0.586480686440149  0.597992296766421  0.59757345956878  0.614881431400126  0.626421521444988  0.643683190015284  0.659842993524767  0.669811052457916  0.614160028005799  0.601707415729587  0.583850561480503  0.602472669926091  0.639606313961865  0.587172055196716  0.62614172792479  0.597045641197673  0.579034460848409  0.542390312344902  0.538937697347488  0.514052331830349  0.488679662205486  0.490000000106711  0.490000000357946  0.490000000688147  0.549535231846573  0.695604074506241  0.879759194913102  1.08150939930474  1.26714518677478  1.43818812588504  1.55254498132852  1.68169064073517  1.78882487230682  1.87476575584668  1.96810665721341  2.00764368236761  2.09472617724538  2.02948362822475  2.01901455213352  1.98561939412917  1.94222294855998  1.89331629680517  1.85316877823998  1.79627999508512  1.73189766996112  1.66834999656341  1.60220010418426  1.53480490080764  1.46418856213564  1.3967873331728  1.3298946998617  1.26340505911954  1.19910927030106  1.13749738662548  0.486469142245824  0.486513827513546  0.486751613737471  0.486904076022412  0.486984465440074  0.487121530274523  0.487262203005633  0.487413482506135  0.487580941833675  0.48776363735344  0.487956862888508  0.488162597388718  0.488385778012907  0.488537154042751  0.488426945868812  0.488710931016793  0.488764968416057  0.490000000031489  0.490000000037587  0.489999999699852  0.489999999645487  0.490000000271535  0.49000000030269  0.489999999920794  0.490000000068798  0.489999998746737  0.489999998719621  0.489999998709461  0.489999998710359  0.49000000072713  0.490000000788438  0.490000000531952  
0.49000000036334  0.490000000371106  0.490000000377801  0.490000000381784  0.490000000379812  0.490000000365427  0.490000000325632  0.490000000233422  0.490000000005439  0.489999998815982  0.504598017459808  0.522554057384849  0.544922219898533  0.569148132827814  0.583133432563403  0.592511932111732  0.587074574512319  0.604069713023819  0.616732217654732  0.630796207751118  0.615260624077508  0.610047162106577  0.602582000320703  0.590469636263293  0.571891294878535  0.564208480735049  0.608440127004847  0.592674417492462  0.593735862496141  0.572694625024304  0.554996447364419  0.520027728439297  0.518997547643538  0.495380088470443  0.485532711629812  0.489999999244904  0.48999999941344  0.490000000717969  0.501065688087946  0.619176594847169  0.79419720997857  0.989207620538156  1.15481897413622  1.27085299528397  1.41041242421615  1.5082103263662  1.06515286717441  1.6981867263697  1.79042315044795  1.82930717472166  1.86443962902217  1.8882870790035  1.86509908866611  1.84178714447418  1.8101714896196  1.76925148325121  1.72259494890271  1.66927915697519  1.62239482818959  1.56692703128818  1.50909255432255  1.44988117346811  1.38724521109528  1.32679031785492  1.26891540085275  1.20874466341707  1.14981689365748  1.09352261656738  0.940875724875332  0.48692181191616  0.487146757522599  0.487152950484075  0.487231770008073  0.487365063740665  0.487492236765212  0.48763124799292  0.487787649920286  0.487956154489987  0.488126755431171  0.488321170347781  0.488501088372333  0.488651251611549  0.48850343107824  0.488767845481958  0.488797508397706  0.489999999948868  0.490000000332464  0.489999999826618  0.490000000451589  0.489999999369171  0.490000001147026  0.49000000037216  0.490000000701592  0.490000000661603  0.490000000633956  0.490000000609137  0.49000000059176  0.490000000582033  0.49000000057887  0.490000000246959  
0.490000001867261  0.490000001634226  0.490000001369265  0.490000001065569  0.490000000715389  0.490000000311407  0.489999999850392  0.489999999339822  0.489999998801143  0.490000000393384  0.502685500129877  0.519479773400138  0.539273232901481  0.564390638588559  0.572614318536947  0.588531505413104  0.585917667383081  0.597424422609409  0.609627292572037  0.606915265784643  0.604027515585537  0.599029667561398  0.589658280790106  0.579546721356298  0.56052251104879  0.553876346182707  0.578826813242789  0.571154915105573  0.591213072516167  0.551323227558128  0.538619247078015  0.506673930021542  0.503558450985187  0.505922163156134  0.494263873075676  0.48999999987949  0.489999999420546  0.490000000003294  0.489465219527415  0.553667749699375  0.698195426349544  0.837498918767663  0.986482238928395  1.12667434706825  1.25443743159597  1.34406946943581  0.983806424581738  1.02687646285953  0.488520747078612  1.63531194313116  1.69067710529611  1.70159658607261  1.6882297345827  1.67560262342212  1.65410274830448  1.62333131046749  1.58457063063316  1.54396534008735  1.49936363861696  1.45181136668963  1.40255840372157  1.34925362613574  1.29735093093655  1.24525584774488  1.19157943420786  1.13847870383496  1.08711464848905  1.03687951056024  0.922771093847919  0.487364681313361  0.487386232690716  0.487395152338043  0.487471194164155  0.487592128637891  0.487710314691068  0.487847562342827  0.487980251347916  0.488135160515597  0.488283391318836  0.488444668291471  0.488624431461219  0.488760256532366  0.488600328799706  0.488824193058558  0.488849643405604  0.489999999305736  0.489999999271422  0.489999999923809  0.490000000042783  0.489999999041369  0.490000000233372  0.490000000050069  0.489999999704363  0.489999999571222  0.489999999660876  0.489999999726113  0.489999999774896  0.489999999812096  0.489999999840901  0.489999999782072  
0.489999999795023  0.489999999801653  0.489999999810841  0.489999999823062  0.489999999838824  0.489999999858702  0.474843818837226  0.477826995312029  0.481877665908946  0.487318788005599  0.497873158788544  0.514360714130662  0.53430387650557  0.549793077122641  0.568772414043983  0.572125659480373  0.578401724862239  0.596141992533951  0.597543819959543  0.596159758562769  0.592688428941808  0.587129704778483  0.576862482818786  0.56827385673689  0.548775029031808  0.542973705022628  0.536389548222317  0.549301138160779  0.564035166112715  0.571993037445694  0.548558349559509  0.528285919189747  0.523435037908667  0.499123652694101  0.481645666131256  0.48999999988676  0.489999999345868  0.48999999954613  0.478678612671197  0.511175265529174  0.596228928707916  0.717142559518088  0.849297877658788  0.97923353855828  1.10027356020705  1.18302909028562  0.891942255160314  0.934453333753494  0.48868278993842  0.488507463621359  1.53763742639372  1.54107494721751  1.55162909794276  1.54826957912444  1.53399972064647  1.51272399421245  1.48335651629547  1.45108658004378  1.41481004178484  1.37510419257521  1.33343396927089  1.28844041996283  1.24489250784381  1.19039806659528  1.14277187979399  1.09509063500939  1.0492502679082  1.00654125434878  0.905496551062076  0.487598132815151  0.487617009089527  0.487620941558528  0.487693002146098  0.487809918794613  0.487922544899689  0.488033736979809  0.488156562441684  0.488300957445553  0.48844747878791  0.488592195270809  0.488741140472284  0.488856777451519  0.488675850908715  0.488868553092721  0.488908142212842  0.490000000128715  0.489999999644326  0.489999999718578  0.490000000080697  0.490000001305083  0.489999999485425  0.490000000236157  0.49000000029998  0.490000000098692  0.489999999929521  0.489999999771725  0.489999999625366  0.489999999489846  0.489999999364228  0.489999999905524  
0.490000000145207  0.490000000146149  0.468193331735677  0.468922467985636  0.469928527269394  0.471308253991948  0.473194269821836  0.475764666167759  0.479248743719306  0.483960504348803  0.491186470777442  0.507469288169467  0.525592292934097  0.546847198753785  0.566704248678343  0.578673826143864  0.586897377348755  0.589924774052233  0.589604891826835  0.586883904983017  0.582807149570738  0.577245519580702  0.567922638626679  0.544937529121793  0.540659394340914  0.535977348861512  0.530391335997568  0.524828140562873  0.561108582577938  0.543353664212497  0.532109549419965  0.505194035520726  0.498819525074496  0.489729539627353  0.479474595213849  0.489999999316483  0.490000000267  0.489999999379938  0.477633257257358  0.505801357613006  0.527670381013543  0.622996833666232  0.741720831706259  0.860391157642047  0.971111047961585  1.04488105591661  0.815276673083791  0.85585393604784  0.488850246006682  0.488678762837982  0.488434136879898  1.40276786151588  1.4198104144868  1.42719542577033  1.42172298819141  1.40689943402804  1.38371492126481  1.35913521664571  1.33051462651368  1.29884687699308  1.26370029455737  1.22693725739933  1.18806937566509  1.14885014556847  1.10784385298008  1.05098984838553  1.01221689907971  1.38098663868649  0.874699399431625  0.487815937842848  0.487833595886887  0.487831465855469  0.487898696470923  0.488000557878171  0.488097505301839  0.488209964153289  0.488315080773165  0.488442099318747  0.488558114543753  0.488680884643056  0.488821427310057  0.488921769500037  0.488654270947861  0.488807683212503  0.488924602301712  0.490000000426864  0.489999999941348  0.489999999822065  0.489999999941997  0.489999999325593  0.49000000104423  0.489999999713275  0.489999998964528  0.489999999940542  0.489999999930202  0.489999999920618  0.489999999912117  0.489999999904727  0.489999999898344  0.489999999738633  
0.467898520574779  0.468011364386854  0.468255230181759  0.468676185455765  0.469336174116258  0.470318689583411  0.471736092424343  0.473739766324258  0.476542198474504  0.480486782582474  0.484884157399516  0.499676836815645  0.518928426223556  0.541009941882822  0.561914779969953  0.578283481725115  0.583344894867873  0.583068268123853  0.580448979585502  0.576472399047735  0.571580006965355  0.564718703061944  0.55697475790407  0.534378448484542  0.53059320072942  0.526403477689788  0.521506236884004  0.516944266000305  0.536229037758128  0.527573680943441  0.517659351197232  0.49915776948133  0.492889631903306  0.489558744258466  0.490000000733324  0.489999999467285  0.489999999128173  0.490000000991815  0.489999999682315  0.499845924615752  0.489734436895491  0.577240700090393  0.662643794750141  0.76383249129396  0.863507647289427  0.929314234590102  0.745734271540135  0.781979195174653  0.489008298318018  0.488843788448063  0.488597996588783  0.488490924023679  0.488525273079116  1.29634257310417  1.29747232874491  1.29424205098075  1.28413937244749  1.26885488405291  1.24166149860545  1.21814838817527  1.18947582473505  1.15897172653564  1.12656382851041  1.09239093612625  1.05822459458381  1.02311126219343  1.30877172116902  1.31082066691687  0.916106622955863  0.792198710178524  0.488014000356739  0.48802697024466  0.488082945887721  0.488162885566339  0.488259964523474  0.488344084563109  0.488444397002172  0.488555244401411  0.488681792496363  0.488792979856859  0.488682284934196  0.488784287437347  0.488590415094796  0.488822472363022  0.488975828030718  0.490000000038315  0.490000000543591  0.489999999681459  0.489999999573916  0.489999999252717  0.489999999853276  0.490000001008279  0.489999999928801  0.489999999756548  0.489999999638723  0.489999999542209  0.489999999464152  0.489999999400695  0.489999999348549  0.490000000554027  
0.468546835978846  0.468411470508327  0.468377599929804  0.468485487385521  0.468789226496552  0.469361854151275  0.470302834499248  0.471751121880264  0.473915696141466  0.477198979045807  0.47939232885697  0.491263293504494  0.509666736515239  0.531878657589691  0.557817938704639  0.579705294609343  0.577307206702515  0.574182034981493  0.549945207907063  0.565296166825407  0.559675701075983  0.552692149427037  0.546335337918684  0.525154415079326  0.52119021172817  0.517351559855969  0.512977661802106  0.508971371028177  0.504885555883448  0.511925429467491  0.506841099785537  0.496245670467103  0.490962335345054  0.489999999696541  0.490000000443834  0.48999999890031  0.490000000123109  0.489999999410771  0.489999999911128  0.490000000741345  0.489041838160347  0.526130795923976  0.605890171790887  0.695925682485717  0.782996846847694  0.83835575635863  0.719229702957093  0.748063182756914  0.489109804375088  0.488951570089187  0.488771707979399  0.488617512550651  0.488638872461724  0.488506169893592  0.488375987610088  0.488248844815007  0.488124366757902  0.488005914037311  0.488127236759435  0.488062124171083  1.07923905055663  1.05378875088245  1.02639062470683  0.996832830594478  0.966851036602347  1.2251888001058  1.20030277623322  1.17662764789272  0.882420155728541  0.766021640993356  0.488185311164314  0.488198289905994  0.488245682156031  0.488327851808219  0.488414644389747  0.488263950782938  0.48835931342775  0.488441904629645  0.488554746332116  0.488675570577742  0.488800576498107  0.488892103470231  0.48869279669685  0.488913021256374  0.489063322641028  0.490000000041957  0.489999999911358  0.490000000222189  0.489999999863103  0.48999999901759  0.49000000009554  0.490000000785902  0.490000000912245  0.489999999736341  0.490000000072688  0.490000000288376  0.490000000303628  0.489999999002966  0.489999998990564  0.489999999686603  
0.490000000119595  0.490000000134971  0.490000000128536  0.490000000127552  0.490000000132009  0.490000000138902  0.490000000137597  0.490000000099973  0.489999999962375  0.474053074220276  0.474132247929049  0.483966358577149  0.49830083498428  0.519107630034161  0.542448906391625  0.559398510486816  0.561801014483682  0.560774813829066  0.543801371448712  0.536306068751657  0.547077699019233  0.540254130762856  0.534777220895229  0.528327409677155  0.520966978464072  0.514452268692362  0.508174069350746  0.503178865787225  0.498642734560115  0.501076988727084  0.495819615532245  0.491418669650095  0.486490958197516  0.490000000052664  0.489999999143596  0.490000000052575  0.489999999522099  0.490000000353154  0.489999999982996  0.489999999784033  0.485718967126134  0.509885875787769  0.559076577167698  0.628415058366784  0.695594512058842  0.740493381928335  0.654771710254155  0.67755113492259  0.489276882049294  0.489124247645182  0.488957220600049  0.488800871008289  0.488816160203574  0.488691424221793  0.488565171873603  0.488441923621962  0.488317351743308  0.488198277341609  0.488083526893154  0.487976929973207  0.488114500093776  0.488162117275767  0.984231808185178  0.949056659633627  1.18256884499549  1.16576508899672  1.14377394438841  1.17499833470928  0.848557423141197  0.736178768293537  0.488184337353151  0.488182877660196  0.488223542248145  0.488288328027853  0.488332569523816  0.488409542919407  0.488502276324363  0.488596888290986  0.488705783402689  0.488815054374099  0.488937447799885  0.489007081426188  0.4888090227163  0.489022206192864  0.489158809431579  0.49000000018592  0.489999999949027  0.489999999794624  0.490000000490448  0.490000000170123  0.490000000218481  0.490000000477503  0.4900000003234  0.490000000218187  0.489999999746046  0.489999999979509  0.490000000843247  0.4899999992135  0.490000000743723  0.490000000795222  
0.489999996009004  0.489999999626819  0.489999999650408  0.489999999302362  0.489999999322545  0.489999999348618  0.489999999381944  0.489999999424328  0.489999999478302  0.471397699730295  0.469584391548078  0.478077988838509  0.487594671711587  0.50380905204247  0.522119445479702  0.535649796174373  0.542223911340771  0.544560113439378  0.534211701560367  0.528537293523672  0.522447787997879  0.515735061813704  0.522943487179915  0.516886578001174  0.510561332897097  0.504863268565587  0.498877989907354  0.494622321690583  0.491294688747642  0.484879559422321  0.48109452913421  0.489255236392992  0.489999999010745  0.490000000269742  0.4900000002288  0.489999999893441  0.49000000051218  0.490000000380757  0.490000000345118  0.489999999566325  0.49000000009622  0.496579693213044  0.56741592842435  0.640008402707574  0.703824056346815  0.735179538926859  0.665922988246862  0.682788058874065  0.489345771419183  0.489204850382317  0.489051907745518  0.488892945404638  0.48890168344222  0.488787108681961  0.488670065546461  0.488550024547747  0.48843518779469  0.488325810656246  0.48848077378697  0.488413202939668  0.488359070207012  0.48831293797654  0.490000000644774  0.489999999895387  0.489999999002958  0.490000000016686  1.12010968553831  1.10218748593639  1.08194929453395  0.768185082470072  0.6877007658617  0.48833742299006  0.488378263852164  0.488439289586748  0.488509744708682  0.488581489536187  0.488666774606114  0.488755488840962  0.488851574205659  0.488953323107353  0.489061843586047  0.489127985090125  0.488928624373016  0.48913336939022  0.489245852285409  0.490000000485216  0.489999999703428  0.490000000451444  0.49000000055591  0.48999999939508  0.490000001002898  0.49000000043767  0.490000000408911  0.49000000113476  0.490000000031877  0.490000001259372  0.490000000030125  0.489999999928924  0.489999999930954  0.490000000561167  
0.4900000000554  0.489999999955177  0.489999999958275  0.489999999671698  0.490000001444615  0.490000001251911  0.490000000765347  0.490000000594358  0.49000000043424  0.489999999927822  0.465996922443337  0.47461879512015  0.481055150046573  0.490479713601764  0.504347525512261  0.516301996975231  0.522213903080042  0.524472880568374  0.523019324582605  0.519465111539023  0.514542903255483  0.509080786143355  0.504054870916301  0.499077499441969  0.495063948475863  0.494670328841479  0.491270392817106  0.489083391562954  0.488123400675253  0.489999999332264  0.49000000049534  0.489999997650417  0.490000000350993  0.489999999714222  0.489999999398988  0.490000000027176  0.48999999985824  0.48999999882358  0.489999999246758  0.489999999984945  0.490000000666622  0.48686410557586  0.521501465742129  0.563697221900455  0.612023055163279  0.635459280489424  0.599083075661366  0.612784359197552  0.489539628179648  0.489412593097645  0.489253458353055  0.489092200114268  0.489089637071059  0.488987864703526  0.488866077843506  0.48875021194554  0.488640403165672  0.4887513059162  0.488679851593619  0.488625788787213  0.490000000723495  0.490000000726256  0.490000000341112  0.490000000040768  0.490000000031654  0.48999999919734  0.490000000850834  0.490000000155038  0.490000000545998  0.488486857589187  0.488489190036095  0.488517388364842  0.488555823143606  0.48861283190888  0.48867438691552  0.488740704918229  0.488814799559719  0.488895915309265  0.488985207649545  0.489080711383834  0.489160419064244  0.489203440177685  0.489044655997063  0.489239767160787  0.489325011432845  0.490000000282482  0.490000000000366  0.489999998425969  0.489999999243309  0.489999999810604  0.490000000230936  0.490000000521938  0.490000000686095  0.490000000675709  0.490000000692509  0.489999999476807  0.489999999437855  0.490000000297595  0.48999999993615  0.490000000459566  
0.489999999965655  0.490000000334897  0.49000000037367  0.490000000236306  0.489999999298359  0.490000000109532  0.490000000596627  0.490000000356842  0.490000000312812  0.489999999862223  0.470152160499404  0.47472398608414  0.478312100838141  0.483633883728431  0.491220979058013  0.501095851581923  0.50811511700048  0.511686020153809  0.512788073287186  0.510826023440352  0.507080375864019  0.502392551563091  0.497228038965954  0.493013421374386  0.489988081472132  0.489001271801433  0.489999999970136  0.489999999411707  0.489999999619696  0.489999998930924  0.489999997268408  0.489999999601921  0.490000001412924  0.490000000393649  0.48999999987429  0.490000000635731  0.49000000075127  0.489999999278171  0.490000002117889  0.490000001179033  0.489999999352905  0.503605427559815  0.52261230309118  0.547827737268064  0.546566939337585  0.56361079828492  0.54722012128091  0.555657906541156  0.489718761837848  0.489594833388905  0.489440343455157  0.489275629916121  0.489253947867038  0.489163384584745  0.489046582444145  0.489080883230133  0.489008118779232  0.488944507285242  0.490000001950283  0.489999998931041  0.489999998857639  0.489999999588336  0.489999999581981  0.490000000078669  0.490000000342386  0.490000000833915  0.489999999229562  0.489999999034093  0.490000000415468  0.489999999664662  0.488644836517134  0.488645169727719  0.488712922733492  0.488763228131139  0.488818667519324  0.488879601962776  0.488935152022219  0.488988246591286  0.489015708374327  0.489116032504152  0.489220693952518  0.489213194217723  0.489145489850892  0.489330669416533  0.489513464973441  0.489999999892329  0.489999999339697  0.489999999776907  0.489999999975791  0.489999999800232  0.49000000073657  0.490000000188054  0.490000001385044  0.490000000807405  0.490000000410076  0.48999999975443  0.489999999644621  0.489999999342886  0.489999999317866  0.490000000132879  
0.490000000016939  0.490000000045721  0.490000000009871  0.49000000028374  0.490000000071649  0.490000000437126  0.490000000637075  0.490000000274821  0.490000000333397  0.49000000027252  0.490000000514564  0.473810386938964  0.476511739591997  0.480299076339446  0.485196773287473  0.491412306081334  0.497956726233405  0.50214235555588  0.504246533382577  0.503368828034579  0.500533625169226  0.496373691527516  0.491539926232382  0.489078784389989  0.490000000010757  0.489999998901301  0.489999998772556  0.489999999483498  0.489999998205566  0.489999998090193  0.489999999215565  0.489999999278614  0.490000001090192  0.490000000511491  0.490000000426806  0.490000000295132  0.489999999618454  0.48999999770659  0.490000000714442  0.489999998166843  0.490000000648868  0.490000000458984  0.485050597401644  0.48624567935116  0.502142055748086  0.536637179476664  0.521709396833655  0.515205307474734  0.489862481569575  0.489748509249331  0.489582893966111  0.489400966949162  0.489430446802949  0.489372667764795  0.489294928104518  0.489217822443569  0.490000000608133  0.489999999564452  0.489999999548317  0.489999999532239  0.489999999041198  0.490000000224611  0.489999999215918  0.490000000520014  0.489999998406362  0.489999999856622  0.490000000237335  0.489999999370721  0.489999999381349  0.49000000073414  0.48999999925288  0.49000000072745  0.488814709480569  0.488808103395138  0.488821621726356  0.488889223372632  0.48896396954032  0.489044777753969  0.489132906331885  0.489226681426636  0.489322039227694  0.489310428558006  0.489238912575465  0.489413987239101  0.48958429767781  0.489999999833184  0.489999999878249  0.490000002744462  0.490000000381803  0.489999999593636  0.490000000386665  0.490000000572952  0.489999999683545  0.489999999363925  0.489999999117848  0.489999997603857  0.490000000868679  0.489999998819206  0.490000000258504  0.490000000339808  
0.489999999954443  0.489999999672054  0.489999999905014  0.490000000099298  0.490000002879274  0.490000001141808  0.48999999992939  0.489999999936856  0.489999999916832  0.490000000735464  0.490000000093962  0.470696517507139  0.475729762484806  0.478821919712708  0.482695363282473  0.487014615665422  0.491824124535538  0.495890571506732  0.497754603718354  0.498039079403  0.496030519554347  0.492808319723001  0.489441860584124  0.490000000115172  0.489999998816707  0.489999997890446  0.489999999041756  0.489999999991627  0.490000000960126  0.489999999755588  0.490000000158919  0.490000003145199  0.490000000485897  0.490000000007689  0.489999997204118  0.489999997939703  0.490000001969823  0.490000000303387  0.489999999699608  0.490000000690903  0.490000001850977  0.490000000446198  0.489999998615487  0.490000000436225  0.489999999945016  0.489999999834306  0.490000000223826  0.490000000352017  0.490002140642817  0.489942159003974  0.489830738529595  0.489714847253397  0.489601819251894  0.489552447873096  0.490000000105241  0.490000000092994  0.490000000117522  0.489999999576681  0.490000002463287  0.490000000825576  0.489999999028299  0.489999996836996  0.490000000093874  0.490000000103436  0.489999998920962  0.489999998980844  0.490000000596598  0.490000000363702  0.490000000243525  0.490000000201732  0.490000000194224  0.490000000893328  0.489999999939524  0.490000000247578  0.489999999334785  0.490000000126636  0.490000000841055  0.490000000296619  0.490000000208563  0.489376452584131  0.489340383648539  0.489404034813859  0.489330575706704  0.489493773440532  0.489650138713354  0.490000000113366  0.490000000672711  0.490000001861669  0.490000000469264  0.489999999857859  0.490000000990887  0.490000000527519  0.490000000210249  0.489999999672563  0.489999999678177  0.489999999689763  0.489999999946959  0.489999999947375  0.490000000027518  0.490000001429054  
0.489999999969829  0.490000000164278  0.490000000133175  0.490000001035219  0.4900000002186  0.490000000600388  0.489999999566233  0.489999997395915  0.490000001219078  0.490000000723636  0.489999999478156  0.490000000213078  0.473008560974752  0.477978986669617  0.481549118115743  0.485404505651125  0.489441999727687  0.492320681431568  0.493721835063815  0.493734335488277  0.492947081122074  0.491032471412248  0.489999999176176  0.489999998749703  0.490000000358829  0.490000000367676  0.490000000174794  0.489999999331478  0.49000000021939  0.489999999437982  0.490000000413222  0.489999999119289  0.489999999108553  0.490000000316627  0.489999999286764  0.490000000495122  0.489999999452994  0.490000000788006  0.489999999757068  0.489999999375919  0.489999999437095  0.489999999964838  0.489999999655129  0.489999999019396  0.489999999925849  0.490000001293121  0.489999999727825  0.489999999325681  0.489999999280075  0.489997383960862  0.489924280747482  0.489825948954782  0.490000000048297  0.489999999959807  0.489999999416192  0.490000000190985  0.490000000970709  0.490000000208678  0.490000001159557  0.490000000055001  0.490000000071029  0.490000000716603  0.4900000007664  0.49000000024676  0.489999999517184  0.489999999084394  0.490000000210461  0.490000000913762  0.490000000650981  0.490000000850638  0.490000000548433  0.489999999981155  0.490000000912147  0.490000000065573  0.49000000016989  0.489999999867597  0.489999999953185  0.490000000211633  0.490000000187174  0.490000000164319  0.49000000014372  0.489999999951619  0.489684674033372  0.489556393177587  0.489699675513487  0.489999999590043  0.490000000420157  0.489999999960082  0.489999999675568  0.490000000235114  0.490000000530825  0.489999999575367  0.490000000008085  0.489999999977545  0.489999999921246  0.48999999986931  0.489999999821825  0.489999999778567  0.489999999739229  0.4899999997039  
0.490000000111406  0.489999999688365  0.489999999812728  0.489999999798867  0.489999999764086  0.489999999911825  0.490000000012082  0.490000000246841  0.490000000081915  0.490000000072949  0.490000000183722  0.489999999824241  0.489999999923082  0.477197997860434  0.489999999894902  0.484408196889741  0.488237750435264  0.490000000407767  0.489999999910503  0.489999999965776  0.489999999951035  0.490049483803897  0.489999999452439  0.490000000246  0.489999999800266  0.489999999936732  0.490000000695573  0.489999999590998  0.489999997146013  0.489999998794158  0.490000002184242  0.489999999306862  0.490000000783411  0.489999996486147  0.489999999905682  0.49000000092315  0.490000001067588  0.49000000110068  0.489999998510045  0.490000000382294  0.490000000647203  0.490000000473182  0.489999998000488  0.490000000669552  0.489999999766153  0.490000000034731  0.490000000394557  0.489999999316808  0.490000000893217  0.490000000357251  0.490000001144094  0.489999999688555  0.490000001523448  0.490000000129729  0.489999999587955  0.49000000100846  0.489999999892184  0.489999999894641  0.490000000143364  0.490000000076449  0.490000000636154  0.489999999758109  0.48999999979275  0.489999999880316  0.489999999920102  0.490000000607938  0.490000000626465  0.490000002596697  0.490000000133046  0.490000000150979  0.48999999972688  0.490000000287827  0.490000001075383  0.489999999338097  0.49000000068172  0.490000000066444  0.489999998989087  0.489999999357814  0.489999999372894  0.489999999394076  0.489999999422906  0.490000000190011  0.49000000007073  0.489800614689402  0.489739481988066  0.48999999955028  0.490000000145321  0.490000000185302  0.489999999820135  0.490000000072226  0.490000000493803  0.490000000612951  0.490000000018819  0.489999999896111  0.489999999888175  0.489999999878907  0.489999999868826  0.489999999858384  0.489999999847946  0.490000000205453  
0.489999999862742  0.490000000683842  0.490000003674185  0.490000000205748  0.490000000198627  0.490000000538432  0.490000001102458  0.48999999912117  0.490000000392726  0.490000001185428  0.4900000001739  0.48999999992129  0.490000000271816  0.490000000062839  0.489999999964368  0.482903258821246  0.486495736799241  0.489999999536222  0.489999998349701  0.490000000181619  0.489999998354526  0.489999999536023  0.48999999966776  0.489999999904703  0.489999999627311  0.489999999847784  0.490000000022965  0.489999999983692  0.490000000175745  0.489999999980748  0.490000002246962  0.489999999127862  0.490000002204054  0.48999999989179  0.489999998284771  0.490000000224856  0.490000001689119  0.489999998671702  0.489999999217429  0.490000001052458  0.489999999455957  0.49000000005376  0.489999999347118  0.49000000028372  0.489999999014618  0.48999999891102  0.490000000774853  0.490000000771194  0.490000000150902  0.489999999503452  0.49000000016814  0.489999999447692  0.490000000058111  0.490000001099343  0.489999999274635  0.489999999295365  0.490000001480699  0.48999999893887  0.490000001055089  0.490000000039299  0.490000000025979  0.489999999560854  0.489999999704259  0.490000000611368  0.489999999815134  0.489999999648628  0.489999999440845  0.489999999192194  0.490000000488158  0.489999999252527  0.48999999927229  0.489999999812479  0.48999999972504  0.490000000019851  0.48999999988202  0.49000000061462  0.489999999742762  0.489999999373695  0.490000000380802  0.490000000330026  0.49000000027517  0.489999999871869  0.489999999051597  0.489999999739778  0.48999999977319  0.489999999494855  0.49000000078561  0.4899999999097  0.489999999924254  0.490000000432193  0.490000000073953  0.490000000355318  0.49000000078915  0.490000001001188  0.490000001101067  0.490000001189061  0.490000001267109  0.490000001336646  0.490000001398738  0.490000001211303  
0.489999999922068  0.489999999823281  0.489999999844329  0.489999999533442  0.4899999999547  0.490000000012423  0.490000000377872  0.489999999882525  0.490000000232236  0.489999999837961  0.490000000334259  0.490000000126918  0.490000000089313  0.48999999987978  0.489999999421286  0.481066830640398  0.483998084710743  0.490000000078824  0.490000000558414  0.489999999901525  0.490000001601629  0.489999999640858  0.489999999808605  0.489999997654963  0.490000000455051  0.490000001361706  0.489999998984589  0.489999998819959  0.489999997608878  0.489999999347179  0.49000000037054  0.490000003308303  0.48999999985749  0.489999999708843  0.489999999870776  0.489999998884473  0.48999999770866  0.489999999137092  0.490000001197231  0.489999998854381  0.489999999642805  0.490000000816988  0.489999999660022  0.490000000679267  0.490000000388347  0.489999999790795  0.489999998898113  0.490000000116458  0.489999999485149  0.490000001705637  0.489999998820011  0.489999999320468  0.489999999351403  0.490000000717522  0.490000000426121  0.489999999384413  0.490000000701955  0.490000000486363  0.489999999462299  0.4899999995798  0.489999999291961  0.489999999180373  0.490000000330449  0.490000000148537  0.490000000284838  0.490000000330147  0.490000000705111  0.490000001148332  0.490000001166659  0.489999998392217  0.490000000154374  0.490000000164213  0.490000000234151  0.489999999682423  0.490000001303736  0.489999999728094  0.48999999986485  0.490000000298653  0.489999999652809  0.490000000798589  0.490000000173856  0.490000000099368  0.489999999812389  0.490000000298786  0.490000000084642  0.490000000138709  0.48999999981887  0.490000000590383  0.489999999831293  0.490000000023385  0.490000000763405  0.490000000270647  0.490000000170831  0.489999999715774  0.489999999677037  0.489999999648511  0.489999999627925  0.48999999961322  0.489999999602693  0.48999999613715  
0.489999999527789  0.489999999810869  0.489999999728407  0.490000000102078  0.490000000267004  0.490000000118675  0.490000000235813  0.489999999423993  0.489999999786662  0.489999998696051  0.490000000277397  0.490000000211679  0.490000000409649  0.489999999888141  0.490000000121308  0.480434593127268  0.48276034497912  0.49000000015392  0.48999999919168  0.489999999581189  0.489999999524686  0.489999999839873  0.489999999676739  0.489999999648887  0.489999999884679  0.4899999979668  0.489999998999511  0.48999999959287  0.490000001015326  0.489999999911466  0.489999999686722  0.489999998000782  0.489999997845388  0.490000000851868  0.48999999940137  0.490000001404441  0.49000000380419  0.489999998962865  0.489999998759838  0.489999999353195  0.490000000300081  0.490000000712416  0.490000000666829  0.490000000905418  0.490000001387696  0.490000003133204  0.489999999753518  0.489999998945385  0.490000000397095  0.490000000590001  0.489999999549536  0.490000001024411  0.489999998731891  0.489999999901818  0.48999999992643  0.489999999723295  0.489999999841074  0.49000000113544  0.489999999912409  0.489999998787689  0.489999999879282  0.490000000090731  0.490000000546867  0.490000000216999  0.490000000444171  0.489999999144572  0.489999999075001  0.489999999620761  0.489999999637919  0.490000001090366  0.490000001145746  0.489999999732222  0.490000000026647  0.490000000054971  0.490000001137864  0.489999999592082  0.490000000039371  0.490000000398238  0.490000000342521  0.490000000481132  0.490000000525525  0.490000000011296  0.489999999716013  0.490000000236341  0.490000000253048  0.490000000994546  0.490000002132058  0.489999999006153  0.489999999870568  0.490000000217942  0.489999999710413  0.489999999651518  0.489999999495831  0.489999999367479  0.489999999319589  0.489999999280109  0.489999999247068  0.489999999219072  0.489999997512247  0.48999999694502  
0.489999999726669  0.489999999840132  0.490000000297148  0.490000000542604  0.489999999882214  0.489999999652081  0.49000000043264  0.490000001095249  0.489999999867546  0.489999996607913  0.49000000004013  0.490000000182875  0.490000000007509  0.490000000426469  0.489999999669655  0.479966421658506  0.481722260619041  0.490000000318511  0.490000001262631  0.490000000278481  0.489999997942928  0.48999999929538  0.489999998579973  0.489999999848414  0.489999999982428  0.490000000594315  0.490000000340254  0.489999999641956  0.49000000057423  0.489999999790174  0.489999999579197  0.490000002346189  0.490000000818912  0.489999999980139  0.49000000029332  0.490000000998294  0.489999998783797  0.490000000854554  0.489999999959413  0.48999999954349  0.490000000169184  0.489999999966664  0.489999999493403  0.489999997226607  0.489999997956386  0.489999999852841  0.48999999760538  0.489999999219768  0.489999998288579  0.489999998688513  0.489999999974345  0.489999998924932  0.490000000246718  0.490000000132935  0.490000000771302  0.489999999651556  0.490000001471652  0.490000001182564  0.490000000227866  0.490000000430779  0.49000000109509  0.49000000355832  0.489999999850372  0.490000001793835  0.490000000998105  0.489999999517348  0.489999999514833  0.489999999513951  0.49000000023828  0.490000000100492  0.490000000123066  0.490000000541033  0.49000000040869  0.490000000353575  0.490000000042767  0.489999999946627  0.490000001198861  0.490000000130848  0.490000000617074  0.490000000639385  0.490000000322237  0.489999999821867  0.490000000117719  0.490000000165433  0.489999999609788  0.490000000131466  0.490000000094459  0.490000000336986  0.490000000062219  0.490000000489845  0.489999999289956  0.489999998510913  0.489999999497436  0.49000000002618  0.490000000039998  0.490000000046218  0.490000000093003  0.490000000102045  0.490000000109886  0.489999999947502  
0.490000000191765  0.490000000051166  0.49000000001132  0.489999999646995  0.489999999656031  0.489999999944609  0.489999999356568  0.490000000011547  0.490000000242596  0.489999999958463  0.490000000001476  0.490000000153445  0.490000000420656  0.490000000003632  0.489999999831747  0.47975716939069  0.48106283907796  0.489999999963065  0.490000000429314  0.489999999332192  0.489999999597467  0.490000000242329  0.490000000344616  0.489999999031317  0.490000001347959  0.489999999273066  0.490000000340981  0.490000001100824  0.489999999813794  0.490000000401939  0.489999999065187  0.490000000005304  0.489999998813915  0.489999998005745  0.490000000375139  0.489999999009102  0.490000003181747  0.490000000515506  0.489999999504408  0.489999999503675  0.48999999932287  0.48999999948864  0.490000000256494  0.490000000236145  0.490000000861355  0.490000001221971  0.490000000724336  0.489999999432204  0.490000001377588  0.490000001756143  0.490000001018096  0.489999999743397  0.490000000156142  0.48999999839131  0.489999999943855  0.489999999413479  0.490000000345634  0.490000000096476  0.490000001222075  0.490000000002501  0.490000000342413  0.490000002461215  0.489999999988263  0.490000000829774  0.490000000698138  0.489999999834703  0.49000000008402  0.490000000097975  0.490000000117309  0.489999999992586  0.48999999971937  0.490000000196558  0.490000000222822  0.49000000167809  0.489999999372282  0.489999999808729  0.489999999800412  0.490000000435382  0.489999999963867  0.489999999760123  0.489999999269845  0.490000000285874  0.490000000858714  0.489999999429937  0.489999999736309  0.489999999329387  0.490000000180494  0.489999999236281  0.489999999677123  0.48999999921021  0.490000000357012  0.490000000017953  0.490000000316675  0.490000000217745  0.490000000158001  0.490000000103057  0.489999998048517  0.4899999999018  0.489999999873993  0.490000000155937  
0.489999999739922  0.490000000301761  0.489999999670945  0.489999999890019  0.490000000644124  0.489999999403665  0.490000000467839  0.490000000457184  0.489999998180762  0.490000000357197  0.489999999967531  0.490000000135649  0.490000000468328  0.490000000244736  0.489999999935424  0.479580227086207  0.48049902233625  0.490000000698839  0.490000001868556  0.489999999711526  0.49000000133975  0.490000000283296  0.490000000403918  0.490000001564534  0.490000000283567  0.490000001561361  0.489999999706063  0.489999999990872  0.489999999487487  0.489999999516964  0.489999999039962  0.489999999609511  0.49000000015797  0.490000000253717  0.490000000273704  0.4900000001167  0.489999999225369  0.490000001217027  0.489999999414569  0.489999999373445  0.489999999243755  0.490000001065913  0.489999998584225  0.49000000091618  0.490000002860555  0.490000002260298  0.49000000022248  0.489999999243048  0.4899999990688  0.489999999332732  0.490000001153648  0.489999999242315  0.489999999508459  0.489999999484501  0.489999999455823  0.490000000981509  0.490000000425653  0.490000000216696  0.490000000363647  0.48999999930765  0.489999999332936  0.489999999362728  0.489999999395825  0.489999999715185  0.489999999711192  0.49000000025598  0.490000000388069  0.490000000395906  0.489999999498874  0.489999999581726  0.489999999626887  0.489999999678458  0.489999999438231  0.489999999424522  0.490000002390001  0.489999999392877  0.48999999904143  0.489999999897781  0.489999999096019  0.490000000479208  0.489999999738365  0.489999999955344  0.490000000761672  0.490000000234939  0.49000000027448  0.489999999737471  0.490000000115689  0.490000000294918  0.490000000003973  0.4899999996059  0.490000000800037  0.4900000008668  0.489999999546467  0.489999999949155  0.490000000156092  0.489999999934132  0.489999999962906  0.489999999880264  0.4899999999208  0.490000000830125  
0.490000001233947  0.489999999869652  0.49000000000232  0.490000000687189  0.490000005917983  0.489999999607996  0.489999999998592  0.490000000725525  0.490000000654211  0.489999999738724  0.489999998649069  0.489999999957831  0.489999999983567  0.489999999900304  0.489999999673694  0.479757864527662  0.480374430690865  0.489999999877134  0.490000000158949  0.490000001177463  0.490000000116907  0.489999999803852  0.489999999774451  0.489999999214766  0.489999999726312  0.489999999988417  0.489999999326683  0.49000000008283  0.49000000039841  0.48999999889466  0.489999999389464  0.490000000685972  0.490000000435899  0.489999999886483  0.490000000138227  0.489999999663687  0.490000000665531  0.489999998304427  0.489999999548808  0.49000000153276  0.490000000905407  0.490000000380149  0.490000000131416  0.490000000346792  0.490000000923106  0.490000001344232  0.489999999567127  0.489999998950371  0.490000000800511  0.489999997730867  0.490000000440626  0.489999999193001  0.490000000177022  0.489999998777606  0.490000001580636  0.490000001953709  0.489999999158794  0.490000000670331  0.490000000666227  0.490000000663796  0.489999999941651  0.489999999983208  0.490000001069129  0.489999997836244  0.489999997973202  0.489999998109805  0.489999999883207  0.490000001254474  0.490000001165302  0.49000000074486  0.490000000689076  0.489999998896884  0.489999999099874  0.490000001606475  0.490000001482872  0.49000000010716  0.490000000829254  0.489999999536334  0.489999998668765  0.490000000025781  0.490000000447702  0.490000000237294  0.490000000283599  0.48999999857173  0.490000000390188  0.490000002381594  0.489999999901542  0.490000000221545  0.490000001584715  0.49000000029333  0.490000000246209  0.489999998485896  0.489999999885466  0.489999999914231  0.489999999192209  0.489999999997423  0.490000000345576  0.489999999952535  0.489999998923044  0.489999998393911  
0.489999999977536  0.489999999947069  0.490000000027389  0.490000000556501  0.490000000082491  0.490000000028595  0.490000000160237  0.490000000077716  0.490000000115652  0.490000000361733  0.48999999996899  0.489999998131386  0.490000000090406  0.490000000368423  0.490000000416312  0.479823751140299  0.480158917367145  0.490000000597884  0.490000000188634  0.489999999891087  0.48999999926952  0.490000000487886  0.489999999450353  0.489999999442322  0.489999999941432  0.490000000208543  0.489999998233859  0.48999999968782  0.48999999854011  0.490000000004019  0.490000000609928  0.489999999806659  0.490000000140448  0.489999999807628  0.49000000013009  0.48999999977402  0.490000000600543  0.490000000748861  0.490000000103737  0.489999999272302  0.490000000021149  0.489999998460271  0.490000000794484  0.48999999911345  0.490000000435756  0.490000000656789  0.489999999664513  0.490000001244274  0.490000000927436  0.489999999950821  0.490000001077416  0.489999999030281  0.489999999963149  0.490000000261697  0.489999999812756  0.489999999727239  0.48999999877117  0.489999998811041  0.489999998862305  0.489999998919557  0.489999998980271  0.489999999043153  0.489999999107493  0.489999999172883  0.489999999239086  0.489999999305966  0.489999999373457  0.489999999441543  0.489999999510252  0.48999999957966  0.489999999649896  0.49000000039735  0.490000000393216  0.490000000347218  0.490000000882564  0.49000000084145  0.489999999507214  0.489999999611445  0.490000001130546  0.490000000040196  0.490000000057331  0.490000000104059  0.489999999084906  0.489999999743364  0.490000000242823  0.490000000067353  0.489999999831323  0.489999999998424  0.490000000278803  0.489999998919554  0.490000000119912  0.490000000209676  0.489999999506791  0.489999999649437  0.490000000385432  0.490000000389374  0.490000001988063  0.490000002026791  0.490000000619054  0.490000000222276  
0.489999999973642  0.489999999637393  0.489999999997369  0.489999995553636  0.490000002015773  0.490000001865046  0.489999997664785  0.490000004450308  0.490000004126539  0.489999999910759  0.489999999919585  0.489999999766899  0.489999999576416  0.49000000021227  0.490000000021575  0.479913839808602  0.479992024278154  0.490000000052494  0.490000000638714  0.490000000118529  0.489999998645883  0.489999998429536  0.489999999707715  0.490000000078677  0.490000000821653  0.489999999750799  0.489999999491562  0.48999999990114  0.490000000651632  0.490000000772466  0.489999999750739  0.49000000025179  0.489999999819221  0.490000000385265  0.489999999163717  0.489999999931087  0.490000001547929  0.490000000601761  0.489999998673452  0.490000000625506  0.489999997345374  0.4900000009552  0.49000000113134  0.49000000104766  0.489999999926777  0.490000000380176  0.490000000133511  0.489999999383003  0.490000000181022  0.489999998716833  0.490000000422147  0.49000000101574  0.490000000951549  0.489999999530277  0.489999999656947  0.489999999731445  0.489999999740857  0.489999999756089  0.489999999775164  0.489999999796793  0.489999999820132  0.489999999844606  0.489999999869806  0.489999999895423  0.489999999921212  0.48999999994696  0.489999999972472  0.489999999997555  0.490000000022004  0.490000000045587  0.490000000068033  0.490000000089007  0.490000000108082  0.490000000124702  0.490000000138119  0.489999999447951  0.490000000420466  0.489999998704235  0.489999998777536  0.489999998904988  0.489999999125173  0.490000000779871  0.490000000562379  0.489999999771686  0.490000000372531  0.49000000046879  0.489999999895178  0.490000000028422  0.490000000061217  0.489999999959609  0.490000000038597  0.49000000031761  0.490000000276498  0.490000000250633  0.490000000442975  0.490000000008047  0.490000000255367  0.489999999979987  0.489999999982727  0.490000000078411  
0.490000000002537  0.489999999791016  0.489999999989401  0.489999999996252  0.490000000027051  0.490000000039463  0.490000000524946  0.49000000056006  0.490000002707985  0.489999999935429  0.48999999972365  0.490000001736503  0.490000000105541  0.490000000012307  0.489999999750556  0.480116998745646  0.480025687526395  0.490000000717408  0.490000001907658  0.489999999810034  0.490000000119654  0.48999999936358  0.490000001036877  0.490000000109834  0.490000000251859  0.489999999662528  0.489999997377461  0.490000000236863  0.489999999155679  0.490000000235728  0.490000000636068  0.490000000955906  0.489999999496234  0.490000000496201  0.490000000352903  0.490000000464545  0.490000001996213  0.490000000437521  0.490000001150521  0.489999999428281  0.490000000102046  0.489999998714241  0.489999998612049  0.489999998951918  0.489999999358047  0.489999999019167  0.489999998532768  0.489999999613076  0.490000000362749  0.490000000758999  0.489999999269748  0.490000000707206  0.490000000471115  0.489999999440223  0.490000000822246  0.489999999943007  0.489999999992784  0.490000000017393  0.49000000002875  0.490000000093964  0.490000000044776  0.489999999992773  0.48999999993879  0.489999999883455  0.489999999827266  0.489999999770648  0.489999999713989  0.489999999657679  0.489999999602139  0.489999999547865  0.489999999495476  0.48999999944579  0.489999999399948  0.489999999359605  0.489999999327263  0.48999999930686  0.489999999304828  0.489999999331895  0.489999999405427  0.489999999547982  0.489999999801298  0.490000001432312  0.489999999634865  0.489999999115734  0.489999999580655  0.48999999961478  0.490000000926843  0.4900000006483  0.490000000361785  0.490000000229223  0.489999999506581  0.490000000241799  0.49000000354366  0.489999999554113  0.490000000244657  0.490000000222913  0.489999998294459  0.489999997213537  0.489999999708165  0.490000001844843  
0.489999995567339  0.490000002501765  0.490000002338362  0.490000002163454  0.490000000197156  0.490000002426895  0.490000002288513  0.489999999471468  0.489999999519609  0.489999998438133  0.490000000027069  0.489999999744183  0.490000000178395  0.490000000256497  0.49000000004638  0.480307313365303  0.480004411615543  0.490000000165698  0.489999999904188  0.490000000252279  0.490000001774319  0.489999999954132  0.489999999524473  0.489999999585222  0.490000000627126  0.49000000018548  0.489999999326023  0.490000000166716  0.489999999221635  0.489999999673478  0.490000001099021  0.490000000852417  0.490000000191293  0.490000000479993  0.489999999242404  0.490000000848059  0.48999999950476  0.489999998010752  0.489999999518741  0.489999999055353  0.489999998951985  0.490000000761455  0.490000000568758  0.490000001729045  0.489999999678672  0.49000000089708  0.490000000450737  0.490000000246664  0.490000000369826  0.490000001587397  0.49000000041619  0.489999997720083  0.489999999408169  0.490000000374856  0.49000000056541  0.490000001556779  0.489999999182508  0.489999999138328  0.490000000216788  0.490000000284346  0.490000000353385  0.490000000423569  0.490000000494574  0.490000000566103  0.490000000637881  0.489999999112901  0.489999999131353  0.489999999157316  0.489999999189503  0.489999999226926  0.489999999268822  0.489999999314598  0.48999999936379  0.490000000550218  0.490000000577047  0.490000000610074  0.490000000651984  0.490000000707086  0.490000000782607  0.490000000890419  0.49000000102679  0.490000000340384  0.489999999512573  0.490000000313949  0.490000001674215  0.489999999612822  0.489999998633987  0.490000000218047  0.490000000653554  0.489999999776533  0.490000001136114  0.490000000925832  0.490000001092019  0.490000001085987  0.49000000088718  0.49000000089051  0.490000000540843  0.490000000323574  0.490000000009456  0.489999999883902  
0.489999999998826  0.490000000008702  0.489999999992907  0.489999999991083  0.489999999981757  0.489999999973037  0.490000000021791  0.490000000027867  0.49000000015519  0.490000000240119  0.489999999990091  0.490000000108826  0.490000000041764  0.49000000004826  0.490000000314691  0.480246261859618  0.48999999826262  0.490000000035251  0.490000001925296  0.489999999932634  0.489999999632142  0.4899999997633  0.489999996938635  0.489999999630411  0.490000000344921  0.489999997557384  0.490000000578212  0.489999998745833  0.489999999559949  0.490000001220793  0.489999999008385  0.489999999920293  0.490000000913945  0.490000001011906  0.489999999978849  0.490000003495033  0.49000000014876  0.489999999696403  0.489999998993287  0.490000000085793  0.490000003410876  0.490000000252335  0.489999999812282  0.489999999186453  0.490000000058871  0.489999999701004  0.489999999344902  0.48999999991329  0.489999999580658  0.490000000889983  0.490000000320553  0.490000001030748  0.489999998581979  0.490000001586794  0.490000000380269  0.490000002790196  0.490000000629004  0.490000000004846  0.49000000246139  0.48999999987278  0.48999999916385  0.489999999102924  0.489999999721472  0.489999999711967  0.489999999703045  0.489999999694683  0.48999999968689  0.489999999679704  0.489999999673192  0.489999999667446  0.489999999662597  0.490000000024575  0.490000000012061  0.489999999997023  0.489999999979421  0.489999999959263  0.489999999936815  0.489999999913168  0.489999999891718  0.489999999881618  0.48999999990119  0.489999999987  0.489999999718455  0.490000000111781  0.489999999424332  0.489999999726497  0.490000000448457  0.489999998775823  0.489999999708499  0.48999999964702  0.490000000135269  0.490000000700326  0.490000000363636  0.490000000376147  0.490000000346527  0.489999997888592  0.490000000020076  0.490000000015872  0.489999999496235  0.489999999445026  
