DSAA
100   100
-99.25   -98.85
19.2   19.6
0.248260251503931   3.5237202239451
0.49  0.49  0.489999999978419  0.489999999975228  0.489999999615895  0.490000000131018  0.490000000735259  0.489999999198994  0.489999999691231  0.489999998991965  0.4900000001259  0.490000000011323  0.490000000538218  0.490000000332244  0.489999997944198  0.490000000274266  0.490000002063577  0.489999999387506  0.489999999295176  0.489999999656141  0.489999999864229  0.489999999896145  0.489999999743773  0.489999999961872  0.490000000923591  0.489999999320925  0.489999999973642  0.490000000327104  0.48999999878105  0.489999999491561  0.489999999934653  0.489999998959989  0.49000000009837  0.490000000905959  0.490000000626442  0.489999999014796  0.490000000207761  0.490000000507499  0.490000000836469  0.489999998099052  0.490000000063587  0.489999998996969  0.489999999841338  0.490000001394587  0.490000001001539  0.489999999604284  0.489999999378316  0.489999999574911  0.490000000471089  0.490000001435944  0.490000002452854  0.489999998720198  0.489999999565916  0.490000003375708  0.490000001062138  0.489999999526763  0.489999997003361  0.489999998814828  0.490000000442521  0.489999999319958  0.489999999242287  0.489999999188426  0.490000000012074  0.489999999129999  0.490000001354806  0.490000000456714  0.490000000851472  0.490000000347397  0.489999999388228  0.490000000075003  0.489999999577876  0.490000000656119  0.490000000520211  0.48999999892831  0.490000000458863  0.489999999568428  0.489999999996968  0.490000000142316  0.489999999849807  0.490000000597105  0.490000000120237  0.489999999642849  0.490000000041378  0.489999998235219  0.489999999325044  0.489999999994965  0.490000001288314  0.489999999563947  0.489999999967981  0.490000000177687  0.490000000470815  0.490000000654889  0.49000000044428  0.490000000395848  0.49000000018911  0.489999999186263  0.490000000108947  0.490000000072793  0.490000000078915  0.489999998918478  
0.490000000043762  0.490000000104087  0.490000000169665  0.490000000240272  0.48999999974651  0.489999999732998  0.490000000019816  0.489999998708784  0.489999999828338  0.490000000137996  0.490000000260157  0.489999999519601  0.490000001458888  0.489999998570985  0.490000000377738  0.490000000155104  0.49000000004678  0.489999999521568  0.490000000322823  0.489999997966944  0.489999999781183  0.490000000391919  0.490000000241387  0.490000000127865  0.489999999855082  0.489999999638185  0.490000000090779  0.489999999976153  0.490000001388249  0.489999998880994  0.490000000276252  0.490000000955665  0.489999998041331  0.490000001000485  0.489999998854802  0.490000001474695  0.489999999942078  0.490000000059494  0.489999999947566  0.489999999991804  0.489999999848015  0.489999999765199  0.490000000441949  0.490000000387677  0.49000000014162  0.489999999927924  0.490000000479905  0.490000000072301  0.489999999671278  0.489999998568357  0.490000001314809  0.49000000093454  0.489999998896177  0.490000000400582  0.490000000324777  0.490000000159721  0.48999999883361  0.489999999318031  0.489999999671162  0.48999999998556  0.489999999905738  0.489999999727112  0.489999999273528  0.489999999176205  0.489999999713039  0.49000000073758  0.48999999977095  0.489999999938703  0.490000000247421  0.48999999914979  0.489999999762879  0.490000000876842  0.489999999971413  0.490000000344097  0.49000000121736  0.48999999947114  0.489999999615207  0.489999998425735  0.490000000653612  0.490000000440532  0.489999999932843  0.489999999228526  0.490000000837499  0.48999999927935  0.489999999185049  0.490000000623441  0.489999999741137  0.49000000032242  0.489999999433161  0.489999999488245  0.490000001104114  0.48999999944899  0.490000000320169  0.490000000095197  0.489999995245837  0.490000001032336  0.490000000060165  0.489999999795349  0.490000000601302  0.490000000751608  
0.4900000003505  0.489999999969215  0.489999999310788  0.489999999544866  0.490000000080145  0.489999999396455  0.489999999949875  0.490000001253404  0.490000001116437  0.490000001029717  0.489999999582269  0.490000000013414  0.490000000025791  0.490000000650549  0.489999998119938  0.490000000008907  0.489999999878818  0.490000000803409  0.490000000033068  0.490000000735606  0.489999999069623  0.490000001998596  0.490000000132418  0.489999999693194  0.489999999044686  0.490000001519923  0.489999999362328  0.490000000218121  0.489999998855714  0.489999999643242  0.489999999952095  0.489999998406978  0.490000000306963  0.489999998104978  0.489999999911257  0.490000000731324  0.489999999974183  0.490000000235317  0.490000000851307  0.490000000299448  0.489999999956621  0.489999999206985  0.490000000286131  0.490000000462862  0.489999997794337  0.489999998709128  0.490000000226111  0.489999999101585  0.489999998635148  0.489999999502947  0.490000000232033  0.489999999513698  0.490000001773017  0.489999999492062  0.489999999617072  0.489999999175532  0.48999999811546  0.490000000835826  0.489999999841726  0.490000000645371  0.490000000260777  0.489999999486753  0.490000000878046  0.490000000038817  0.489999999922248  0.489999999426602  0.490000001263201  0.490000000105281  0.489999999294919  0.490000001262877  0.489999998167403  0.489999999411837  0.489999998746725  0.490000001089528  0.490000001344441  0.49000000114979  0.489999998962324  0.489999999327805  0.489999999217748  0.490000000555164  0.489999999895338  0.490000000008412  0.490000000117422  0.489999999080604  0.490000000775214  0.490000000548338  0.490000000354865  0.490000001477292  0.489999998865213  0.490000000882025  0.490000000573699  0.490000000352903  0.489999999231398  0.489999999752062  0.489999999959859  0.49000000036917  0.489999998954501  0.490000000084069  0.490000000266467  0.49000000215461  
0.4899999997266  0.490000000450748  0.490000000298688  0.490000000046718  0.490000000098031  0.490000000118812  0.489999999308189  0.489999999238812  0.490000000321556  0.490000000544263  0.49000000063206  0.490000000182076  0.48999999874989  0.48999999897337  0.490000001846639  0.489999999611891  0.489999999969381  0.489999999920189  0.490000002738686  0.489999999957847  0.489999999923106  0.490000001279726  0.48999999947212  0.490000000939773  0.490000002382461  0.490000000644883  0.490000000484936  0.490000000380148  0.490000000600295  0.490000000408883  0.490000000012311  0.489999998953625  0.490000001570608  0.490000000481713  0.489999999247458  0.490000000955499  0.490000000201561  0.490000000362403  0.490000001122435  0.490000000741761  0.489999999897004  0.489999998117069  0.490000001293734  0.489999999569634  0.489999999814487  0.490000000494555  0.489999999778192  0.490000001400009  0.489999999909907  0.490000001066967  0.49000000094658  0.490000001286355  0.490000000599202  0.490000000923791  0.490000001209798  0.489999999361843  0.490000001008453  0.490000001613277  0.490000000450399  0.490000001018812  0.489999999635989  0.489999999681975  0.490000001110174  0.48999999938386  0.489999999853316  0.490206715601859  0.49011439621959  0.490032505704307  0.492324918352687  0.489999998031303  0.48999999846054  0.490000000250854  0.490000001194445  0.490000000382166  0.489999999730713  0.49000000023065  0.489999999280101  0.489999999869021  0.48999999955621  0.490000000063658  0.490000000138717  0.490000000618927  0.48999999977438  0.489999999974619  0.489999999841997  0.48999999923448  0.490000000288148  0.490000000404819  0.489999999391843  0.489999998564657  0.490000000283572  0.489999999995526  0.490000000275269  0.489999998859501  0.489999999850505  0.489999999402128  0.489999999608881  0.489999998993307  0.490000000894165  0.4900000008646  
0.490000000221039  0.489999999992173  0.489999998699911  0.489999998686697  0.4899999991877  0.489999999149244  0.489999999110281  0.489999998389129  0.489999998348834  0.489999999240027  0.489999999173827  0.490000000833812  0.489999999617207  0.490000001717875  0.489999998787625  0.489999995815007  0.490000001651693  0.490000000442105  0.490000000430594  0.490000000867634  0.489999999393692  0.490000001091082  0.490000000033098  0.490000000306857  0.489999999815546  0.489999999381904  0.4899999993476  0.490000000883995  0.48999999972922  0.490000000207511  0.490000000260737  0.489999999623197  0.489999999983439  0.489999999714312  0.490000000026387  0.490000001742436  0.489999999359345  0.48999999998946  0.490000000073444  0.489999999838011  0.490000000141172  0.489999999923169  0.489999998857354  0.490000000603327  0.489999999660546  0.490000000077784  0.49000000112669  0.489999999482967  0.489999999337949  0.490000000240504  0.490000001344222  0.490000001009533  0.489999999972336  0.490000000246783  0.489999998700526  0.489999999995937  0.489999998626098  0.489999999742958  0.489999999719082  0.489999999649735  0.4900000020975  0.490000000123152  0.490000001041617  0.49000000159955  0.490275356960023  0.490088690044591  0.490036197447101  0.489964613296124  0.497850093147496  0.502021135647218  0.490000000194213  0.490000000213363  0.490000000747005  0.49000000023067  0.489999999868294  0.489999999923733  0.489999999944727  0.489999999732487  0.49000000020735  0.490000000012042  0.490000000141748  0.490000000263  0.49000000008598  0.49000000094388  0.490000000087986  0.489999999675971  0.490000001098382  0.489999999273789  0.490000000356658  0.490000001291753  0.490000000997006  0.490000000565425  0.48999999897856  0.489999998928764  0.489999998924205  0.490000000379234  0.489999999469133  0.490000000234333  0.490000000444575  0.490000000390669  
0.489999999074594  0.490000000772677  0.49000000018444  0.490000000157265  0.490000000127792  0.490000000896563  0.490000000909925  0.4900000009243  0.489999999988763  0.489999999937379  0.489999999311488  0.489999999060363  0.490000000900196  0.489999999466344  0.490000001988085  0.489999997161179  0.489999998606042  0.489999999697349  0.49000000131326  0.490000000968922  0.490000000226573  0.489999999329483  0.489999999748169  0.490000000208682  0.489999999904544  0.489999999656211  0.489999998660032  0.489999999422275  0.490000000010747  0.489999998659347  0.489999999095513  0.490000000164435  0.490000000098436  0.49000000050623  0.490000000572272  0.490000000530091  0.489999999214408  0.490000000373109  0.490000000071692  0.48999999964615  0.489999999466406  0.490000002241319  0.490000001226287  0.490000000868651  0.490000000147766  0.489999999536842  0.489999999884679  0.489999998726036  0.490000000286638  0.489999998706936  0.490000000398881  0.49000000036825  0.490000000940434  0.490000000017659  0.490000000088853  0.489999998858268  0.490000000652162  0.490000000301902  0.490000000018178  0.48999999978939  0.489999999807441  0.490759997785968  0.490586850061269  0.490397416416105  0.490187544999296  0.48998713549743  0.489921891445531  0.489851370667995  0.505047529445947  0.510505853006578  0.51803686740206  0.520784958509373  0.48999999983963  0.490000000428391  0.490000000047485  0.490000000340932  0.490000000173491  0.489999999509984  0.489999999504253  0.489999999914204  0.490000000225692  0.490000000414282  0.489999999678023  0.489999999763705  0.490000000373327  0.489999999369397  0.489999999566384  0.489999999440512  0.4899999974876  0.489999999562185  0.489999999587811  0.489999999581845  0.490000001240074  0.490000000260032  0.490000000100483  0.489999999739026  0.490000001288378  0.490000000470737  0.490000000443947  0.489999999888119  
0.490000000216945  0.489999998605707  0.489999998569987  0.489999998532537  0.490000000732413  0.490000000765007  0.489999999680525  0.489999999675234  0.489999999669858  0.489999998357605  0.490000002183134  0.489999999642851  0.489999999145081  0.489999999795157  0.489999999394524  0.490000000054735  0.490000000442187  0.489999999867962  0.489999999704103  0.489999997654455  0.490000000373663  0.489999999419376  0.490000000718626  0.490000000059424  0.489999999640489  0.489999999440108  0.490000000253523  0.489999999117382  0.490000000661854  0.489999999822885  0.490000000068994  0.490000000657734  0.490000001353086  0.490000000181444  0.48999999997517  0.490000000539835  0.48999999980966  0.489999999687492  0.48999999930714  0.489999999818069  0.489999999554877  0.489999998972769  0.490000000098237  0.490000000693628  0.48999999974083  0.489999999290541  0.489999999582437  0.489999999696401  0.489999999771457  0.490000000069795  0.49000000063018  0.489999999026162  0.490000000859735  0.489999999960202  0.490000000762227  0.489999999634391  0.489999998814988  0.489999999222669  0.489999999736658  0.489999999412116  0.490834443903718  0.490698121902058  0.490517947160546  0.490330481252264  0.490141740474884  0.489972508609431  0.489808408059678  0.489676293881097  0.513702644250309  0.520395393044627  0.537379378250801  0.534196888872456  0.489999999919619  0.490000000474832  0.490000000659795  0.490000000445936  0.490000000206537  0.490000000072762  0.490000000289732  0.489999999916083  0.489999999842889  0.490000000392266  0.48999999928581  0.490000000544262  0.489999999101773  0.490000000516816  0.489999999463966  0.48999999927518  0.490000002021253  0.490000001242683  0.490000000018636  0.489999998578129  0.490000000546351  0.490000000431235  0.49000000037641  0.490000000256883  0.490000000187924  0.490000000120727  0.490000001097525  0.489999999532266  
0.49000000010334  0.490000001328249  0.49000000135796  0.490000001389207  0.490000001421682  0.490000000408091  0.490000000412722  0.490000001598091  0.490000001601268  0.490000000049346  0.490000000096836  0.490000000352946  0.489999999888214  0.489999999472693  0.489999999493551  0.489999999834544  0.489999999903223  0.489999998839614  0.48999999901143  0.490000001754822  0.490000005317521  0.489999999703742  0.48999999986086  0.490000000540599  0.49000000008732  0.489999999893047  0.490000001977049  0.489999999338936  0.490000000152799  0.490000000914351  0.490000000040136  0.489999999687433  0.490000000063775  0.489999999918688  0.48999999975634  0.490000000375051  0.490000000247551  0.490000000683482  0.490000000035592  0.490000000294326  0.489999998808591  0.490000000446935  0.490000001845367  0.490000000008396  0.490000000455221  0.490000000621317  0.489999999986041  0.489999999940137  0.490000000366497  0.489999999628676  0.489999998913206  0.489999999331446  0.490000000049836  0.48999999960707  0.490000001360789  0.490000000415794  0.490000000908323  0.490000000118589  0.490000000341048  0.490893173988553  0.490767631584516  0.490615611964187  0.490425857952782  0.490230905675109  0.490045296857961  0.489837033308679  0.489643527978436  0.489482830640657  0.530263890137743  0.539616049908312  0.554729411961084  0.549231341117743  0.490000000648576  0.49000000123824  0.48999999942742  0.490000000434827  0.490000000962663  0.49000000017943  0.555335699455182  0.552168961171925  0.548025494232222  0.489999999253124  0.490000000934254  0.490000000487431  0.489999999228243  0.489999999652381  0.490000000052775  0.490000000227792  0.490000000862268  0.489999997429733  0.490000000607223  0.490000000425917  0.489999999442208  0.490000000732295  0.490000000669881  0.490000000721086  0.490000000805133  0.490000000885618  0.490000000949674  0.490000000995308  
0.490000000202369  0.490000000728863  0.489999999922307  0.489999998132133  0.489999998207978  0.489999998287908  0.489999998371744  0.490000000773484  0.490000000839505  0.489999999914704  0.490000001351906  0.490000000511165  0.490000000508505  0.489999999766812  0.489999998951906  0.49000000028912  0.489999999357274  0.490000001318532  0.490000000188958  0.490000000854731  0.489999997269613  0.4899999995397  0.490000000277157  0.49000000139374  0.489999999681743  0.48999999971134  0.490000000161983  0.490000001416701  0.489999999799334  0.490000000303854  0.489999999086913  0.48999999997751  0.489999999544876  0.489999999125202  0.489999999950289  0.490000001152339  0.489999999753784  0.489999999428963  0.490000000521594  0.490000000009421  0.489999999553284  0.489999999160073  0.489999999900844  0.49000000047174  0.489999999855025  0.490000000132729  0.49000000018811  0.48999999950216  0.490000000317983  0.490000000785083  0.489999999849405  0.490000000173526  0.49000000023191  0.490000000377845  0.489999999259418  0.489999999589163  0.490000000120378  0.490968662159198  0.490901451389777  0.49081572680113  0.490683014226367  0.490502705060249  0.49029038814222  0.490068592231891  0.48983436485458  0.489606797935432  0.489413914419613  0.489250532491814  0.542493138522508  0.553021168865089  0.579505537081999  0.564435217965791  0.489999999612913  0.490000000948581  0.490000001292009  0.574084388428347  0.553420150551576  0.553202835374711  0.552053107403279  0.550093439620328  0.53784924103805  0.490000000114069  0.490000000592851  0.490000000573641  0.489999999779414  0.490000000058621  0.489999999536504  0.489999999631382  0.489999999742056  0.490000000865638  0.490000000411767  0.489999998580646  0.49000000129064  0.490000001724567  0.490000001782021  0.490000001829346  0.490000001854211  0.490000001855272  0.489999999209256  0.489999999138095  
0.490000002541323  0.490000000940319  0.489999999535989  0.490000000099253  0.490000000345952  0.490000000451033  0.490000000563107  0.490000000682627  0.490000000271289  0.490000000291418  0.490000000120854  0.490000000893971  0.490000000135796  0.489999998674199  0.490000001139461  0.489999998587956  0.48999999926567  0.490000000569956  0.490000001632452  0.489999999555715  0.489999998098735  0.49000000096142  0.490000000410697  0.490000001181021  0.490000000184482  0.490000000364328  0.490000001894642  0.489999999260629  0.490000001307961  0.490000000852576  0.489999999937727  0.489999999307256  0.490000000231892  0.490000000268008  0.489999998918184  0.490000000227147  0.489999999405347  0.489999999375079  0.490000001245698  0.490000000261359  0.489999999974188  0.489999999535437  0.49000000090328  0.489999999787484  0.489999999890475  0.49000000001134  0.489999999606361  0.489999999314818  0.489999999460638  0.489999999586199  0.490000000459896  0.489999999366698  0.490000000092529  0.489999999601671  0.490000000634082  0.490000000130002  0.490926587596131  0.490887738359115  0.490816227355076  0.490740680413677  0.490573602336589  0.490358582139913  0.490109027094026  0.489851403391591  0.489560018992241  0.489317966134313  0.489134991704977  0.488971749151955  0.555469447901841  0.567771390275987  0.59971550555309  0.568265722945343  0.48885885709847  0.488491458534684  0.488505197966435  0.564276082032688  0.565568236041697  0.565159788582364  0.563824352593162  0.581821409384579  0.547158933843525  0.490000000957286  0.489999998982901  0.489999998283987  0.489999999957551  0.490000000371025  0.489999999890254  0.489999999469727  0.489999999135262  0.490000000333339  0.489999999514139  0.489999999235471  0.489999999183419  0.490000000031564  0.490000000123922  0.490000000167908  0.490000000189111  0.490000000197219  0.490000000197163  0.490000000191939  
0.490000000643018  0.49000000007859  0.490000000079561  0.49000000008042  0.490000000104581  0.489999998718325  0.489999999593594  0.489999999567348  0.489999999540543  0.489999999329598  0.48999999961602  0.489999999315672  0.490000000363053  0.490000000823748  0.489999999747451  0.490000001114595  0.48999999857546  0.489999999254744  0.489999999394774  0.489999999657961  0.48999999986131  0.490000000682179  0.490000000040532  0.489999998879528  0.490000000413876  0.490000000035505  0.489999999444598  0.490000001429245  0.489999999926912  0.489999998085605  0.490000000399644  0.490000000127771  0.490000000116092  0.490000000711524  0.489999999981468  0.490000000456052  0.489999999694956  0.489999999686972  0.489999999830947  0.490000000138613  0.490000000387922  0.490000000985688  0.489999999607656  0.489999999652446  0.489999998477005  0.489999999247531  0.489999999293451  0.490000000398123  0.490000000453223  0.489999999376427  0.490000000326086  0.490000000904469  0.490000000821146  0.489999999697601  0.490000000280681  0.489999999735702  0.490853835890634  0.490808131755957  0.490714451958879  0.490613372573882  0.490412326716907  0.49016220439318  0.489877140545116  0.489546935334352  0.489222592177848  0.488975541064536  0.488807604626409  0.488645773749565  0.56996750077476  0.579873547344483  0.601733363337287  0.543082687759381  0.488636889421555  0.488666548459962  0.488729217102773  0.577303052191744  0.57887317644207  0.57809833679721  0.601600176389826  0.578185721014244  0.557297617481171  0.489999999741821  0.489999999667893  0.490000000206266  0.490000000662392  0.489999999344923  0.490000000222084  0.489999999604269  0.489999999597066  0.490000000727238  0.489999999562124  0.489999999729618  0.48999999996693  0.490000000430588  0.490000000631754  0.490000000721995  0.490000000762275  0.490000000778567  0.490000000782748  0.490000000780622  
0.490000000147175  0.48999999985428  0.489999998850944  0.489999998877984  0.489999998907955  0.489999998941349  0.489999999649503  0.490000000750677  0.490000001889174  0.490000001929579  0.490000000018241  0.489999998445614  0.490000000193305  0.489999999352904  0.489999999551881  0.490000001327529  0.489999999160329  0.490000000157419  0.489999998547539  0.489999999855904  0.490000000677729  0.490000001765613  0.489999999825459  0.490000003134844  0.489999999406851  0.49000000019807  0.490000000437648  0.489999999665354  0.490000000325013  0.489999999199734  0.489999999454689  0.490000000196831  0.490000002028204  0.489999998125712  0.490000000070266  0.489999999277566  0.489999999888264  0.489999999955819  0.490000000800243  0.489999998527869  0.49000000025836  0.490000000398403  0.489999999877551  0.490000000021326  0.489999999600148  0.489999998876134  0.490000000861147  0.489999999444068  0.49000000076636  0.489999999630583  0.490000000018726  0.489999999768892  0.489999999759361  0.489999999663712  0.489999999620014  0.490705551821607  0.49070560478621  0.49064938891946  0.490543938003869  0.490397315761516  0.490192699626972  0.489887647490323  0.489521343241488  0.489165811984071  0.488826498491286  0.488577759515518  0.488425663201525  0.488292149266112  0.580915881831973  0.595550010500248  0.621802251946154  0.553061497035947  0.488429031284526  0.488494403391731  0.562590794529059  0.562386031215577  0.561598437852955  0.58848212949244  0.589773637709041  0.595216528093644  0.583527525466948  0.489999999755063  0.490000000196312  0.489999999943861  0.489999999284193  0.490000000406631  0.490000000025344  0.490000000727143  0.489999999765919  0.489999999611283  0.490000000584794  0.490000002351473  0.490000000190236  0.489999999754017  0.489999999836675  0.489999999861161  0.489999999875752  0.489999999887493  0.489999999897923  0.489999999907463  
0.489999999885499  0.490000000176998  0.490000000189359  0.490000000640222  0.48999999981417  0.489999999788463  0.489999999760814  0.489999999731044  0.490000000442814  0.489999999382181  0.489999999976226  0.489999999547458  0.490000001050788  0.490000000745827  0.490000001017446  0.490000000889316  0.489999999934426  0.489999999447088  0.490000002307394  0.489999999258374  0.490000000547017  0.489999999955112  0.489999999473103  0.48999999834465  0.490000000498502  0.490000001101669  0.490000001594679  0.490000000798044  0.490000001072819  0.490000000153383  0.489999998998381  0.48999999888216  0.490000000725252  0.490000000328784  0.489999999569173  0.490000000782103  0.490000000891929  0.489999998679678  0.489999999354052  0.490000000115463  0.489999999563308  0.49000000052545  0.490000001231644  0.489999999882507  0.490000000684401  0.490000001016641  0.489999999651057  0.489999999927979  0.489929892158352  0.48995787268631  0.490000000222799  0.490000000124444  0.490000000190353  0.489999999899815  0.490000000112362  0.490508029286019  0.490498650426865  0.490426342949518  0.490299249596827  0.490099576937951  0.489813846939186  0.489462347523669  0.489072503786369  0.488704064508076  0.488365613228509  0.488125493039604  0.487780667958975  0.487550922087926  0.595331832998869  0.612257489624122  0.642611058999454  0.564915942116962  0.488170543461793  0.488255714225499  0.574011115618874  0.574362034856903  0.57292077003256  0.612685471839567  0.606284938787815  0.607293080844995  0.592441000868109  0.489999999992856  0.490000000309175  0.490000000190375  0.489999999858276  0.489999999519241  0.490000000168277  0.490000001750192  0.489999999590297  0.489999999171749  0.490000000718173  0.489999999665087  0.490000002793964  0.490000001332475  0.490000000807585  0.490000000436149  0.490000000155283  0.489999999939105  0.489999999769517  0.489999999633579  
0.489999999992408  0.49000000038018  0.489999999911404  0.490000000835305  0.490000000874913  0.490000000916078  0.489999999314111  0.490000000910813  0.490000000988411  0.490000001588982  0.490000000421359  0.490000000068565  0.490000001069703  0.490000000798485  0.490000001187771  0.490000000449763  0.490000000426725  0.490000000035771  0.490000001444983  0.489999998577718  0.489999999544128  0.490000000376597  0.49000000064411  0.490000000302634  0.490000001546584  0.490000001358447  0.489999997623054  0.489999999012078  0.489999999434174  0.490000000889277  0.489999999765659  0.489999998792167  0.487555069523962  0.489285816140461  0.490207273154157  0.492951999989642  0.489693023925662  0.48957370295808  0.489468576182679  0.489380651674122  0.489307050065761  0.489205333264989  0.489388482319727  0.490000000144299  0.4900000001945  0.490000000506629  0.489999998492916  0.489793262191818  0.489665684680173  0.489661533410353  0.489764187441453  0.48990906524263  0.490010133527678  0.490055348654004  0.490201555942325  0.490312956604406  0.490224262114134  0.490089291666001  0.489908966218365  0.489624560841385  0.489263949098148  0.488914816727085  0.488530405025501  0.488167195524453  0.487820525801756  0.487523175587989  0.487270749355093  0.487049483090628  0.609835307899513  0.630715353788745  0.66612783745269  0.577655269683407  0.487945569317096  0.585780823069965  0.58697420271509  0.586758019230102  0.634601707488622  0.627970019139562  0.62219854260035  0.618966729460609  0.602563040192881  0.490000000019302  0.490000000745618  0.489999999920291  0.490000000751582  0.489999999987145  0.490000001780903  0.489999999849467  0.489999999931843  0.490000001157039  0.489999999615529  0.490000000573643  0.489999999635943  0.489999999783532  0.489999999543628  0.48999999955822  0.489999999617824  0.489999999682042  0.489999999742536  0.4899999997977  
0.489999999541185  0.489999999459955  0.48999999969918  0.489999999684177  0.490000000563119  0.490000000491402  0.490000000187249  0.490000000213974  0.489999999960248  0.489999999080648  0.490000000177997  0.489999999611448  0.48999999986453  0.490000000217996  0.490000000347268  0.49000000128098  0.49000000164761  0.489999999755506  0.490000000220399  0.489999998269806  0.490000002042827  0.490000000709207  0.489999998001299  0.490000001267107  0.489999999795566  0.490000002816407  0.490000001649349  0.489999999359348  0.490000000643549  0.490000000040378  0.489999998967857  0.49000000020412  0.489621179291128  0.492363601860576  0.496627024347467  0.497946460275399  0.489491860475089  0.489294868936178  0.489105151698561  0.488954972985282  0.488810011583283  0.489064236429517  0.489129309350874  0.489128421885687  0.489155958363001  0.489205161955504  0.48923988562476  0.489175688534876  0.489137930162956  0.489128795361821  0.489219997303551  0.489308968089657  0.489447453662261  0.489627430929305  0.489912315891308  0.489893664398872  0.489722246277096  0.489507388682302  0.489254104330631  0.488969727716572  0.488571749617441  0.488221355880746  0.487876481471553  0.487571563672827  0.487256046422875  0.487024956646458  0.486806398291998  0.486614578606208  0.625508935354457  0.646490719178954  0.687408724029128  0.59180142472001  0.487644724952655  0.600687903946436  0.602125663974108  0.640534616238885  0.648748476358296  0.644592824805879  0.636556885506087  0.630266618002858  0.612190922368149  0.49000000005846  0.489999999948359  0.490000001835746  0.49000000033737  0.490000000551743  0.489999999552711  0.489999999626422  0.490000000924412  0.48999999882069  0.489999999008762  0.489999999541555  0.489999998716089  0.490000000748259  0.490000000934053  0.490000001050613  0.490000001124679  0.490000001163457  0.490000001172719  0.490000001158463  
0.490000000182666  0.490000000134934  0.490000000142855  0.490000000151202  0.490000000159993  0.490000000169245  0.489999999975048  0.490000000515633  0.490000000512046  0.490000000911644  0.490000000770835  0.489999999635697  0.490000002148098  0.490000000425203  0.489999999338606  0.489999999358246  0.490000001929603  0.490000000134902  0.4900000006062  0.489999999518516  0.489999996901501  0.489999996975294  0.489999999877843  0.4899999974326  0.489999999153061  0.490000003221265  0.490000000572629  0.489999998097136  0.490000000478917  0.489999999607825  0.489999999573245  0.489711554511935  0.491119084883769  0.497964993948042  0.506318805859313  0.511669111182745  0.489204444335585  0.488963086669089  0.488723809992902  0.488557837317371  0.488361275718025  0.48872798050938  0.488661877686372  0.48860114007112  0.488567535716917  0.488513453221443  0.488514591451711  0.488440955286607  0.488465901083556  0.488448728549577  0.488526680547525  0.488640992886504  0.48873574061095  0.488964616335483  0.48907083605296  0.489070884654175  0.488933097507665  0.488721624986142  0.488470363912255  0.488218779790223  0.487814520525088  0.487487147955429  0.487167597287758  0.486892923501081  0.486584377481492  0.486368927237993  0.486184393449174  0.486019948172541  0.637396696640496  0.661629266171678  0.70829013884034  0.607513082638425  0.4873216130222  0.617855756933692  0.618615204188342  0.670879560886799  0.663425230261095  0.663374480594372  0.651324550378524  0.640033829909614  0.48999999836155  0.490000000913819  0.489999998276278  0.490000000743425  0.489999999949751  0.490000000379301  0.490000001745056  0.490000000571747  0.490000001768032  0.49000000092586  0.490000000649406  0.489999998863043  0.490000000089862  0.489999999318474  0.490000000162297  0.49000000065844  0.490000000938753  0.490000001091878  0.490000001171111  0.490000001208004  
0.490000001025726  0.490000000265506  0.490000000286589  0.490000000308884  0.490000000332467  0.490000000357418  0.49000000038383  0.490000000411801  0.490000000441442  0.49000000197682  0.490000000071196  0.489999999601004  0.489999999534868  0.49000000225534  0.489999999332599  0.490000000818106  0.489999999778012  0.490000000744677  0.490000000154422  0.490000003245961  0.489999999801737  0.489999999765432  0.489999998593125  0.489999998364763  0.490000001687057  0.489999999861263  0.489999999374409  0.49000000016163  0.489999997946246  0.454519148299975  0.480236892433591  0.490197608613775  0.493636651460071  0.507520687280441  0.611609597902823  0.630258692207574  0.632565954268385  0.633192909962081  0.629847633244107  0.619410218747041  0.606510957945367  0.594688505894264  0.584869533209054  0.553914068372279  0.538183185408772  0.521601478452395  0.487706622494149  0.487634762787387  0.487687694235973  0.487663175919879  0.487739949489048  0.487843214064248  0.487982765715472  0.488127962822622  0.488120167166348  0.488108545881515  0.488007246849806  0.487824608090152  0.487597614466027  0.487392955740962  0.487005716824022  0.486692385083677  0.486400418053851  0.486162759800638  0.485874011034518  0.485678838320586  0.485526302990877  0.485394334778408  0.648266062456492  0.67600501236823  0.729965675897752  0.675303049573737  0.633037461993635  0.637152587905523  0.694194699666485  0.690721260725963  0.683626786138051  0.673669282349344  0.665350571823098  0.648951050491252  0.490000000658192  0.489999999783001  0.490000001004285  0.490000000207779  0.489999999312398  0.490000001204431  0.490000000040388  0.489999999635052  0.489999999932052  0.489999999762431  0.489999999748484  0.490000000022102  0.49000000092981  0.490000000924659  0.490000000727371  0.490000000599515  0.490000000504564  0.490000000439315  0.490000000399806  0.490000000380663  
0.489999998254416  0.489999999985774  0.490000000014914  0.49000000004517  0.490000000076511  0.490000000108894  0.490000000142263  0.490000000176548  0.490000000211657  0.490000000097204  0.489999999971382  0.489999999568354  0.490000000029719  0.490000001223233  0.490000000104766  0.490000000142654  0.489999998257167  0.49000000040734  0.489999999552382  0.49000000302474  0.489999999609488  0.490000001226137  0.490000000531464  0.489999999832762  0.490000000872634  0.490000000298986  0.489999999384977  0.489999998708598  0.442511169234689  0.480677087164061  0.500528393181848  0.557780501212876  0.619293949280166  0.68019805005078  0.716973747012221  0.736655564841391  0.702033626531977  0.707085520990343  0.694200500767951  0.696002840127959  0.671843600168921  0.649582119342922  0.626654913749732  0.58789358100769  0.558019867553405  0.546525056263818  0.486687872971514  0.486813259748071  0.486844151667707  0.48679674964957  0.486907998227732  0.486966885757644  0.487078236609072  0.487216309058423  0.48712589665999  0.487104444443629  0.4870207524159  0.486864480650235  0.486670602686876  0.486518139864951  0.48625805501892  0.485856698715595  0.485591919192655  0.485383004073089  0.485126398045981  0.484963651234244  0.484837924673602  0.484737416112505  0.658003197581656  0.689733091941265  0.751559128445119  0.710942811038494  0.654284720979902  0.701710128839169  0.71528514367975  0.7094978840432  0.702721022370937  0.69008445841391  0.679450697344274  0.656949263258107  0.489999998803595  0.490000000677407  0.489999998769241  0.49000000003493  0.490000000765591  0.490000000305271  0.489999999699659  0.48999999962045  0.489999999890624  0.490000000335773  0.490000000100095  0.490000000389617  0.490000001590447  0.490000000621874  0.490000001019714  0.490000001344006  0.490000001582716  0.490000001750648  0.490000001866095  0.490000001944972  
0.490000001596917  0.489999999513084  0.489999999945216  0.489999999928747  0.489999999911796  0.489999999894404  0.48999999987662  0.489999999858502  0.48999999984012  0.490000002247199  0.490000002628731  0.490000004536593  0.490000002012497  0.489999999840276  0.489999999915648  0.490000000509961  0.490000000774622  0.490000000016176  0.489999999557578  0.489999999748767  0.489999998324112  0.489999998288205  0.490000000891891  0.489999999527116  0.490000000916595  0.490000001088178  0.405251599043673  0.419722188257773  0.454997158666995  0.5003526382941  0.59243490861853  0.703918421525466  0.782648862349705  0.818347079479647  0.831487692080444  0.830235360675335  0.775013783382041  0.7740482137243  0.748547827403885  0.724478472267764  0.70904985569385  0.679687432014739  0.625683040736231  0.596337079917215  0.565740115406711  0.485845453591757  0.485852237021927  0.485956627125319  0.485959840950077  0.485942912759521  0.486010781531634  0.486029022043221  0.486129333296274  0.486267074814635  0.486126488284608  0.486096689323539  0.48600592634978  0.485884935106342  0.485697667406438  0.485619786114771  0.485381368861523  0.484991233222576  0.48475211123358  0.484581848558085  0.484348364070526  0.484237650241646  0.484140841898493  0.484078187771914  0.665952554829627  0.702435855965719  0.773531433996834  0.734585367796028  0.694470353363322  0.741148665337996  0.740184162516958  0.735670775084178  0.722525519984401  0.706892719740407  0.675736560108065  0.663329165349384  0.490000000641625  0.489999998821734  0.489999998604264  0.49000000124267  0.489999999596351  0.489999999582694  0.489999999914703  0.490000001173668  0.490000000776363  0.490000000566849  0.489999999550885  0.48999999950177  0.489999998407162  0.489999998594811  0.489999999586511  0.490000000277892  0.49000000072558  0.490000001008466  0.490000001187794  0.490000001304159  
0.48999999990155  0.489999999882831  0.490000002059795  0.490000002081262  0.490000000132026  0.490000000149711  0.490000000168137  0.490000000187346  0.490000000207398  0.490000000243096  0.489999999283885  0.489999999776324  0.49000000058281  0.489999996844175  0.490000000201365  0.49000000155515  0.490000001036606  0.49000000210163  0.490000001815937  0.490000001939555  0.489999999770867  0.489999995616863  0.489999998806354  0.489999999707436  0.49000000126212  0.490000001872479  0.433834048259422  0.43790274798939  0.453591429495874  0.541459463232116  0.745231941395278  0.903217084931222  0.964924337492428  0.965705019056444  0.941200932091596  0.918036641375056  0.887817048605818  0.82988048607724  0.792834594612177  0.765746922219811  0.718729432266539  0.694138481207281  0.637980989163592  0.549194003255374  0.4852241730124  0.485024894022305  0.485041063141331  0.485070525533365  0.485055841784116  0.485008255775182  0.485079034750534  0.485083254275361  0.485140325783508  0.485296357009088  0.485106618653046  0.485073061387752  0.484993072825903  0.48489345631753  0.484743009496036  0.484687300891908  0.484478787559965  0.484107934653896  0.483886780593339  0.483757468540829  0.483550650435613  0.48347701577772  0.483444033640533  0.483413760889339  0.671998044862205  0.714208908496376  0.796273791696286  0.761558123722202  0.782400221137997  0.768787239956747  0.766717742203308  0.759883316629179  0.742929377024218  0.723569753800803  0.683386248368581  0.489999999949861  0.490000000189806  0.490000000661468  0.490000001075255  0.490000000467021  0.489999998520915  0.489999999747057  0.490000000509715  0.489999999342038  0.489999999801391  0.490000000265848  0.490000000214935  0.490000001275951  0.490000000641354  0.489999999429644  0.489999999974627  0.490000000355682  0.490000000617891  0.490000000802693  0.490000000939695  0.490000001046789  
0.490000000870744  0.489999999471002  0.490000000070703  0.490000000108012  0.489999998840994  0.489999998800726  0.490000000147291  0.490000000232338  0.490000000266347  0.490000000384354  0.490000001759185  0.49000000117701  0.489999999169022  0.489999999265216  0.490000000004677  0.49000000033576  0.489999998557696  0.490000000159724  0.490000000611451  0.490000001158449  0.490000000331709  0.490000000375569  0.48999999963788  0.489999996031303  0.490000001691458  0.490000000863825  0.463537333725266  0.477063316801631  0.519099177861018  0.675557578372351  0.951184128763031  1.15889374760126  1.15568189573098  1.09821435146715  1.03792305267919  0.986336624480504  0.938774063219146  0.887763716480191  0.8309213982281  0.729210510016382  0.687364984312665  0.662087224229684  0.57157381397188  0.484605550437766  0.484448725767389  0.484211993781974  0.484207372646358  0.484181362791522  0.484134492120728  0.484041302846434  0.484091347741317  0.484085786095403  0.48414402567437  0.484312542169384  0.484098203308159  0.484052421961354  0.483979220167655  0.483904337624949  0.483773273989909  0.4837510244684  0.483553258527709  0.483237557488247  0.48301480039012  0.482913410154814  0.482738248216017  0.482725183657839  0.482729728475751  0.482745340596189  0.482715161389779  0.724125914118217  0.820707805358913  0.786393401297804  0.812027215447172  0.807373584734609  0.79880946237328  0.785160006411532  0.768142518553737  0.746863618564084  0.687593853864998  0.490000000902241  0.489999999001678  0.490000000939264  0.489999998986823  0.490000001774012  0.490000000237881  0.489999999219721  0.489999999035767  0.489999999965878  0.490000000386981  0.490000000909663  0.489999998804091  0.489999997827944  0.489999998877865  0.489999997700622  0.489999998181402  0.489999998454779  0.489999998667018  0.489999998861333  0.489999999047826  0.489999999227685  
0.49000000252683  0.489999997352596  0.490000000586828  0.490000001429901  0.49000000144375  0.490000000966406  0.490000000046197  0.490000000064759  0.490000000390377  0.489999999714266  0.490000000470039  0.490000000016258  0.490000001670436  0.489999999408971  0.490000000942059  0.490000000667189  0.489999999438697  0.489999999991282  0.490000000308658  0.490000002248533  0.49000000266209  0.490000003451366  0.489999999819617  0.490000001517519  0.490000000857822  0.489999998961895  0.490168938970192  0.540926574319077  0.631170689066415  0.816072131247106  1.08040259553605  1.30164066200674  1.27104828496278  1.19591071407155  1.12770832527696  1.0642973114684  0.991342291615394  0.930850934892003  0.81663437125066  0.755416538818348  0.708877968861392  0.657677992252075  0.576533234352445  0.483913484414446  0.483700973752566  0.483429836188085  0.483347939384394  0.483285455336527  0.483287186305694  0.483059095705595  0.483098006302688  0.483084726505675  0.483149699267237  0.483320836235271  0.483100978512945  0.483061970172564  0.482991483616007  0.482929293872153  0.482853574069767  0.482814067710353  0.482620214824858  0.482390034794102  0.482145813057617  0.482061340541443  0.48191750170874  0.48196797239999  0.482035361245521  0.48208570365808  0.482112301660375  0.731826092121812  0.845931183586294  0.85170928785341  0.846563108535435  0.857139790453283  0.829776603499548  0.811071499186463  0.793419205298666  0.726273584595798  0.689956182368409  0.489999999737148  0.49000000019521  0.489999999948775  0.489999999967433  0.489999999462773  0.490000001532159  0.490000000511615  0.490000001029567  0.489999999521309  0.490000000478569  0.489999999864248  0.489999999669092  0.48999999998238  0.489999997067115  0.489999998753001  0.489999998657213  0.489999998673567  0.489999998759986  0.489999998885491  0.489999999030468  0.489999999183444  
0.489999997197821  0.489999999787645  0.489999999747818  0.490000000825952  0.490000000782464  0.49000000074006  0.490000000699462  0.49000000002463  0.490000000706888  0.490000000410081  0.490000000528527  0.49000000318593  0.490000001905313  0.489999999507448  0.489999998897267  0.490000000486187  0.489999999104586  0.489999999922803  0.490000000961223  0.489999999746125  0.489999998575866  0.489999998419475  0.490000002180103  0.490000000089365  0.489999999443121  0.489999999093306  0.498824070466895  0.58714452699977  0.708300016006157  0.88136411763691  1.07604464766047  1.23006581686613  1.26362657922902  1.22444245109159  1.16421121824919  1.07379382090177  1.04755990205971  0.95780235862835  0.847879232099585  0.785176851361033  0.723383785707592  0.666084075346631  0.59217803296947  0.483213415441499  0.482981041226664  0.482675712832593  0.482516176069547  0.482392954714122  0.482340958716647  0.482092817131237  0.4821213350966  0.482070972123049  0.482180331684932  0.482325629481422  0.482135773182966  0.482098762970472  0.482042714366818  0.481989177604554  0.481918227596243  0.481868923991604  0.481693934625594  0.481514147951108  0.481290584426128  0.48120852599743  0.481102505178505  0.481238648445894  0.481345998677649  0.481454402868342  0.481538479822021  0.736171337498751  0.847453078961683  0.883365733847558  0.884376919950847  0.89271943146413  0.880957074174691  0.844518170020617  0.812497330402848  0.73088719465729  0.689210569465539  0.490000000629833  0.490000001402219  0.490000000799301  0.489999999561029  0.489999999452498  0.490000001631665  0.489999999293342  0.490000000541282  0.490000000098624  0.48999999959396  0.49000000042781  0.489999999928119  0.489999999677944  0.490000000108809  0.489999999231372  0.489999999153285  0.489999999138625  0.489999999157641  0.489999999188195  0.489999999221479  0.489999999254322  
0.490000001050335  0.489999999617653  0.48999999954647  0.489999998947874  0.48999999988805  0.489999999911139  0.490000000153558  0.490000001897935  0.489999999840052  0.489999999191193  0.490000000011394  0.489999999267638  0.489999999085112  0.490000000721368  0.489999999812075  0.4900000011051  0.489999999896015  0.490000000052028  0.490000000289188  0.490000000940206  0.490000001959064  0.49000000186093  0.49000000024229  0.489999999803453  0.489999999419451  0.489951903298242  0.528274316529194  0.6108296255962  0.736023720393396  0.88997066717449  1.04375223860626  1.1736314682107  1.22661761333386  1.22237931867114  1.14673978283395  1.09063777227372  1.03105620582415  0.98008327972704  0.904904444981241  0.795999133836916  0.738534013689574  0.669882344072297  0.592482509073296  0.589480312039898  0.482305256056917  0.482035721661041  0.48174034660921  0.48152026880132  0.481391156323682  0.481169131820803  0.48114225524702  0.481182458277647  0.481236263213558  0.481354453127758  0.481230399453716  0.481209142264816  0.48118671962857  0.481135704696485  0.48103095773012  0.480961972143628  0.480805325098858  0.480668199874632  0.480506783533485  0.480391630968149  0.480350486835274  0.480526991131874  0.480722192230372  0.480909160874667  0.48104187715402  0.73323564238361  0.867263406272357  0.92065367647937  0.930972561078451  0.93154160297782  0.918017899975434  0.869103921442919  0.827729569349836  0.728669262411774  0.490000000132774  0.489999998793934  0.490000000575416  0.490000000555459  0.490000000610179  0.490000001771325  0.490000001124254  0.490000000181918  0.490000000684372  0.489999999691263  0.49000000037309  0.490000000175253  0.489999999895804  0.489999999474992  0.489999998421836  0.489999997633156  0.489999997502356  0.489999997478037  0.489999997493017  0.489999997520258  0.489999997547441  0.489999997568992  
0.489999999217559  0.489999999871057  0.489999999861731  0.490000000470958  0.489999999314986  0.489999999934472  0.490000000350999  0.490000000342742  0.490000001033437  0.490000001653202  0.489999999989768  0.490000000157638  0.489999999686402  0.490000000824755  0.489999999407267  0.490000000381867  0.490000000578001  0.490000001928438  0.48999999903026  0.489999999792763  0.489999999177479  0.489999998962527  0.489999997288331  0.490000002663568  0.489999999824888  0.490468480535742  0.520070315738635  0.598812714471679  0.733401981914612  0.880108567616898  1.01609071340844  1.13748230245108  1.1654171784176  1.17468531575933  1.14272225562804  1.08652619722435  1.02446131665799  0.979782007035541  0.907449110179556  0.839627290338103  0.768525930771961  0.672602639039398  0.585415371936286  0.563254339960575  0.554097504129739  0.481407203678971  0.481061597907601  0.480760163470219  0.480482106237533  0.480339762233943  0.480344570935885  0.480392027024982  0.480397029285502  0.480338330959777  0.480382845472905  0.480446351075905  0.480477445530334  0.480403633994517  0.480287658499331  0.480189105203693  0.480073332961256  0.480011002933745  0.479975510609549  0.480000000159222  0.479999999077526  0.479990611200053  0.480186540722374  0.480406635233542  0.480518311725862  0.480859241566623  0.871775357464252  0.960728003056647  0.978123215024596  0.973584295240862  0.948739285109752  0.90529173297797  0.840243921380712  0.487776940201933  0.488154857745377  0.488420162288952  0.4886915655509  0.489032578576619  0.489258450971239  0.489411630227184  0.489524622666216  0.489406495643476  0.489518196473751  0.489717671143566  0.489999999806288  0.489999999895151  0.489999999572908  0.490000000802629  0.489999999118728  0.49000000083108  0.490000001211047  0.490000001279212  0.490000001284464  0.490000001272799  0.490000001255649  0.490000001237195  
0.48999999666476  0.490000000672487  0.490000000674784  0.490000000677689  0.490000000681332  0.49000000144955  0.489999999947517  0.490000001191821  0.490000001803183  0.490000000025173  0.490000000477801  0.490000000310475  0.489999999001865  0.489999998992452  0.489999999287511  0.489999996566709  0.490000001325944  0.490000000753039  0.490000000807873  0.489999999881798  0.490000001110375  0.490000000981547  0.489999999130529  0.489999999315936  0.48999999861693  0.473194518573839  0.486305591269753  0.565860132754765  0.712130132890915  0.872943349247982  0.993863712987553  1.08722515140011  1.14041769418553  1.15321890598699  1.12399956112178  1.08209817142889  1.00687247000313  0.961354198620481  0.889496573995777  0.823361010393532  0.759140039343103  0.689081123800124  0.573992204341728  0.554805728527371  0.54116731408711  0.51976084730446  0.48054484994356  0.480252019411489  0.480001472084028  0.480000000501073  0.479999999975943  0.479999999613135  0.479999999902319  0.480000000134559  0.480000000374364  0.4800000013257  0.480000002197043  0.480000000744926  0.479999998595752  0.479999999981673  0.479999999971325  0.480000000233041  0.480000000141182  0.479999999886796  0.479999999161396  0.479999999544704  0.480009912252813  0.480235004752832  0.480325978077891  0.480519036386104  0.875475652149968  1.01883929769591  1.0448587783703  1.00880633116387  0.957912476205202  0.899443814061323  0.81493275473044  0.487960118933068  0.488361398351961  0.488629857553368  0.488916452122709  0.489253899052586  0.48946887236445  0.489595483270894  0.489663118493014  0.489553984428172  0.48964413489621  0.48978185163446  0.489687532344383  0.489696218407182  0.490000000458424  0.490000000110849  0.489999999683713  0.489999998686299  0.489999999055309  0.489999999357256  0.489999999578095  0.48999999973899  0.489999999857757  0.489999999946947  
0.489999999678934  0.490000000892005  0.490000000249606  0.49000000052828  0.490000000537917  0.490000000544692  0.490000000517799  0.489999999102725  0.489999999668803  0.489999999905678  0.48999999964806  0.490000000134524  0.489999999283641  0.489999998818745  0.489999999911481  0.489999999970422  0.490000000369061  0.489999999512949  0.490000000193713  0.490000000435663  0.490000000880951  0.490000000768602  0.4900000000311  0.489999999968116  0.446017958639151  0.452438797036823  0.480680853166761  0.557291351329179  0.705865980569632  0.868069571015193  0.999395124296655  1.08281065142522  1.12956758135004  1.12367015853821  1.09996506249805  1.07440971295189  1.00193329863431  0.947860586417651  0.866773689485845  0.801910009501711  0.738035277540916  0.664799785213209  0.58358124212962  0.541674002173137  0.527143801852939  0.507931528950642  0.480211729334605  0.479991830657903  0.479983006760881  0.479999999793553  0.480000000330605  0.479999999658758  0.480000001253315  0.479999999192069  0.480000000087811  0.480000001392194  0.480000000048303  0.479999999244794  0.480000000604996  0.479999998599895  0.480000000810087  0.480000000156486  0.48000000010716  0.480000000555218  0.4799999994846  0.479999997309641  0.480000000284872  0.480011285214345  0.480183679256926  0.480228926399277  0.827033295323455  1.11373879580057  1.08496427257362  1.00754351107145  0.92157446124106  0.857803396950016  0.797381652006427  0.488168975357002  0.488590918871066  0.4888729127431  0.48918160975039  0.489513723235622  0.48970533110674  0.489777857320876  0.489685916521993  0.489727059062733  0.489801341542648  0.489889682584524  0.489791712793804  0.489789516258199  0.489936565710516  0.489999999921228  0.489999999801951  0.489999999999251  0.489999999840128  0.489999999699029  0.489999999588284  0.489999999500269  0.489999999428153  0.489999999367923  
0.490000000134289  0.490000000150311  0.490000000156841  0.49000000069515  0.489999999525413  0.489999999517607  0.48999999951077  0.490000000727375  0.489999999499061  0.490000002053214  0.490000001797476  0.489999999614801  0.48999999974005  0.48999999910972  0.490000000860756  0.48999999997941  0.490000000143686  0.490000000568112  0.49000000015677  0.489999999981586  0.489999999106942  0.490000000967853  0.489999999782072  0.48999999881516  0.410865222261029  0.443423614043129  0.484927470671288  0.574885418693071  0.715951117672893  0.876972423066735  1.01591261154084  1.09642968567501  1.12290101237562  1.11409145450658  1.08282758942405  1.05143931576734  0.977009000412436  0.910046013962483  0.830937279974861  0.759489698458142  0.695830345469154  0.578295577356009  0.559412869345305  0.541171750706337  0.509383766532256  0.497439202639366  0.483781874088248  0.47991964848189  0.479910672168076  0.48000000011242  0.479999999753059  0.479999999829164  0.479999999679182  0.480000000812979  0.480000000874907  0.480000000029752  0.479999999237858  0.480000000014361  0.480000000325883  0.48000000033463  0.479999997739584  0.479999999783045  0.479999999107628  0.479999999656566  0.480000000110505  0.479999999739115  0.480000001258709  0.480000000364544  0.47999999947138  0.480000000124776  0.640516794771775  0.947587271643014  0.969376851131854  0.92205447119862  0.865303904625623  0.808900222026579  0.757282875549501  0.691078801267362  0.628251790318881  0.585748833511203  0.546986153648653  0.515003468031228  0.502410076778657  0.502840608446006  0.507169425394682  0.502175551277931  0.498159729644391  0.502172290720959  0.502380767186366  0.499143720515541  0.487605275994383  0.479596853196806  0.490000000397166  0.489999997822698  0.489999997685389  0.489999997557134  0.48999999743707  0.489999997330929  0.489999997240689  0.489999999329327  
0.490000000912569  0.490000000924768  0.489999999538918  0.489999999531946  0.489999999525487  0.490000000824597  0.490000000810251  0.490000000791305  0.489999999837947  0.489999999347032  0.490000000456314  0.489999999113771  0.489999999886532  0.489999999920977  0.489999999800725  0.48999999956934  0.490000000028796  0.490000000811276  0.489999998619317  0.490000001687916  0.489999999436064  0.490000002034423  0.489999999611362  0.406372048611927  0.404555337741922  0.437735013094648  0.492124786685872  0.578087955898336  0.724570685275528  0.894583209812467  1.05270560482164  1.12437621167514  1.12780939679003  1.10341377424994  1.06034898515759  1.0129266941886  0.941256459628106  0.864423449491683  0.785843790035518  0.700996640980248  0.600154612286298  0.569590243197482  0.547324495541039  0.531744826048453  0.499800585364307  0.490565141810342  0.48202644483829  0.479999999857075  0.479999999907272  0.48000000027897  0.479999999930643  0.480000001116363  0.480000000384695  0.480000000330841  0.480000000190803  0.480000001170912  0.480000000115868  0.48000000015001  0.480000000048592  0.479999999609254  0.480000000774568  0.479999999460821  0.480000000745044  0.480000001368422  0.480000001024926  0.479999999797539  0.479999998964873  0.4799999993224  0.479999999615359  0.480000000012225  0.492164026481461  0.681457651936849  0.765983333625656  0.776128090187945  0.750756486249259  0.710420839077008  0.665857915252637  0.622785325445654  0.583157880963139  0.545149759613623  0.505265195221306  0.483181938451111  0.48999999978263  0.489999999633569  0.490000001220941  0.49000000167349  0.489999999699163  0.489999998863633  0.489999999791492  0.490000000192512  0.489999996630107  0.489999998756239  0.490000000774123  0.490000004232778  0.490000003948271  0.490000001721019  0.49000000171832  0.490000002893343  0.490000002849124  0.490000002712477  
0.490000000737028  0.490000000428797  0.490000000416316  0.490000002155316  0.490000000707738  0.490000000702196  0.490000000694339  0.490000000452313  0.490000000476081  0.48999999997465  0.490000000742395  0.490000000430581  0.490000000779868  0.490000000272335  0.490000000124864  0.490000000516542  0.489999999779727  0.490000000035992  0.490000000229521  0.489999998447935  0.385678797277139  0.389049069581207  0.39611665946577  0.403424443842777  0.396787441667931  0.424690343524461  0.469148926942882  0.55719421081989  0.729198919993573  0.912484667649715  1.06002123810867  1.13227989551323  1.12835530148777  1.08155655961298  1.01748480280043  0.95219503887458  0.870183319484717  0.77149777748077  0.697491807130434  0.635231098742493  0.591553112476936  0.554545981412145  0.521744055348429  0.509611949012561  0.495276237818354  0.48600318438663  0.480044738416549  0.479999999702669  0.480000000629428  0.480000000001819  0.48000000069629  0.480000000290548  0.48000000047396  0.480000000276056  0.480000000226709  0.480000000307759  0.480000000414282  0.48000000001281  0.480000000340135  0.480000000799663  0.479999999070866  0.480000000340922  0.480000000306341  0.479999999643508  0.479999999537936  0.479999999593963  0.480000000387641  0.480000000233379  0.479999999672568  0.480000000584479  0.480000001215625  0.55285149149402  0.482288773584146  0.483589376581817  0.485226134128749  0.6201497711447  0.587080400097192  0.557868538261749  0.5301620008372  0.506016457658015  0.489020393489177  0.489999999996981  0.489999999044481  0.490000000076598  0.489999998667569  0.490000001264452  0.490000001323163  0.489999999454815  0.49000000058082  0.489999999724523  0.490000001757228  0.489999999921756  0.489999998903527  0.490000002779653  0.490000002797489  0.489999999514738  0.489999999545942  0.489999998661738  0.489999998686954  0.490000000448106  
0.489999999564732  0.489999999164549  0.490000000469418  0.490000000483325  0.490000000494781  0.490000000503261  0.490000001136874  0.490000001111394  0.490000000131516  0.490000000958583  0.489999997647328  0.489999998863834  0.489999999658696  0.490000002635732  0.489999999463697  0.490000000631543  0.489999999662218  0.489999999347295  0.385546064981338  0.36333850714476  0.365847862733133  0.384899589410417  0.392031511376858  0.399478366919631  0.410052922887292  0.419400449539769  0.460978766546202  0.552398761922038  0.762252297427338  0.954605619701306  1.09858388741129  1.16937070412095  1.14437665720104  1.06247309249235  0.955899652793822  0.845255869997531  0.717008866302133  0.642765978344402  0.590367503410563  0.548703929294489  0.527181221037653  0.507542441596124  0.488254497655497  0.490538400928805  0.518411569061799  0.534081995262525  0.476400056583998  0.48000000040001  0.479999999477693  0.479999999506034  0.479999998704838  0.480000000199567  0.495141466505552  0.45210156806747  0.480000000434802  0.479999999244412  0.480000000032916  0.480000000249964  0.480000000290572  0.480000000974796  0.48000000065538  0.479999998400805  0.479999999709736  0.479999999761317  0.48000000114956  0.480000000303996  0.479999999924867  0.479999999260907  0.48000000038221  0.479999999970173  0.480000000254451  0.52341727452034  0.481370711041451  0.483659761223679  0.485527758995567  0.487388123113006  0.489166377165281  0.499518096865899  0.495961510115818  0.490000000010622  0.48999999946148  0.489999999171515  0.490000000212981  0.490000001042715  0.490000001610284  0.490000000084538  0.490000000443712  0.49000000079404  0.489999999167525  0.490000000465492  0.490000003792958  0.48999999904231  0.489999998053974  0.489999999213823  0.490000002642556  0.489999996821358  0.490000000154443  0.490000000185586  0.490000000210002  0.49000000276557  
0.490000000107344  0.489999998990713  0.489999999004645  0.489999999927921  0.489999999915284  0.490000001436933  0.48999999993152  0.489999999955504  0.489999998829536  0.490000001296232  0.489999998863953  0.490000001742062  0.489999999990787  0.490000000600547  0.49000000011933  0.490000000845102  0.490000000230207  0.490000000240083  0.372229480212987  0.372619892146895  0.387345389277587  0.388680707803529  0.390729429317124  0.399003705129011  0.416633814505312  0.440336901098324  0.514193257763303  0.657543767711754  0.845209082704659  1.03006958859357  1.17931035636655  1.24300306902521  1.17804757404236  1.05134978070452  0.898718338480583  0.739040096789737  0.57579025894585  0.505830382409128  0.49435637123933  0.47069299892936  0.476900105538137  0.480418475267246  0.478016063371516  0.496838505936871  0.540833680090335  0.591131893389028  0.638000848401475  0.667002432052995  0.676912658444114  0.686491792225338  0.695301668662496  0.480000000718856  0.609651460763241  0.489448201874777  0.391978083299842  0.479999999958179  0.480000001378839  0.479999999754989  0.479999999992406  0.479999999825951  0.479999999910251  0.480000000212838  0.479999999974984  0.480000000155081  0.480000000954865  0.479999998937326  0.480000000742141  0.480000000873365  0.480000000248747  0.47999999912466  0.479999999985416  0.483450332933404  0.481294192202844  0.4837317576778  0.48608342999066  0.488418893617643  0.489692597125758  0.489999999122093  0.490000001115991  0.489999999901486  0.489999999106515  0.489999999325449  0.489999999877051  0.490000000148681  0.490000000021634  0.489999999599194  0.489999999716547  0.489999998867846  0.490000000007067  0.489999999947734  0.489999999399192  0.490000000279548  0.489999999271775  0.490000002842294  0.490000002776639  0.490000002713619  0.489999998765236  0.490000001321109  0.489999998037579  0.490000000547276  
0.489999999646241  0.489999998969807  0.489999999019454  0.490000000804  0.490000000804852  0.489999999764  0.490000000222496  0.490000000243365  0.490000000263672  0.490000000193268  0.489999999251033  0.489999999719679  0.48999999962736  0.490000000379605  0.48999999959955  0.490000000386597  0.489999999425536  0.392235113810518  0.384410044822258  0.393226762653122  0.403689991242784  0.405511669090781  0.408023281588905  0.41712775550982  0.443594275628985  0.49321527188526  0.606561727686383  0.765922423448006  0.946157510457805  1.12473726170157  1.27923468132018  1.35344123904995  1.19964128608031  1.01746381328133  0.824705068360233  0.636718134320448  0.488063078611073  0.45635254252444  0.450610515585402  0.480000000184071  0.479999999523695  0.479999999714928  0.474385049765501  0.518174540379402  0.597280920896975  0.688324286847992  0.778896380149204  0.856132095167268  0.921886945018048  0.96865539515443  0.994493890425209  0.958310352158827  0.841298218056957  0.646829534737745  0.473974272689003  0.367029801147988  0.290423278981712  0.248260251503931  0.479999999526379  0.48000000107238  0.480000000013937  0.480000000483187  0.479999999337198  0.480000000001026  0.480000000169579  0.480000000851491  0.479999999439768  0.479999999882077  0.480000002364156  0.480000000341965  0.480000001868995  0.48000000070256  0.48064793019062  0.483506024360144  0.486463425477048  0.488995421148657  0.490257005082985  0.490000000426741  0.489999996439252  0.489999999765228  0.489999999853571  0.489999999656407  0.490000000889144  0.490000000261525  0.49000000148783  0.490000001102767  0.490000000614366  0.490000001636422  0.489999997363081  0.489999999902104  0.490000000497394  0.489999998511986  0.490000001531402  0.489999999976513  0.49000000469473  0.49000000462009  0.490000004554986  0.489999998017355  0.489999998086246  0.490000000462688  
0.49000000160661  0.490000000755334  0.490000000774096  0.489999999673656  0.489999998452637  0.489999998442727  0.489999998435355  0.489999999522985  0.489999999586432  0.489999999785566  0.489999999155875  0.489999999279022  0.490000000619378  0.489999999433429  0.489999999451254  0.490000000646391  0.489999998655  0.397836414051678  0.425091654647061  0.433390868689105  0.440306118659411  0.445040092214305  0.447940676528033  0.457750370417174  0.483529992664946  0.580955175274864  0.710633516255841  0.867852693184323  1.03595770011882  1.19178050031443  1.30178071388276  1.31406127884209  1.16726040809463  0.963080635929281  0.752843390471694  0.565435687595912  0.448895039757196  0.421583399763095  0.479999999291697  0.480000000618736  0.480000000048419  0.479999999307368  0.462384630506124  0.534563957926263  0.653839529648492  0.785657946927526  0.916057937481149  1.05224705182253  1.17470555192425  1.27398559020811  1.31723973030742  1.28377440142166  1.14299693808001  0.90504962299757  0.649119516296044  0.431338261788926  0.316239748294232  0.264629930777636  0.480000000149504  0.479999999614472  0.48000000046219  0.479999999462289  0.480000000019075  0.480000000520078  0.48000000048905  0.480000000642485  0.48000000016668  0.479999999861516  0.480000000810951  0.479999999084492  0.48000000020689  0.480000000053246  0.480072123372254  0.483238792668562  0.486971699662893  0.489956026831428  0.489999999522553  0.489999999036077  0.48999999944662  0.489999998786795  0.489999999079032  0.490000001180603  0.489999999504132  0.490000000958702  0.490000001087714  0.489999999552374  0.489999999323482  0.489999998678119  0.490000000068355  0.489999999400191  0.489999998833924  0.489999998474604  0.489999999355766  0.490000001166357  0.489999999486297  0.490000000534887  0.48999999980557  0.490000001888912  0.490000000469145  0.489999998584898  
0.490000002318394  0.48999999917695  0.490000000300906  0.489999998553149  0.489999998559277  0.489999998568367  0.489999998986927  0.489999998985636  0.489999999934232  0.490000000109911  0.489999999826997  0.490000000748867  0.490000000549028  0.489999999904987  0.489999998686026  0.48999999964446  0.489999999399717  0.426709903219055  0.44158998576933  0.457801660455056  0.471600768781939  0.478256179045151  0.485610907571743  0.50951817609218  0.570344904288549  0.672387737577395  0.804177851995213  0.957377289137276  1.11183179759402  1.24718073228967  1.31142914619422  1.27202977367932  1.12645503707556  0.922686219524916  0.708607283026234  0.533815052581854  0.438004657894689  0.480000000293701  0.48000000036119  0.479999999666171  0.480000000011411  0.422332697319713  0.455274388771909  0.557484870777765  0.713395407742437  0.884360761195854  1.05657222336629  1.24087401512527  1.41989767648439  1.58160128647841  1.67752718816124  1.67712239535448  1.50947996185999  1.22153157773364  0.854264398394184  0.511317293608194  0.367049009251529  0.306537887344993  0.479999999705174  0.479999999948973  0.479999999243964  0.480000000923649  0.480000000009674  0.479999999998734  0.480000000247932  0.479999999796655  0.480000000748172  0.480000001910051  0.480000001536899  0.479999999482577  0.479999999691746  0.479999998714594  0.479337634908096  0.482575732857435  0.487961198845789  0.490910140057639  0.490000000060544  0.489999998785847  0.489999997829696  0.490000000094318  0.489999998432274  0.489999999915491  0.490000002332088  0.490000000495734  0.490000000155266  0.490000000961251  0.489999998477776  0.489999999652066  0.490000000948433  0.489999999701505  0.489999999407219  0.490000001966543  0.490000001062552  0.489999999955245  0.490000000804482  0.48999999923071  0.490000003428161  0.489999999758439  0.489999998515147  0.489999997910739  
0.490000001776265  0.490000000490257  0.489999998889858  0.489999998924272  0.489999999053235  0.490000000408883  0.490000000376611  0.490000000343427  0.490000000409644  0.490000000383562  0.490000000030548  0.490000000076143  0.49000000089421  0.490000000271728  0.490000000046013  0.490000000280595  0.490000000256184  0.438767056856747  0.459297482832387  0.484050512160344  0.503989101414694  0.518830465288823  0.54039583668612  0.582656454729128  0.658245179872416  0.756638901819064  0.884199018960637  1.02476458996239  1.17334460309649  1.30475173067777  1.35180450494118  1.26220635749145  1.09681922096678  0.888075517872724  0.664502496940784  0.485443383927  0.435154200704055  0.435902101398188  0.479999999669001  0.480000000254092  0.381474894483847  0.4220606556116  0.475696365302144  0.598381211272659  0.777975699758526  0.969417266163668  1.17780790421675  1.39459131555356  1.63089726732178  1.8507463739425  2.05296289738664  2.12512842136599  1.91420770470865  1.53110994074496  1.10102841979324  0.728102954301062  0.498544017772545  0.382943545111778  0.331180968792263  0.479999998744051  0.480000001582651  0.480000000586646  0.48000000024623  0.479999999783925  0.480000000395925  0.480000000218157  0.479999999773801  0.480000001014452  0.479999998870592  0.480000000692536  0.480000001183494  0.480000000335054  0.47932482663236  0.483662930736528  0.489635644240513  0.489999999473281  0.490000000550411  0.490000000863102  0.490000000958238  0.489999999646269  0.490000002426801  0.490000000785386  0.489999997671723  0.489999999939553  0.490000001140038  0.489999999505246  0.490000000658376  0.489999998928091  0.490000000418231  0.489999999910065  0.490000001144641  0.489999998698134  0.489999999576238  0.489999996989559  0.490000000212629  0.490000000427641  0.490000000161732  0.490000000539269  0.490000001474023  0.489999998226332  
0.490000000274647  0.48999999886692  0.48999999887596  0.489999998889336  0.489999998907893  0.490000001054035  0.490000001132318  0.490000001215832  0.490000001302663  0.490000000072713  0.489999998693361  0.490000000731848  0.490000000352539  0.490000000165068  0.490000000930283  0.490000000507368  0.490000000153946  0.468698244204534  0.481944005394682  0.497162237042257  0.512607153824845  0.557800802395339  0.59305086704974  0.647219990914168  0.719912226220757  0.816525256090763  0.935281956584356  1.06235178006402  1.20465632185546  1.3355578419465  1.39356784109892  1.24779503442691  1.0731247751659  0.874866019265904  0.666281795442112  0.497499081649208  0.475326466138358  0.464326421823963  0.453248409081241  0.430926783139799  0.391205721302851  0.437541416375324  0.505795364865195  0.645156038295551  0.826302504862236  1.03306638713288  1.25752870352594  1.49875299233692  1.75873668324994  2.04309280245716  2.33102672674536  2.60667246916794  2.24889254804941  1.76860728563614  1.31256050578756  0.935398841442072  0.657348679702801  0.488637560971027  0.390009931677967  0.479999999900312  0.479999999774292  0.480000000048477  0.48000000082066  0.479999998948047  0.479999999354625  0.480000000482232  0.480000000072926  0.480000000763977  0.480000000347918  0.480000000086742  0.48000000076386  0.479999999312591  0.481265735022645  0.486527055332985  0.490830314075538  0.489999999550991  0.490000000070468  0.490000001075602  0.489999998292699  0.490000001839573  0.489999999944022  0.490000000263696  0.490000002211919  0.489999999764556  0.490000001291762  0.490000000782237  0.490000000714533  0.490000001013412  0.489999999039849  0.490000000426265  0.489999998713972  0.490000000841748  0.489999998134932  0.490000000630495  0.490000000843306  0.490000000622256  0.48999999914759  0.490000000471457  0.489999999694419  0.49000000261368  
0.489999999095607  0.489999999438514  0.489999999440434  0.489999999443779  0.49000000077376  0.490000000755399  0.490000000736709  0.490000000717507  0.489999999308935  0.489999999345125  0.490000000040955  0.489999999744109  0.490000000130231  0.490000000457256  0.489999999396943  0.489999999284976  0.489999999913512  0.474950133940137  0.489733018743334  0.509067822013212  0.554856073623811  0.586532293807337  0.632628019656043  0.690992535397514  0.761639451889835  0.858502825043736  0.960839390810829  1.07504011408353  1.18290157677516  1.26887540757127  1.28307038386006  1.18923492179127  1.04515437029815  0.88074592990093  0.715874420461792  0.592744949585361  0.503546980549495  0.477013050938951  0.443364252005367  0.423879082393479  0.430472427360083  0.459073652877407  0.47999999799378  0.674598793940245  0.863899078703526  1.07375527829081  1.30019286154502  1.54014686852645  1.79487060546077  2.09716717104014  2.34798025395511  2.4794312390522  2.25430408808737  1.84825972965817  1.42878558396893  1.0661818838765  0.77408390049597  0.556910901383271  0.47999999920545  0.480000000503613  0.480000001921559  0.480000000952321  0.480000000623789  0.480000000551012  0.480000001801955  0.479999999674505  0.480000000272003  0.480000000682695  0.479999999850166  0.480000000441339  0.479372448032214  0.48051240805072  0.484269376516758  0.488762812646753  0.490936479755223  0.491697170569011  0.49204186321142  0.492176152224004  0.490000001917186  0.490000000228444  0.490000002196114  0.489999998656272  0.489999998318829  0.490000002250993  0.489999998923968  0.490000001479694  0.490000000885434  0.489999999426468  0.489999999308758  0.490000000482726  0.489999999980293  0.489999999128545  0.490000000816419  0.489999999561488  0.490000000489232  0.489999998050571  0.490000001370829  0.490000002045788  0.489999999615511  0.489999999467178  
0.490000000109811  0.489999999876622  0.489999999855227  0.489999998092677  0.489999998055674  0.489999998019817  0.489999997985748  0.489999997954417  0.489999997927294  0.489999999626276  0.490000000594311  0.490000000434123  0.490000000084408  0.490000000428084  0.490000001302275  0.489999999872408  0.489999999784229  0.482143253349626  0.507312411246506  0.541334617820372  0.579207882262391  0.613004929656256  0.670602712178963  0.727212564754726  0.804863162863315  0.883816949383121  0.97233560879534  1.0634343233913  1.14183325459203  1.1943517346012  1.19248440942405  1.1254041084374  1.01387354881933  0.885524032094444  0.758458048679284  0.660383891237177  0.567132639633177  0.510705471966689  0.455986149877636  0.431942788672077  0.432536614404629  0.464858263522599  0.514796069097996  0.766107417835366  0.975930793007591  1.19250943103769  1.41259782498601  1.63470606571769  1.90268027673291  2.14870227401354  2.31763929537073  2.33903810094223  2.17910346589499  1.88255015188199  1.53949928419058  1.18946019935661  0.880778162500855  0.615689015178715  0.473356219713148  0.479999999574379  0.479999999769742  0.479999999410227  0.479999999423687  0.479999999586726  0.480000000835316  0.47999999975148  0.480000000338752  0.480000000288961  0.479967640715403  0.479727663656774  0.480735634210134  0.483070512605103  0.486663485571245  0.490217795894413  0.490000000112051  0.489999999720789  0.490000000143065  0.490000000545503  0.490000000230317  0.490000000253164  0.489999999831255  0.489999999737171  0.490000000031876  0.489999998182615  0.489999998503237  0.489999999975461  0.490000000825338  0.48999999878401  0.490000000147079  0.489999999388433  0.490000000992891  0.489999999655263  0.489999999316699  0.489999999841141  0.490000000773399  0.489999999762208  0.489999999544753  0.489999999188825  0.490000000269622  0.489999999553028  
0.48999999783645  0.489999997910147  0.489999997955727  0.489999998003357  0.489999998053465  0.489999998106628  0.489999998163646  0.489999998225635  0.489999998294169  0.489999998459654  0.490000000943168  0.49000000082417  0.490000000942991  0.490000000678879  0.490000000526949  0.489999999764251  0.489999999350381  0.492378450503274  0.524976976200788  0.564267424408381  0.606074419334242  0.649442673495881  0.694834101150813  0.751129903780229  0.820993591361644  0.891615228664674  0.973763873664296  1.03960802208955  1.09916976961846  1.12988989712417  1.12271941106849  1.08021060834335  1.00078185708546  0.910041963002741  0.816222955844954  0.739612016293155  0.657081821784126  0.597026436794958  0.533310288443185  0.481322930211963  0.463818799086316  0.523671205793331  0.593806704892314  0.891805185335924  1.09707480710768  1.24960755854493  1.44692439498257  1.63973643078674  1.95844203802965  2.11613678695247  2.20796335560849  2.22785014648165  2.08593400542693  1.85569066724574  1.57539548296359  1.2773394579907  0.982913009753602  0.709534226471419  0.479834422350063  0.457136734493926  0.472243539103105  0.479999999817127  0.47999999970425  0.479999999252762  0.480000001149467  0.479999999721396  0.480000001424184  0.47990494443108  0.480051301666951  0.480743217759009  0.482553136832688  0.485266829342554  0.488341492427466  0.490725507302269  0.489999999437517  0.489999999561731  0.490000001078093  0.48999999899047  0.490000000709394  0.489999999629666  0.489999999620733  0.490000000036516  0.489999998372836  0.490000001978537  0.490000000509442  0.490000000700738  0.48999999828124  0.490000000394349  0.489999999208083  0.490000000247218  0.490000000108162  0.489999999552118  0.489999997231485  0.490000000878097  0.490000001561508  0.489999998328661  0.489999999307255  0.490000000355953  0.489999999139891  0.490000000531464  
0.489999999537639  0.490000000310593  0.490000000295828  0.490000000278182  0.490000000257061  0.490000000231713  0.49000000020117  0.490000000164177  0.490000000119089  0.489999998970712  0.489999999520769  0.48999999989621  0.49000000008696  0.490000000191661  0.490000000339626  0.490000000104009  0.490000000261969  0.503826205871683  0.543283436693509  0.585819150899556  0.630124606388326  0.673285534827141  0.716265514293723  0.767207839343991  0.835992779751834  0.899323665497663  0.967291820571708  1.02079551293313  1.06830359819593  1.08710607418282  1.09638031233831  1.04676636824659  0.987067683419418  0.917326509200917  0.850929947711087  0.816377647084105  0.774064895360964  0.731399238893251  0.681500933019523  0.632735701325104  0.619897097798669  0.662772581192315  0.719782913746023  1.04413855006423  1.2333974465774  1.42928507760679  1.62354794932903  1.83536797823396  1.93916391214205  2.03365140905137  2.08043722519066  2.08083951193312  2.05834014567706  1.87553162336971  1.62596610904079  1.34898408135605  1.07727332537028  0.833777358135115  0.550734802313484  0.5147640507403  0.508581947000587  0.532241003714553  0.532810185904676  0.527599266966384  0.527785130151302  0.505166882126232  0.479473571446593  0.474212249398262  0.48043229717491  0.481888263033794  0.483983233367039  0.486532024352168  0.489244416624489  0.49100864975105  0.490000000278722  0.489999999010562  0.489999999548288  0.490000000969236  0.490000000920766  0.490000000488958  0.490000001326653  0.490000000737024  0.489999999857415  0.489999999358349  0.490000000164006  0.48999999967339  0.490000000428685  0.490000000148319  0.490000000230342  0.490000000004132  0.489999999246096  0.489999999529982  0.490000000578794  0.490000002734586  0.489999999976039  0.490000002206264  0.490000000531028  0.489999999188827  0.490000000411384  0.490000000385629  
0.490000001216859  0.490000000965182  0.490000000927551  0.490000000887596  0.490000000844858  0.490000000798723  0.490000000748359  0.490000000692621  0.490000000629906  0.490000000565299  0.489999999173797  0.490000000016634  0.490000000327983  0.489999999901911  0.489999999583601  0.489999998238635  0.490000000463319  0.516035110233711  0.562010247947832  0.609460257879493  0.658546935404898  0.703462748703493  0.745719728938581  0.796817637143131  0.854345249032781  0.908659757863967  0.966521336996963  1.01330563380911  1.05251743363794  1.08689708255009  1.08253713635192  1.04606592738786  1.00635770217532  0.963950853540624  0.927231194081135  0.908076879025453  0.898504682820236  0.882375792686447  0.86261010650697  0.832686331126196  0.821241014385062  0.839326030732062  1.04386263362642  1.20241439886068  1.36634450928925  1.53920037217553  1.7122138779835  1.82177528185201  1.91834473300015  1.98695962351325  2.00181770886868  1.93005188682991  1.92469030151397  1.85803338056257  1.64968548608153  1.41582710920643  1.1789726247199  0.965645127920134  0.631709977338724  0.592240346826268  0.569932299992716  0.556297760546045  0.544407717375813  0.530762626460767  0.591566397420165  0.563430862756217  0.545462561422524  0.523439521632849  0.481334482247893  0.482913281604482  0.484858196067835  0.487151602330937  0.48944780439843  0.490983421507387  0.489999999518001  0.490000000512658  0.489999999497708  0.489999998717618  0.490000000286575  0.489999999668609  0.490000000841344  0.489999998711339  0.489999999964524  0.490000000334494  0.490000000896066  0.489999999612021  0.489999998942807  0.489999998859299  0.489999999622042  0.489999998465908  0.489999999792591  0.490000000389049  0.489999999227735  0.489999999795682  0.490000000745446  0.490000000001195  0.489999998141187  0.490000000781843  0.489999999428276  0.48999999975643  
0.489999999047236  0.489999998480847  0.48999999844552  0.489999998413104  0.489999998384433  0.489999998360593  0.489999998343028  0.489999998333699  0.489999998335343  0.489999998512313  0.489999999016967  0.489999999110382  0.489999999863233  0.489999998942206  0.490000000458919  0.490000000297966  0.48999999991473  0.528102763764189  0.582516276139474  0.63846889155358  0.69314457457601  0.740551615004515  0.781335013214443  0.83356266857806  0.873318322016794  0.913361781484908  0.969548003919209  1.01751715552369  1.0712570678291  1.09040923517214  1.09022721166382  1.06664971524138  1.04517539831179  1.02620982593142  1.01426901331901  1.01815841655918  1.03701613587237  1.04658648629684  1.05822155974928  1.0346348003732  1.01844235094985  1.0219620317315  1.21949422048097  1.35435469181378  1.49445378702109  1.64563352987886  1.74023918465855  1.83230510525929  1.91042141561031  1.95097330849482  1.91273059228588  1.88084133427339  1.88010908962443  1.76978636120946  1.67178282452936  1.47219871001293  1.26703464313829  1.08249204999055  0.721631995234056  0.674392262886967  0.636926100619884  0.608730358984014  0.589095992352112  0.566215319399658  0.569355946713034  0.543222063196109  0.590513854516843  0.555518969067093  0.482081434583195  0.483460249130691  0.485207870531978  0.48716505365511  0.488909392891461  0.490273344336309  0.489999999983474  0.489999999671151  0.489999999286658  0.489999995992564  0.490000000319093  0.490000002198058  0.489999998569448  0.489999998900575  0.490000000033654  0.489999999700738  0.489999998980364  0.490000000156826  0.490000000090749  0.49000000062489  0.490000001221424  0.489999999806481  0.490000002067696  0.490000000781585  0.489999999175685  0.490000000022896  0.489999999836447  0.490000001490703  0.489999999902698  0.49000000024804  0.490000000225309  0.4900000004294  
0.489999999443352  0.489999999732052  0.489999999718157  0.48999999970492  0.489999999692487  0.489999999681024  0.489999999670719  0.489999999661785  0.489999999654457  0.489999999667586  0.489999999992243  0.490000000940677  0.49000000028066  0.489999999211369  0.489999999182894  0.489999998237803  0.490000001719337  0.537494598986124  0.605130173717041  0.674476850396502  0.739265176790202  0.790322281300814  0.828797513595034  0.869306675771437  0.895261759282914  0.921619816911641  0.979699517620634  1.05103643362492  1.09804344726652  1.11986673463518  1.1176038276073  1.10131139923264  1.09541776722585  1.09889416852899  1.10672778809349  1.12543896403357  1.1645347245225  1.19159591155399  1.2234534241723  1.21013059567485  1.19570339656375  1.19739953503662  1.38557301678087  1.50362887563064  1.62264591076574  1.74761999327024  1.7815372914362  1.85198265667136  1.90725229231587  1.89211084121464  1.88958057313236  1.85412982167263  1.78040119335342  1.76913964902831  1.71978185108664  1.54209103329028  1.36121091495126  1.19316450009717  0.814205083146519  0.758591707708118  0.708644621550656  0.672341927813927  0.635630326182424  0.604214724773498  0.608772198835838  0.572206044631938  0.558095112784363  0.524326221656845  0.481553627277388  0.482639466378803  0.484094450025964  0.48596472404978  0.488048941046518  0.489918271309224  0.491108103403018  0.490000000217889  0.490000000231932  0.490000000032448  0.489999999483531  0.490000000885958  0.489999998428178  0.490000000536859  0.489999999249741  0.490000001998799  0.489999999021229  0.490000001217448  0.489999999862254  0.490000000584024  0.489999999599517  0.490000000485835  0.490000000692454  0.490000001579417  0.489999998700551  0.489999999838962  0.489999999220134  0.490000000859731  0.489999998770492  0.489999998727707  0.489999997631195  0.489999998887212  
0.489999999960396  0.490000000147163  0.490000000183533  0.490000000215493  0.490000000241707  0.490000000260406  0.490000000269198  0.490000000264778  0.49000000024246  0.48999999704263  0.489999997238563  0.489999998094611  0.489999999350273  0.48999999948346  0.489999999243643  0.489999999065118  0.48839966463754  0.546118133231904  0.626228029542517  0.71221724602693  0.791154228879286  0.844459818605292  0.877818305608761  0.909903218815954  0.934894163937319  0.965020216895677  1.02693373710888  1.10014729501299  1.15401486636156  1.17679483770706  1.16572094173943  1.14469983587196  1.15758419570518  1.17821469161867  1.19984690766743  1.2282932353024  1.27546847249242  1.3087798452292  1.33961557467621  1.35352064481332  1.35651582913067  1.36297641314189  1.53586835959047  1.63887030844587  1.74083131860195  1.76403061047249  1.84358882590013  1.8515556490435  1.89016298409592  1.90442459567223  1.89325217283719  1.85457178706546  1.78942351431019  1.78861609466844  1.75638515812996  1.60307297687949  1.44022760987348  1.28876745045472  0.902305932936009  0.847658019182227  0.786850551058611  0.733482746972755  0.690645704227259  0.645829425217214  0.642638006504214  0.597920446425496  0.578607460979339  0.536740889985113  0.48145505363663  0.482240089477227  0.483273716931099  0.484481533806864  0.486211236239948  0.488403253173832  0.490540523690709  0.491490174132114  0.489999999540114  0.490000000155468  0.489999998734129  0.490000000026363  0.490000001521419  0.490000000751291  0.490000000856736  0.489999999648153  0.489999999455064  0.489999999264427  0.490000000495942  0.489999998378448  0.48999999966087  0.489999999795549  0.489999999052352  0.490000000930446  0.489999999690552  0.489999999449301  0.490000001074314  0.490000001028874  0.490000001028276  0.490000001135391  0.489999999706206  0.489999999238509  
0.490000000795158  0.490000000932166  0.49000000163066  0.489999999265052  0.489999999258959  0.489999999253371  0.489999999248538  0.489999999244847  0.489999999242912  0.489999999324463  0.490000000095751  0.49000000049876  0.490000000769128  0.489999999914164  0.489999999790201  0.489999998259589  0.490000000776223  0.551191914151654  0.641952656102832  0.743264370776688  0.846592075176966  0.896360011384508  0.922834334523517  0.952416041898425  0.985971660020131  1.03067446234058  1.09310215944895  1.16813468462201  1.23677626866629  1.27075700130268  1.25363824049739  1.21151883710115  1.24009684381632  1.265369416985  1.29136022290454  1.32459632794281  1.37663164664708  1.41436415154627  1.45258656184796  1.48534498932966  1.50449564286807  1.51537011565222  1.66598507536597  1.76006406519402  1.79848342702579  1.84673435005599  1.85878794087811  1.90007335601308  1.92508595929885  1.93534150358014  1.91693937713165  1.87732467300443  1.81043574573688  1.81842633678156  1.72553099982799  1.65863877254556  1.51099530502673  1.38063835973856  0.999180955570215  0.927500099199519  0.857495232837729  0.793931805984663  0.738722484205364  0.683797181390726  0.666449345431894  0.620835903912161  0.59690576799091  0.552026269765041  0.481003451221252  0.481827886850283  0.482272721400042  0.482817723880131  0.483657831312184  0.484606201147788  0.48607279002697  0.489602899495719  0.490000002697099  0.490000000238955  0.489999999204546  0.490000003668129  0.490000000460822  0.490000001378905  0.490000000751954  0.49000000088934  0.48999999951779  0.490000000638134  0.489999997720427  0.490000000439923  0.489999998022824  0.490000000767023  0.489999999442501  0.489999999827667  0.490000000913668  0.489999998162812  0.489999998960112  0.489999998769188  0.49000000037274  0.489999998724043  0.489999998659756  0.489999998825797  
0.490000001207042  0.489999999794073  0.489999999788591  0.490000000592627  0.490000000607685  0.489999999812522  0.490000001202518  0.490000001160086  0.490000001106772  0.489999998988307  0.489999998948291  0.489999997610465  0.489999999905874  0.489999999662155  0.489999998869209  0.489999997641586  0.489999999315994  0.55041508194014  0.646637666603046  0.752374001328341  0.854238912580716  0.912799951064191  0.949349078066915  0.987677527941411  1.03004594366036  1.08428450037704  1.15440690668287  1.24228934194811  1.33451257898328  1.40298189307126  1.39591981575607  1.35752118200101  1.34833371591434  1.35992115662198  1.38104407076134  1.41382810754264  1.46993907282028  1.50775757450357  1.555962737113  1.60817715974542  1.6447194233906  1.66329185382403  1.78909148385478  1.82507169707817  1.87591828544361  1.89594531211126  1.93776600530244  1.96820235216571  1.9871026083355  1.98432052849112  1.96299440577403  1.91906691212623  1.85195108128543  1.77113828120728  1.78013744938657  1.73566367828381  1.59650879888318  1.46173477990447  1.08771544615292  1.00963256906641  0.928998515596024  0.856273385652207  0.79229115281678  0.727801866976486  0.699887077614982  0.641019016189322  0.610271890408607  0.559545343731052  0.480690772883702  0.480899229328419  0.481064826634163  0.481057749958597  0.48085652500139  0.480812416078957  0.47962448499247  0.483622137676184  0.490312881836229  0.491394963455373  0.489999999796516  0.490000001786467  0.490000001667418  0.490000000607102  0.489999999589778  0.489999999965541  0.4900000015018  0.490000001239755  0.490000000934953  0.489999999786097  0.490000000108329  0.490000000399545  0.49000000046659  0.490000001127826  0.490000000452647  0.490000001852309  0.490000002077596  0.490000000905586  0.490000000827032  0.489999999954014  0.490000000041636  0.490000000022982  
0.489999999670794  0.48999999727575  0.489999997265612  0.48999999725794  0.489999997253405  0.489999997252886  0.489999997257546  0.489999997268954  0.489999997289276  0.489999995807842  0.490000000026334  0.490000001026633  0.490000000757895  0.489999999661895  0.490000000259789  0.490000000254583  0.473934604658198  0.545395209139779  0.645730842703027  0.749613151593209  0.843851834613482  0.915196648667927  0.967948707902972  1.013677584134  1.06314565315534  1.12329777600912  1.20101099338968  1.29994556644102  1.41446425424355  1.5423063202693  1.52151685978983  1.46877491549633  1.44672260551467  1.44582924889563  1.46183835986002  1.49337365400754  1.54871033893447  1.59024537745333  1.64676545874974  1.71759168276828  1.77766846211274  1.8012857331149  1.8970347007277  1.92581407409918  1.95023929084671  1.98886343685898  2.02453181006402  2.04749750014912  2.05948631454389  2.0533319407717  2.02372734991857  1.97833903999029  1.91207500071257  1.83238387106512  1.85497913507132  1.80130046408219  1.67135237308395  1.53867493509765  1.17492733492647  1.08970795652104  1.00336156225915  0.926057450502836  0.848077369351824  0.772640537713042  0.732741838154297  0.662135691688991  0.61812233513861  0.559208754626287  0.480337605902576  0.4799999997948  0.48000000022452  0.480000000331628  0.479999999712389  0.479520883002395  0.478575224181304  0.479143874218234  0.487001705251643  0.48989933900571  0.490628821028619  0.490000000413134  0.489999999438196  0.489999999968995  0.489999999772576  0.490000000582379  0.489999999092584  0.490000000444477  0.489999999131686  0.489999999840923  0.490000000018769  0.490000000105278  0.489999999355799  0.489999999021302  0.489999997902453  0.489999999619693  0.489999999670323  0.49000000123336  0.489999999794551  0.490000000590506  0.489999998696648  0.490000001068322  
0.489999996899123  0.489999999089754  0.490000001644114  0.490000001530761  0.490000001596587  0.490000003959784  0.489999997857653  0.48999999785926  0.489999997866201  0.489999998336941  0.489999999100353  0.489999997858035  0.489999999978058  0.490000000096985  0.489999999087874  0.489999998666913  0.463472310945756  0.539969605958257  0.644222109859129  0.749024591028266  0.844184558465609  0.924550644313958  0.986228609742485  1.03827684380908  1.08980442487927  1.14732691635866  1.22734393155167  1.3264319398409  1.43424546054625  1.52592447569353  1.54768146132696  1.52781666657788  1.51186550992235  1.51082866652551  1.52483299809717  1.55773845502472  1.61168693477068  1.66110487533159  1.72109307493504  1.79652461759061  1.8659556946355  1.89985599795612  1.99227029956944  2.00819371687707  2.0600940761744  2.10270009952933  2.13598152860258  2.1571975341754  2.16495654940884  2.1514094462658  2.12153096500699  2.06938308612269  2.00742524009414  1.92164376841897  1.93556726392236  1.87013305908768  1.74186890372653  1.64393009353588  1.25293092728489  1.16502449728924  1.07303160620601  0.987701240049713  0.901519087475455  0.817468567005311  0.755396274726863  0.680213290080727  0.608246656163062  0.5559151185774  0.480000001384698  0.480000000859262  0.479999999883087  0.479999999761162  0.480000001787063  0.479540609427179  0.478771780480408  0.479834444814646  0.483423667094477  0.487221416609508  0.489405445608451  0.490031517802548  0.490349937172283  0.490000000090431  0.490000000056951  0.490000001091123  0.490000001808368  0.490000000230603  0.490000000014072  0.48999999967112  0.48999999993297  0.490000000073574  0.490000000122379  0.490000000547236  0.490000000499679  0.490000001037122  0.490000001358116  0.49000000137153  0.490000000519767  0.490000000512968  0.490000000161661  0.489999998968995  
0.48999999767696  0.490000000347655  0.489999998033086  0.489999998800593  0.489999997556966  0.489999999223305  0.490000000512779  0.489999998761655  0.489999999785289  0.489999999771418  0.489999999821295  0.489999999491028  0.490000000946001  0.489999999874142  0.490000000134315  0.403297157723489  0.460807346733627  0.541369959726578  0.649595601716331  0.758729330865355  0.858024747567693  0.941684380696322  1.00628774554779  1.05863462859545  1.10916160585995  1.16448454557289  1.23820203974306  1.3278306256787  1.42163747364651  1.49862290756203  1.53963576454311  1.55079901208953  1.55274102103655  1.55914127810637  1.57354575068713  1.60455156924548  1.65872348396796  1.70973573183849  1.77170344363622  1.84953764337168  1.91034749746711  1.95928304895141  2.06322139844345  2.09799450669012  2.15053010982984  2.19553152524568  2.23114939697819  2.25296379212538  2.25565972543584  2.24211838423557  2.20566817859968  2.15776979141829  2.09341765439231  2.00443249580845  2.00944250785849  1.90743886789415  1.81217879006108  1.68414372350343  1.52810459408257  1.24798873461297  1.15002606884961  1.05313873673526  0.959591325913234  0.860313090428282  0.788320886054945  0.702720103422613  0.617252272839756  0.548478824864547  0.479999998983463  0.47999999936844  0.480000000207299  0.480000000314825  0.479999999390308  0.479529984544499  0.479616328788411  0.479585344898711  0.481692439601516  0.484850902943188  0.487328531960138  0.488901929233828  0.489688495319551  0.489889342238352  0.490075485726747  0.490268624927946  0.489999999318151  0.489999999832819  0.48999999946127  0.490000000656402  0.489999998912549  0.490000000991821  0.489999998127811  0.489999999068869  0.48999999965305  0.490000002544137  0.490000002555561  0.489999999012658  0.489999999878666  0.489999999880109  0.489999999102848  0.489999999746002  
0.490000000412515  0.490000000549848  0.489999998990213  0.490000000365492  0.49000000096516  0.490000000395919  0.489999999603389  0.490000000385169  0.490000000389407  0.489999999790332  0.489999999542789  0.489999999168841  0.490000000429073  0.490000000006038  0.490000000054556  0.40147494309928  0.457473586412339  0.548038696717485  0.664365259300655  0.782062198220939  0.88821120040955  0.97496894062099  1.03768642414158  1.08429616284538  1.12762524216556  1.17337649496842  1.23554847103462  1.31757235123228  1.40550063310307  1.48040674842325  1.53200895693243  1.56105761618373  1.57526802875586  1.58817701208242  1.60690976088341  1.63738365626705  1.68961867683856  1.74157320467489  1.80478724903813  1.87393825110605  1.95352936576597  2.00798509885036  2.13203456098024  2.1740869693653  2.23670645182692  2.28969597753279  2.33090622262569  2.35271302962265  2.35705517323801  2.33863242626913  2.30633380694392  2.25107150457605  2.17894108440379  2.08750936974039  2.08171958780947  1.98274423982079  1.8837856213391  1.75356251450207  1.59444276008462  1.32646696756781  1.22156932186845  1.11690976243867  1.00352946023243  0.904713368641374  0.820493494125564  0.723875286278984  0.627589204557142  0.545292371354483  0.478819051908842  0.479999999166841  0.479999999677238  0.479999998164747  0.480000000550974  0.479654224334371  0.479999999815248  0.479939018719329  0.480774912626347  0.483527187954862  0.485758082024989  0.48747458004957  0.488613407163897  0.489278190612325  0.489681936347216  0.490034181187061  0.490385021780766  0.489999999879755  0.490000000036063  0.490000000587089  0.4899999998798  0.490000001011548  0.490000000827915  0.49000000190659  0.490000000560472  0.490000002065836  0.490000000313629  0.49000000144396  0.490000001449868  0.490000000603977  0.490000001500983  0.49000000112352  
0.489999999047634  0.489999999870494  0.48999999921265  0.489999998934789  0.489999999344157  0.489999999237885  0.490000000185743  0.489999999692612  0.48999999974998  0.489999999887353  0.489999999955354  0.490000000020533  0.490000000070611  0.489999999760595  0.354918892974377  0.399228949978086  0.457835912038259  0.559247821308668  0.691741159940783  0.823509736946193  0.940812883559343  1.03049202159983  1.08751773768717  1.1203971829051  1.15524022972203  1.18484629340815  1.22500368909679  1.30774894826956  1.39828925639254  1.47390301320316  1.53060202994219  1.56847992646167  1.58746981288822  1.60422685790688  1.62480068012043  1.65703115817971  1.70574613219757  1.75692428253492  1.82233385067901  1.89681714063233  1.98691756322677  2.06309527386793  2.16676420489127  2.24710839615918  2.32196145635726  2.38610284444844  2.43592664784003  2.46483773836009  2.46880606973146  2.45373914969646  2.41393854262778  2.35462554848475  2.27238344201483  2.18176539577767  2.07306629884591  2.05639807431044  1.95193785207986  1.82617576614349  1.66403761565895  1.40324302252215  1.29105014509671  1.16901138439568  1.05593882034338  0.947990543857258  0.855387890179121  0.749130847241166  0.641597519975472  0.545264200624542  0.475359860411072  0.479999999861168  0.479999999075366  0.480000000247227  0.480000000335589  0.479999999994896  0.479988233866811  0.480136072841164  0.480937381403558  0.482867300105332  0.484906942207043  0.486457223982652  0.48827910284309  0.488908242867738  0.489371929186342  0.489740512179748  0.490162659077182  0.489999999813193  0.490000000270248  0.490000000494791  0.489999999763342  0.490000002752685  0.489999999295568  0.490000000299079  0.489999999354307  0.490000001136002  0.489999999662743  0.489999999659126  0.489999997825493  0.490000000383445  0.490000000387403  0.490000001591793  
0.490000000261203  0.490000001130168  0.490000000994272  0.49000000034755  0.489999999662812  0.489999999562044  0.489999999267167  0.489999999946699  0.489999999943925  0.490000000160865  0.489999999667239  0.490000000311911  0.490000000142718  0.490000000221955  0.350073414962735  0.39482518237952  0.463169569898925  0.582083052268402  0.729142788641562  0.878445262031412  1.01348111688739  1.11552242171013  1.17039100495228  1.17976854196421  1.21604834311533  1.22893774154253  1.22377367985979  1.32358001393172  1.41130859497474  1.48218132588972  1.53613419826138  1.571993795221  1.59627677216352  1.61138366645398  1.63189234754073  1.6627791231771  1.70740869469538  1.76003696926901  1.82816270391068  1.90933835003124  2.01057139003157  2.09860829142137  2.21480374661007  2.31460561998979  2.40461980942922  2.48029400387708  2.53871485080143  2.58056296278238  2.59452435378776  2.56717498233786  2.52623108932869  2.45716805634062  2.37445245869915  2.26902705202427  2.15010850846234  2.13881196057363  2.13664693711681  1.98557431436584  1.7286819137829  1.48797547919066  1.36914070323392  1.25039779279244  1.13172029118136  1.01555960626272  0.898348049921073  0.79477289198821  0.675430647499415  0.5632739453906  0.470967012598301  0.434757302628719  0.429135338038048  0.480000000174649  0.479999999561308  0.480000001008516  0.479996856771608  0.480422341317344  0.48116205815363  0.482788862018894  0.484466435646296  0.485911901016236  0.487731221852972  0.488461314274653  0.489039136059222  0.489505914186593  0.4900126069313  0.490000000154442  0.489999999733894  0.490000000351573  0.489999999635239  0.490000000577566  0.490000000110068  0.490000004265529  0.489999998903777  0.489999998930015  0.490000001599485  0.490000001593396  0.490000000236787  0.490000000234664  0.490000002105452  0.490000001042432  
0.490000000029355  0.490000000739273  0.490000000606232  0.489999999974502  0.490000000259878  0.489999999844886  0.489999999805348  0.489999999797974  0.490000000128909  0.490000000091962  0.489999999981915  0.489999999933641  0.49000000021273  0.337345446152701  0.357945915044969  0.406257813225428  0.479104614773602  0.612761153913735  0.77426395715016  0.942376705442112  1.10365188670137  1.23086914072394  1.29372348291701  1.31522803552069  1.32676909877396  1.33100220582526  1.34117586604791  1.38682549751542  1.44734778518393  1.50549963877185  1.55241386102006  1.58209605702682  1.60128587695097  1.61667862212498  1.63106326859642  1.65864197656882  1.69936861657393  1.75067938283864  1.82116795316778  1.91020890908179  2.01576797144229  2.13347423368868  2.26523103684277  2.38028518599588  2.49138965174649  2.58425000416994  2.66314317045089  2.70558230158305  2.71579552454955  2.69692782378485  2.64372353872304  2.47318046066871  2.46772869375168  2.35649233186323  2.46985313203266  2.33944090744765  2.18852124289299  2.04778431087168  1.80014282978272  1.56993740819305  1.44574281921917  1.32154447638796  1.1973139785083  1.07532709277877  0.951991143131362  0.840558183893078  0.718578685343601  0.602590788081235  0.501566494005489  0.448522944133535  0.432072739354826  0.433858279026461  0.480000000477194  0.479816319369292  0.480122640060234  0.480682985695265  0.482488453436556  0.482783263952107  0.484111125096317  0.485538076217693  0.486632108113975  0.488145645256715  0.488831346768536  0.489354081287134  0.489892749666763  0.490000000147028  0.490000000302402  0.490000000675016  0.490000000723019  0.489999999848566  0.489999999738239  0.490000000119205  0.489999999525049  0.489999999303869  0.489999999306733  0.489999999813616  0.489999999815557  0.489999999819161  0.48999999841179  0.489999999809786  
0.49000000090225  0.489999999357335  0.489999999345465  0.490000000159986  0.490000001231049  0.490000002172882  0.490000000323925  0.490000000576949  0.490000000175546  0.490000000717655  0.489999999902746  0.490000000350644  0.490000000035624  0.342804063734931  0.376982469402285  0.423711666646036  0.501609917353833  0.648726550989178  0.818388545049711  0.998625159074678  1.18417006204827  1.36275853827312  1.41745684062433  1.44272344823555  1.4448336930106  1.44483318453393  1.44181432394863  1.45438535612816  1.49162418041713  1.53803093935003  1.57935496709603  1.60325566853956  1.60882691152528  1.61515841843115  1.62928171312977  1.65231516319603  1.68293654382062  1.72986752680345  1.80129995954119  1.90061522711102  2.02118480626334  2.17872686263746  2.31287473567106  2.44851793974793  2.57724458830432  2.69736181226864  2.78533232426078  2.83853564158918  2.85286938094171  2.82437137024517  2.75831258151771  2.60542426749469  2.56536398750223  2.62816494344906  2.52515567135917  2.39742775718608  2.25165630560305  2.11160138351842  1.83793585372741  1.64747191378653  1.51869390091648  1.39027967019597  1.26207915820436  1.13714302187842  1.01107232394206  0.895806002155822  0.773924966937791  0.658791153139975  0.548260402741592  0.473458419543072  0.455187414821078  0.455540144732795  0.479867063145985  0.479927571896168  0.480321342390002  0.48098748405517  0.48253103074694  0.48376209670861  0.484127679517366  0.485419424005819  0.486442663453877  0.487985265994152  0.488687590456565  0.489247730766252  0.489795968691155  0.489999999495771  0.490000000253221  0.489999999944845  0.48999999946524  0.490000000634306  0.489999999256438  0.490000003984199  0.490000004191259  0.490000004075374  0.490000004041933  0.490000004006793  0.490000003970753  0.490000003934327  0.49000000389786  0.490000004436594  
0.490000002114392  0.490000001107093  0.490000000707179  0.489999999555391  0.489999999580024  0.489999999705061  0.489999999614019  0.490000000082459  0.490000000285511  0.489999999561328  0.489999999748449  0.490000000039043  0.376904301709076  0.394341435031087  0.410993544870737  0.456737872619617  0.54569265111067  0.690249091998752  0.854994635994985  1.03079450610626  1.20937472188022  1.36639148200644  1.47052467303595  1.51585022964739  1.52336120570452  1.53730245502953  1.50757063890598  1.48913239612054  1.51855879928975  1.57404785275527  1.62113019462479  1.63506777304916  1.6214485732288  1.61300755222472  1.62483966021717  1.64207084360833  1.66273174796888  1.69913887069234  1.76771284311021  1.87893469678441  2.02145450405843  2.1745159795798  2.35323481368982  2.507672090098  2.66277968707213  2.79708943042788  2.91339522268582  2.99637073398508  3.02646272964273  2.95164078008477  2.83390397529335  2.73651810185309  2.79352620161534  2.69157276677696  2.58512056543071  2.45521343707505  2.30645434374952  2.16118662471272  1.90493879329261  1.72477575423414  1.59199663893141  1.46126988496874  1.32893149929992  1.20145694831391  1.07392608098481  0.958677454958637  0.84081851799358  0.729394770237639  0.624197707106241  0.545022916298549  0.506027620157384  0.488382271013917  0.484056307518451  0.48094574784723  0.478642776691667  0.47818370826977  0.472567788159269  0.471187129983809  0.474603785455944  0.476778310204352  0.47442023083469  0.610405127382357  0.575620822467694  0.548536076076892  0.511039887360309  0.490000001073131  0.489999999938947  0.489999999569943  0.490000000357071  0.489999999827905  0.490000000387317  0.49000000070998  0.490000000748506  0.490000000063597  0.490000000066655  0.490000000068493  0.490000001160507  0.489999999928009  0.490000000824231  0.4900000001593  
0.489999999519902  0.490000001140197  0.490000001105949  0.490000001224037  0.4900000011084  0.489999999719494  0.489999999739086  0.48999999905245  0.489999999261079  0.490000001381645  0.490000000064285  0.490000000085088  0.401880201090275  0.420444028664977  0.457178298050368  0.507151088496895  0.601882768840574  0.729422458490038  0.878335858494801  1.03768724171376  1.19497209985942  1.33209511339713  1.43117004390868  1.48761949407557  1.51890861503331  1.55251616380912  1.48597290341493  1.45326377799645  1.51122032564267  1.60710862690292  1.67937339433538  1.69464692985515  1.6551509289405  1.62451790566908  1.63463767897124  1.64141873595582  1.64711816177062  1.66331087011496  1.71922463463389  1.84971559014794  2.02225948630048  2.19581228625232  2.39969788995717  2.57385507377078  2.73944660811476  2.89229753940309  3.02771106935358  3.1362098863289  3.14554847876271  3.05400587906629  2.95613715833156  2.86289364308663  2.86078109970025  2.75029559552373  2.63193806373253  2.50901157279701  2.3687087844275  2.22371119697538  1.97301786493081  1.80025284689136  1.66641106719459  1.53373050178764  1.40085561737514  1.27220801768449  1.14621933865233  1.03089381477635  0.914517499469924  0.808430266868805  0.705789398011671  0.62745179604542  0.566134654341296  0.534980344722344  0.509741951839272  0.500921227415135  0.50302308610215  0.495623408168566  0.486398626666047  0.486855896296853  0.488489238217796  0.486354229900957  0.486477302978637  0.489291722459813  0.586910370518119  0.555581934810707  0.51444031510589  0.490000000711553  0.490000000292855  0.490000000451502  0.489999999813972  0.490000000141101  0.489999999142757  0.490000001465217  0.490000002052062  0.490000001972536  0.490000001963654  0.489999998894573  0.489999999564551  0.489999999589971  0.4899999990451  0.490000000024326  
0.490000000616651  0.490000001679828  0.490000001662651  0.490000000401877  0.490000000400233  0.489999999370084  0.490000000239928  0.490000000221168  0.490000000189064  0.490000000181202  0.489999999555377  0.385926658675285  0.417016648009783  0.444527844172762  0.486975208262326  0.552208102551911  0.642572647252035  0.75699950244074  0.887396090478251  1.02695511332072  1.16426048410944  1.28321157084265  1.36578653131225  1.41651351800956  1.43983977780216  1.42421593436307  1.34168733082425  1.32302667003142  1.46865185529595  1.6421944347506  1.765014273338  1.78160257578012  1.73038175729114  1.68502214760239  1.66440490475896  1.65707513068437  1.6511308156514  1.64471294987706  1.65408372154716  1.83662049069748  2.04080940558108  2.22959777297907  2.45171775185002  2.63693863830817  2.81334472741119  2.97085249055776  3.12384583341737  3.24349422965751  3.24729758939547  3.16077416841931  3.06127687960681  2.95422618866419  2.91014047315979  2.80071765952758  2.67772487954358  2.55761435120523  2.41019635825014  2.26544399111206  2.0101508726168  1.87033996903591  1.73415656697244  1.60057788031835  1.46891829832411  1.34023103039915  1.21604667308616  1.10329361656874  0.894851725335007  0.817795791998769  0.715440772981699  0.64757256428391  0.605228474458817  0.57080332597566  0.542377785551096  0.534392511431595  0.533320868060029  0.521736322782475  0.510504559656315  0.505251685259562  0.503270940551484  0.50242207400975  0.501435024916335  0.48147456584066  0.595333109825799  0.561021114976025  0.517034768190218  0.489999999223844  0.490000000231555  0.49000000006542  0.490000000106555  0.490000001519723  0.489999999949212  0.490000000598252  0.490000000521577  0.490000000860699  0.489999998517884  0.489999998595322  0.489999998910132  0.489999999877593  0.489999999833513  0.489999999920266  
0.490000000607852  0.490000000342092  0.490000000316424  0.490000000014437  0.490000000077441  0.490000000149025  0.490000000228593  0.490000000313381  0.49000000039625  0.490000001246086  0.489999999785673  0.441748939194759  0.460049085993339  0.478343409959772  0.511629898952732  0.582238851721716  0.668725854355991  0.76836543971012  0.881760579317382  1.00155496168241  1.11908009193209  1.22531468921698  1.28771206147238  1.32685140451498  1.34249648724964  1.32604988230861  1.20320482909792  1.11359535955033  1.43999204795039  1.67295792249025  1.88142900002733  1.86331377079895  1.77980537128677  1.72338461376775  1.69527072585036  1.68572075404276  1.68395962378706  1.69204622311997  1.74129496697625  1.89466590336515  2.09238979725033  2.28059860060024  2.50955193771188  2.70025346467572  2.87536784327388  3.04594308273506  3.17577750301964  3.26677134133404  3.27566192958442  3.21589400689177  3.12587184573851  3.02227819996754  2.95450377154333  2.8353879370294  2.71158163881813  2.5979892445059  2.45157454510741  2.30990984615605  2.07097325722637  1.93259611506097  1.74240999542494  1.61148122757852  1.48292865060637  1.35750966313543  1.24034770759702  1.13002296795438  1.02650519692373  0.860155601311103  0.761522837007593  0.697614132737021  0.61991809402781  0.581276012360445  0.540521373258668  0.533780610335142  0.530565611829497  0.517803727218178  0.492100370581193  0.486518563655091  0.482901181939921  0.483298935789438  0.48386873309854  0.487539579248626  0.509190893465599  0.569570609452716  0.490000000264037  0.489999999836871  0.490000000522434  0.48999999973419  0.489999999364511  0.489999999614265  0.489999999595385  0.489999999964873  0.489999999179359  0.490000000032603  0.490000000208433  0.49000000049847  0.489999998907777  0.490000000083784  0.489999999803619  0.490000000133343  
0.490000000786777  0.490000000671533  0.490000001729537  0.490000001716044  0.490000000071834  0.490000000082559  0.49000000008669  0.490000000082626  0.490000000068632  0.490000000076683  0.490000000009416  0.455356586731791  0.470157564463018  0.489957213560932  0.537117846420647  0.603559839122836  0.682686341168433  0.764912413900086  0.862250584419552  0.962771183378952  1.05949931981446  1.14176935235424  1.19870932145378  1.23367029584477  1.24711790078827  1.24336894698271  1.19374592471788  1.33492973714157  1.46913953816274  1.61270499705384  1.7856066826845  1.80188453690476  1.75292499322719  1.71897544468392  1.70226629476377  1.71488629368328  1.73350165569257  1.77274122556009  1.85616009509663  1.99031095468292  2.16720566322133  2.3443542952175  2.57301400798675  2.77471752941494  2.95116495803512  3.1012616185629  3.22293948535511  3.28755665344426  3.2967870955532  3.24611988348275  3.16667250767786  3.06930280553157  2.98196193778343  2.8603799431796  2.73099692607826  2.59776427037832  2.48725091425213  2.3457592402479  2.12444801362569  1.98592485100601  1.7934041177339  1.66371135072415  1.53670131674685  1.41361532090437  1.2988805997327  1.18958732579608  1.05313627889078  0.95245966640516  0.775543464609905  0.70907162863896  0.657339712965666  0.614174127713284  0.568783178162062  0.562029275190004  0.55461440464613  0.538740567462631  0.510098572210423  0.497982880244339  0.493073916407357  0.489637771645016  0.488383388712363  0.491842118526537  0.517766820815883  0.579356239921359  0.489999999674707  0.490000000715662  0.490000001031469  0.490000000152659  0.489999998128923  0.48999999955245  0.490000000554526  0.490000001374797  0.490000000480172  0.489999999864494  0.490000000006273  0.489999999495396  0.490000000851846  0.490000000491078  0.49000000014199  0.490000002128815  
0.489999999159613  0.489999999221525  0.489999999730829  0.489999999738378  0.489999999745739  0.489999999751758  0.489999999754552  0.489999999751567  0.489999999740461  0.490000001068288  0.490000000143308  0.477304117742764  0.485309976583258  0.494930793121887  0.557241274606035  0.616864142592528  0.688537293132771  0.752140131558508  0.833774699693957  0.916248023086583  0.993729345350705  1.06057253468929  1.10929508389722  1.13937750349427  1.15529255403711  1.16179029499209  1.17628337031205  1.25840201713941  1.33064202163993  1.41671989759696  1.53987669943041  1.62368018220392  1.657908070133  1.67520053412604  1.69096370773604  1.73659834951507  1.78154087744385  1.84626258266377  1.94751952757438  2.07742375294651  2.2425109294198  2.40839638751574  2.62593718297937  2.83261373516393  3.00701961597252  3.15705529535277  3.26220614453553  3.31679393739392  3.31894388672349  3.27465523370727  3.20031627723653  3.09672631243116  3.00269272286399  2.87904328644417  2.74874129217513  2.61322012165676  2.50848366269082  2.37642311643502  2.16872003458909  2.03191658648815  1.90263870236994  1.70971826327807  1.58556085277713  1.46418024124696  1.35143416047878  1.1983711234841  1.09178761443495  0.937448221715988  0.813890361841291  0.745632843219915  0.691816860701473  0.645402706420371  0.596670420167039  0.585320778513748  0.573660280728728  0.553550027511266  0.527902818270688  0.51370410379683  0.504023045500873  0.498376921429071  0.494842062206625  0.497392219262196  0.523904227459573  0.488768113812311  0.489999999168378  0.48999999965473  0.49000000017325  0.489999999723481  0.489999999290273  0.489999999954178  0.489999999823411  0.490000002457998  0.489999999920768  0.489999999601212  0.490000001022368  0.489999999379735  0.490000000010013  0.490000000868362  0.490000002062953  0.490000002001707  
0.490000000553491  0.490000000468644  0.49000000044606  0.490000000419467  0.49000000038878  0.490000000354295  0.490000000316885  0.490000000278095  0.490000000239794  0.490000000183418  0.481210965646952  0.480810961072561  0.489742532195787  0.524070978948972  0.567604346469987  0.621326311084179  0.684759929268457  0.731026256234243  0.798663792703981  0.865690667214198  0.928773217055329  0.983781109884864  1.02388198981189  1.04850046537949  1.06237057743245  1.06933227214076  1.07207265487149  1.08726062939024  1.09168833011648  1.14239879727935  1.29726163559247  1.44278741564605  1.54337887663713  1.6121469028744  1.66715994079662  1.7138225962848  1.81643883298579  1.90105385944464  2.01437063059542  2.14387821980802  2.30366676331036  2.4539363348032  2.69414459261355  2.88394332952012  3.06660825734701  3.20983887400097  3.31010516026831  3.35627512954901  3.347228523162  3.29551826208411  3.21881224172952  3.1198721041852  3.00481068297274  2.88777723965316  2.75644030934249  2.62120552819703  2.52287425500447  2.39108765781137  2.20398547056693  2.06986656411571  1.94402932609282  1.81662865063093  1.62842017849388  1.49540173326116  1.34033943322961  1.14871204647813  1.05721210215448  0.971175351153274  0.846604075401727  0.777553283081161  0.72232529801409  0.673280540167856  0.622098397580286  0.609529225179964  0.586960249216521  0.562586857447717  0.54542904775687  0.527460948520499  0.515004654534253  0.506237380886821  0.50093896700558  0.50333774100664  0.53269606795466  0.488684712141099  0.489999999942993  0.489999998382467  0.490000000105134  0.490000000438623  0.489999999969367  0.490000000297495  0.490000002065084  0.490000001092024  0.489999999612313  0.489999999590489  0.490000000476666  0.489999999536797  0.489999999735984  0.48999999973554  0.489999999149892  0.489999999224567  
0.489999999385825  0.490000000004932  0.490000000013017  0.4900000000226  0.49000000003335  0.490000000044541  0.490000000054774  0.490000000061543  0.490000000061827  0.490000000081751  0.482832716844912  0.483767752972649  0.495621474433517  0.535930267782099  0.576550924289587  0.623206972843856  0.687186272901882  0.707605381747605  0.762764863927187  0.816279305914691  0.865663531112921  0.911351761883159  0.943551143195337  0.963333613900911  0.973588207981518  0.974851770572245  0.958465214561729  0.940520506458923  0.895891139345458  0.887152802835077  1.11463644030834  1.30273500283838  1.44394895137194  1.54742038463767  1.63325037422219  1.709176980833  1.77062656155426  1.93507884423349  2.05543779714612  2.18470876695259  2.3418890873688  2.50095917017984  2.73422592510595  2.93464747289918  3.12081993160302  3.27293106068238  3.37187785468034  3.40606604590152  3.38076540229681  3.31374248191159  3.23219896406362  3.12727709332579  3.00837824985965  2.88875652574429  2.75839739093209  2.62581892142846  2.53776342196701  2.40810206570957  2.2232918290066  2.09795501856584  1.97681335010801  1.83543938657377  1.64739781326043  1.46692496332016  1.2701399526218  1.17602185534708  1.08463788859873  0.999304022906681  0.874369934553783  0.804661321996687  0.748500781858389  0.697705698701903  0.644506149909395  0.629035209806653  0.60946559008994  0.57404712993013  0.559638283395019  0.541710498525968  0.526939224167283  0.515154068782305  0.507336912955183  0.510231323156171  0.54482482853597  0.48858372580663  0.490000000565632  0.490000000539693  0.49000000042771  0.490000001118081  0.489999999936487  0.489999999193959  0.489999999792063  0.490000000552546  0.490000000012777  0.489999999650162  0.49000000056445  0.489999999263617  0.48999999919867  0.49000000021672  0.490000000228567  0.490000000238317  
0.489999999062074  0.489999999142968  0.489999999229667  0.489999999325245  0.489999999429698  0.489999999542069  0.489999999659833  0.489999999778101  0.489999999888601  0.489999999738467  0.484499428601144  0.490027236926265  0.49696145470271  0.543271578828455  0.578457031370288  0.616425016911699  0.662556808713057  0.685584466203495  0.730245281847207  0.772671599390532  0.810798107155812  0.845041678260175  0.870244770779735  0.888412602667601  0.894113754999169  0.892635029783023  0.871849323979456  0.854766996572002  0.841770864214492  0.888846915315295  1.03682896662416  1.21233282835642  1.36460032764764  1.48647576545571  1.59795866236269  1.70072070377444  1.77722375543968  1.83108931804293  2.06913300634434  2.19599649976516  2.35060521465562  2.51013357097651  2.75271087806452  2.95322381747266  3.1524100218154  3.32495778577359  3.43635340945515  3.45396163899181  3.39869827385849  3.31451583387605  3.22376651365228  3.1167547891886  2.99784823708075  2.87397528413645  2.74225040723953  2.61155807889011  2.53123725989575  2.40706162741419  2.23913853713164  2.09766820919319  1.97432366299936  1.78779806755073  1.64169470232979  1.38755676917557  1.2892208908643  1.19684706270549  1.10536659438436  1.0228891021816  0.897082821119262  0.827591091982089  0.770744808305546  0.718545243831348  0.664315248261266  0.647733874834061  0.623862197291383  0.590709625430581  0.571603497930137  0.555213263067257  0.537677260969011  0.524818073175259  0.514482674433086  0.516712419124401  0.48820599222981  0.488490674458459  0.49000000003226  0.490000000472991  0.489999998182876  0.48999999972444  0.49000000025271  0.490000000275173  0.490000000468643  0.490000000780524  0.490000000388576  0.490000000383154  0.489999999897844  0.489999999880642  0.489999999868805  0.489999998866246  0.489999998765831  0.490000000371645  
0.489999999896764  0.490000000015999  0.490000000067256  0.490000000137815  0.490000000232625  0.490000000357811  0.490000000521173  0.490000000733701  0.490000001009973  0.489999998488826  0.486279813556958  0.492860064655129  0.500866978785636  0.545289064588237  0.573665763911663  0.607084599024668  0.64517044435605  0.661100605169746  0.696913297638798  0.730492867668713  0.76068436373369  0.787608361503884  0.807025141880776  0.820867929610182  0.826282221521346  0.826766895115717  0.808438207177576  0.807769098435714  0.824145890843335  0.884556173447384  0.99713600086129  1.14038685172212  1.28535356950512  1.42252933190479  1.55638119216688  1.68855667103451  1.78127121118257  1.82697224897438  2.04678275671437  2.17201664558074  2.32336571884717  2.52832797714914  2.72393753856574  2.93494959010695  3.15324252080698  3.36354834579659  3.50630027268887  3.48718262414743  3.393069155429  3.28908965889017  3.19310371327428  3.0831090184419  2.96852269154622  2.83784510324946  2.71511898832716  2.58799180623306  2.51234757054492  2.37575132656231  2.21637444050875  2.10082984510881  1.92834444155341  1.76640415955534  1.65352671778022  1.39702893995928  1.30138177675214  1.21162002828727  1.12085407608989  1.03962072069507  0.916707753109059  0.847050094449815  0.790033494884877  0.737770617139039  0.683155839370697  0.665588086188268  0.639855881225008  0.601756856827266  0.581091317373624  0.56750756834602  0.550614762554106  0.536050281725907  0.524381311286944  0.52452396235344  0.488267980005088  0.488421877311806  0.490000000006955  0.489999999232796  0.489999999718291  0.490000000483281  0.489999999998639  0.489999999660332  0.490000000819163  0.490000000653864  0.490000000078159  0.489999999812147  0.48999999981625  0.489999999874914  0.489999999874953  0.490000001049138  0.490000001048261  0.49000000111178  
0.490000000015099  0.490000000168959  0.490000000238995  0.490000000329829  0.490000000451632  0.490000000621683  0.490000000869695  0.490000001244914  0.490000001816075  0.490000000046017  0.487860221008401  0.495399375508531  0.504501348357014  0.543140473350849  0.566684546338513  0.59862600768048  0.63029958920109  0.639132189277253  0.667608257398297  0.693799439997303  0.714779084715203  0.739842412479211  0.752297402723548  0.764330601230501  0.732319879756112  0.73386010287297  0.73593923261923  0.745919812537116  0.776020189268009  0.83526650653586  0.928738430815793  1.04787142297126  1.18094174925888  1.32195204682117  1.47632868337677  1.64907575575691  1.80935426381857  1.8975879223527  1.98898685843429  2.10701467688974  2.25488474811557  2.45580629532321  2.65164976567132  2.86468262566874  3.08835272551637  3.31887902994321  3.5237202239451  3.43978331379522  3.32859961807679  3.21605146268179  3.12454858321541  3.02712367264322  2.91437686859108  2.79004060150875  2.67012629681511  2.52955013207816  2.48555199200865  2.35597213602916  2.22349263260974  2.02246123488016  1.8722184035532  1.76546621962979  1.65638701726414  1.39935781144651  1.30665361763525  1.22033621404006  1.13035769151556  1.05114402045821  0.484103573092314  0.484148278657324  0.484240817343979  0.484370239440721  0.484536827284993  0.484743603791466  0.4854878705093  0.485811607071748  0.486165943729057  0.486527291229839  0.486931544451174  0.487330664999051  0.487747829564498  0.488087033236079  0.488291244856232  0.488650530046462  0.489999999373032  0.490000000088407  0.489999999981098  0.490000000141914  0.489999999584968  0.490000000277051  0.489999999911894  0.489999999851027  0.489999999243877  0.490000000239159  0.490000000237761  0.49000000024261  0.490000000252781  0.490000000267201  0.490000000284927  0.49000000053073  
0.489999999333112  0.489999997991059  0.489999998039204  0.489999998142885  0.489999998281695  0.489999998464581  0.489999998698836  0.489999998977209  0.489999999214871  0.490000000068713  0.489330616447839  0.497913023706551  0.507913554220069  0.538869855633867  0.555316591767965  0.58127727735194  0.604864778026659  0.614191259802689  0.638231392703133  0.658349051793241  0.6755597114386  0.692072216172275  0.703859874852836  0.714403209580695  0.679121393828269  0.681459432312426  0.685658850639847  0.704670984759164  0.735991793781076  0.789888345315195  0.867959135323453  0.968645893165935  1.08613163179673  1.21857019925369  1.37282451021102  1.54792174282177  1.7158242926421  1.78830062804978  1.87851634801251  1.995483589246  2.14335613729472  2.33971708351457  2.53062500688545  2.73637565780241  2.94418153303221  3.13751871408004  3.2638168064125  3.26407418585853  3.19356557055765  3.10200757646306  3.03103914262972  2.93864999058493  2.83202281390662  2.74302816051079  2.59333618400076  2.47949649250206  2.4135554716512  2.30354962838793  2.08503972705053  1.98826701311362  1.87483478399756  1.77265661265855  1.66651705337967  1.54763459601568  1.30613785901392  1.22212995819673  1.13564236281368  1.05698333417986  0.48445689436963  0.484504256141431  0.484595402974205  0.484719680599787  0.484875645092195  0.485602465246009  0.485801889291895  0.486103266038921  0.486438446150398  0.486794990193969  0.48716635990671  0.487536150377794  0.487869120274672  0.488179956047233  0.488271313519136  0.488623001666308  0.488729156131832  0.490000000319446  0.489999999522728  0.489999999815372  0.489999999173841  0.489999999577557  0.489999999402053  0.490000001061817  0.490000001212295  0.490000000949399  0.490000000752708  0.490000000540544  0.490000000320889  0.490000000098515  0.489999999896063  0.489999999687807  
0.489999999682854  0.489999999700081  0.489999999725008  0.489999999759322  0.489999999804735  0.489999999862689  0.489999999934015  0.490000000018627  0.490000000109482  0.490000000021454  0.491298559172812  0.500313055431992  0.517125345386507  0.533831139055733  0.547894368511952  0.565959218997765  0.58080487953115  0.595549590310683  0.620795326432719  0.630268916228755  0.640560769422135  0.653055816635077  0.662372110015025  0.636594232533231  0.6381603663409  0.636401929525044  0.641977225166295  0.659729286906199  0.687830352008673  0.731682413979426  0.797765547995962  0.879433126608733  0.971541866245623  1.09469509164403  1.23421349424892  1.38005423840162  1.49310938573089  1.59855596579296  1.71372564752463  1.83858795274877  1.9912054938158  2.18426903817955  2.37093700200034  2.56472455109787  2.74750312457755  2.90685593244504  3.01148517657684  3.04130591618344  3.01129700289644  2.95039057533365  2.89730868250704  2.82106588801204  2.73117318078462  2.66733413643864  2.50893390653322  2.41783651001362  2.28147138482436  2.16667203733697  2.07322314596686  1.95895396784289  1.85187973953326  1.74809194092906  1.65318466483066  1.55486966970285  1.44769732101032  1.21904180283045  1.13440298727171  1.05785849207668  0.484788493259791  0.48485944450336  0.484948407683809  0.485069215368127  0.485217953386071  0.485918023065788  0.486110145940425  0.486399191893292  0.486702675138205  0.487028811150798  0.487350778866957  0.487676591973306  0.487966017519126  0.488230651547771  0.488285566994328  0.488564895590424  0.488648924622486  0.489999999749358  0.489999999973589  0.490000000682093  0.490000000395977  0.490000000200134  0.490000000668744  0.490000000497159  0.490000000104593  0.489999997874391  0.489999997833448  0.489999997806782  0.489999997788808  0.489999997776499  0.489999997768071  0.490000000636749  
0.490000000338925  0.490000000334985  0.490000000329973  0.490000000323211  0.490000000313414  0.490000000298122  0.490000000272831  0.490000000231127  0.490000000175404  0.489999999304485  0.492712022191222  0.502184725628438  0.513023402384823  0.528858527981385  0.539654095806574  0.552577410661099  0.56450407210515  0.574849851149078  0.597652908008805  0.624224552393574  0.61380269858675  0.61756060436488  0.635305795389015  0.601143980426459  0.594461549960206  0.595436247383904  0.595411699391396  0.614305385250823  0.635904179452849  0.670236069537502  0.71858873537286  0.783236708075926  0.860335738018571  0.953293512568053  1.07092355270645  1.18628511579123  1.26282715735955  1.37491480985795  1.50931644465602  1.64520936777082  1.81478300567494  2.00074791179317  2.18297854389363  2.36616032588455  2.52973517653219  2.66875318584139  2.76792629074789  2.81332818491376  2.80283941567714  2.76895286560984  2.7530031808968  2.69785643159875  2.62398151692037  2.5621853606361  2.39248721284764  2.29723832190969  2.16051955785013  2.12763518213052  2.02904280333229  1.9221554172395  1.82587183583313  1.72210684508204  1.63275173788634  1.53950616990147  1.45184814382812  1.35352325019596  1.1290978669155  1.05627814572034  0.485128312566123  0.485197338007375  0.485285366985191  0.485402543245893  0.485543395242331  0.48620856243447  0.486403335187478  0.48667347649709  0.486931391823207  0.487229664000879  0.487509689894354  0.487772011824546  0.488015282934907  0.488216565506405  0.488185946303076  0.488489279403423  0.488574134806552  0.49000000122382  0.489999998911805  0.48999999969859  0.489999999656305  0.489999998955176  0.489999997106735  0.490000000710564  0.490000000535653  0.490000000364176  0.490000000255761  0.490000000174059  0.490000000111973  0.490000000064377  0.490000000027616  0.489999999805059  
0.490000000019909  0.489999999989595  0.489999999960921  0.489999999939009  0.489999999934001  0.489999999965977  0.490000000074623  0.490000000334761  0.490000000860892  0.49000000044243  0.493551175210464  0.503480372571543  0.514206016009732  0.525508222863638  0.536683660713603  0.543555107300857  0.553744485586717  0.563577594693036  0.581532276320818  0.60465983338155  0.634850765199493  0.601878686505587  0.605040511021137  0.567167675633644  0.557870593248158  0.557821369637083  0.551210050357677  0.56617451515008  0.584666766338591  0.607726474147121  0.640604557426589  0.683459533880672  0.738638340404092  0.804262653202171  0.894730327832706  0.982153051377851  1.02882945019833  1.15470674612713  1.27918309185494  1.42682639784767  1.60286453362148  1.79885150574887  1.98237395057956  2.15857193861055  2.30792063824061  2.43665027886086  2.5300735758414  2.57988002943171  2.59624820220154  2.58481509397738  2.59764019973895  2.56309411582025  2.48000544954139  2.41983394578628  2.34240588680471  2.16172853612678  2.1082153970254  2.06950119123156  1.97739898464015  1.86863763068765  1.78675615923739  1.69476795984618  1.60587162886317  1.51773553523657  1.43500502334042  1.35710807742861  1.11860327622239  1.04850778054302  0.485450822544109  0.485514546547967  0.485604187292951  0.485715802337007  0.486262905016254  0.486470292901169  0.486671614523601  0.486899330162584  0.487121101069453  0.487364333799588  0.487592349986861  0.487785387279717  0.488013697681453  0.487947809072498  0.487976730008128  0.488335893583992  0.488606428785829  0.489999999930986  0.490000000126575  0.490000000015939  0.489999999909125  0.4900000006252  0.490000000611534  0.490000000419925  0.490000000751156  0.489999999574955  0.489999999457791  0.489999999360916  0.490000001885399  0.490000001945714  0.490000001279932  0.489999998468579  
0.48999999974596  0.489999999756292  0.489999999767629  0.489999999779678  0.489999999791754  0.489999999802469  0.489999999809338  0.489999999809151  0.489999999805586  0.490000001128304  0.494617691767168  0.504497801938816  0.513748517598984  0.523571311251995  0.532953005361376  0.537369246365337  0.545915554810705  0.554064273657759  0.578358476501386  0.595966496686271  0.618873310970355  0.637941620754343  0.582527325108286  0.530487400091178  0.528556080332646  0.522009096710694  0.510203672607247  0.521159001664332  0.531915918468605  0.546779412372924  0.568115811633214  0.592422926854631  0.621218075682701  0.659223022976075  0.713418891944853  0.776692270081613  0.803822968395158  0.908891846656234  1.03263384952078  1.19698281421989  1.38456357508782  1.594576713546  1.77948957086554  1.95132460449465  2.09037283147802  2.20036111653831  2.29555040608126  2.35917341905081  2.3923785746444  2.3978413715624  2.41305946096534  2.40313529680643  2.35742909459392  2.30464198837825  2.18006086842938  2.11918529376158  2.03447537534627  2.00093866448289  1.91803148071005  1.83082635297312  1.7367942736518  1.6557088689016  1.57262013990726  1.48942210832523  1.41238908995906  1.33904781076749  1.26187599777277  1.03659008365898  0.485751607176137  0.485812421631837  0.485895982262314  0.486001476729909  0.486169170106267  0.486675027110058  0.486863420711533  0.487046752539024  0.486913970639449  0.487127894464501  0.487364639965774  0.487616631202775  0.487878020373073  0.488094367502108  0.488087133587051  0.488428644473115  0.488655753687508  0.490000000771901  0.489999999010786  0.489999999843997  0.490000000114361  0.489999999853329  0.489999999678549  0.490000000549719  0.490000000498309  0.490000000366408  0.490000000307104  0.490000000265295  0.489999998873267  0.490000000236923  0.489999999882616  0.490000000740671  
0.49000000008146  0.490000000018748  0.489999999986036  0.489999999994729  0.490000000059753  0.490000000199589  0.490000000433937  0.490000000774531  0.490000001197495  0.489999999971906  0.496028402026931  0.505291485461621  0.514016866162403  0.52268906581934  0.530077552328768  0.532819732380922  0.539784983132292  0.555371072683911  0.571321964696663  0.583895313880073  0.603779803697706  0.625154767434695  0.617004341311694  0.636927973521422  0.484564665335811  0.468969636632582  0.475599480447193  0.479877987464465  0.483443291642749  0.492198759340266  0.503606281956497  0.514455315444298  0.527251722104069  0.536394813357449  0.547456899910792  0.57684217768144  0.612571825829093  0.661702292022241  0.780349787420115  0.977014740910981  1.17870137310975  1.39766457896121  1.5820969187819  1.73002799968521  1.86659540949063  1.98674292997684  2.08150921438616  2.15140227678132  2.20928349579227  2.22449137780063  2.26589750180888  2.25870434883782  2.2259783160221  2.13468057030652  2.14057471360631  2.06485250796902  1.95282588358502  1.87135682108829  1.84955358820495  1.77196445179749  1.68500852378434  1.61038799592954  1.53250538801227  1.45579692516335  1.38470926107138  1.315246105084  1.24285254169895  1.12464874853066  0.486018903973404  0.486074648479682  0.486151720416609  0.486247660288513  0.486475101548142  0.48663764592604  0.486792691349753  0.486964641235961  0.487153774689152  0.487353192265332  0.487574705874429  0.487801682912254  0.488052060090137  0.488242098150874  0.488200197263019  0.488522403009672  0.488696927062742  0.489999999875929  0.490000000033271  0.489999999943141  0.489999999786045  0.49000000041225  0.490000000244881  0.49000000031592  0.490000000497791  0.49000000038382  0.490000000441463  0.490000000486384  0.48999999947257  0.490000000293058  0.48999999906165  0.490000000121086  
0.490000001507622  0.490000001519571  0.490000001529146  0.490000001535611  0.490000001537959  0.490000001534446  0.490000001520459  0.490000001478395  0.490000001349918  0.490000001327118  0.496370936250143  0.505501447479528  0.514490163965972  0.522258407235534  0.528417599119652  0.536397181255132  0.523116533432479  0.535374857192715  0.5450242339626  0.55650167725974  0.554786840306337  0.578447992196048  0.584658054650971  0.589987937011527  0.589840008301687  0.587734896705085  0.570385575993225  0.545908454220284  0.618029344573082  0.543376669535973  0.540898694690025  0.516444322069117  0.528948946494417  0.515818953286412  0.497215482768302  0.489636781107799  0.493666765504739  0.49216670243078  0.576589530606339  0.783506532265236  0.982337159595739  1.16584647649484  1.33956439071105  1.49938390756293  1.62761800264547  1.74256082327078  1.8228007756748  1.89444823969597  1.95007167995572  1.97189251892538  2.02871573158009  2.0249246445312  1.94797966234857  1.91617815449082  1.87070017208652  1.82060393691899  1.74143226710266  1.68199649219012  1.61714475680462  1.55367671880943  1.48916080656496  1.42472439402689  1.35853026999387  1.29557017199966  1.23386993616276  1.17317500855335  1.11466023535805  1.05980773606705  0.486241153511037  0.486292328808125  0.486361990672521  0.486590063851418  0.486736678325736  0.486882221821809  0.48703223076033  0.487217959469085  0.487398793905955  0.487585688622631  0.487794422378898  0.488005240523441  0.488234225171976  0.488404273694285  0.488327416886982  0.488629923255976  0.488732420139354  0.490000001024358  0.490000000128382  0.489999999916574  0.490000001316128  0.490000000011918  0.489999999509485  0.490000000823681  0.490000001024725  0.490000000968761  0.490000000853473  0.490000001085137  0.490000000757586  0.489999999292827  0.490000000420986  0.490000000325918  
0.490000000048526  0.490000000078134  0.490000000106668  0.490000000132075  0.49000000014975  0.4900000001488  0.490000000102362  0.489999999942881  0.489999999514355  0.48999999820244  0.496293329083575  0.505274852266493  0.514823369060235  0.523025360648869  0.527752322709868  0.531813861985803  0.52125537116098  0.52868362662809  0.530833470418121  0.539578756157153  0.561126099297667  0.564845065876129  0.542663571510548  0.537063054239321  0.528729171478581  0.555907913486136  0.570048646916743  0.528937305932015  0.583727017033368  0.522962057777869  0.516495383715589  0.494546098306277  0.500364603159403  0.49509804224485  0.486412477814115  0.490000000297627  0.490000000046082  0.490000000427678  0.542972829432174  0.671907417466775  0.834829606422601  1.01141168949414  1.17449838775458  1.32469513113235  1.42284010314223  1.53539689292118  1.62828767002452  1.70180935208399  1.76561233597544  1.79971307463454  1.8748312024187  1.81850327099046  1.80949169429606  1.78064673107106  1.74316953160443  1.70093689053396  1.66004620326202  1.60957809408279  1.55366842159642  1.49846898098973  1.44146033455293  1.38376066383391  1.32400475018007  1.26684114140735  1.21035944808876  1.1544675248822  1.1005565717099  1.04883200947017  0.486469142241304  0.486513827250542  0.486751613844892  0.486904076822228  0.486984465423549  0.487121530536484  0.487262203125425  0.487413482744079  0.487580942656214  0.487763637202609  0.48795686289006  0.488162597559136  0.488385777839783  0.488537154045796  0.488426945862705  0.488710930657017  0.488764968591195  0.490000000028659  0.490000000005097  0.490000000040971  0.489999999642262  0.490000000479145  0.490000000325388  0.490000000305875  0.490000000145479  0.489999998712549  0.489999998744661  0.48999999878094  0.489999998817078  0.490000000715324  0.490000000775265  0.49000000049685  
0.490000000439246  0.490000000439154  0.490000000437691  0.490000000433242  0.490000000422618  0.490000000399477  0.490000000351072  0.490000000250968  0.490000000017007  0.490000000066934  0.496374524075141  0.504217699996825  0.51471761049814  0.522548699732284  0.527280475918064  0.53048988172919  0.515191716582864  0.523279967806261  0.52820369142599  0.550137376495117  0.543813139841365  0.54144278170737  0.538134159098612  0.532581975245804  0.52379395716213  0.52062350212213  0.550568149403429  0.536769765855236  0.559673713745884  0.512958646217112  0.507640656010164  0.481344709920654  0.492389514536316  0.486775058077723  0.484772866614366  0.489999999890007  0.48999999955392  0.490000000748106  0.500068470395992  0.603853438470816  0.75876145776271  0.930860130426359  1.07658704663426  1.17708077974852  1.29968504716073  1.38422231149856  0.913443072867032  1.54913354373753  1.61226393758546  1.64580236585636  1.67609187871679  1.69665178786201  1.67666416211149  1.65652351472151  1.62921621204508  1.59387854227525  1.55358975320243  1.50755331073162  1.46388100211011  1.41557602808733  1.36559621274768  1.31473441836739  1.26162257530093  1.21022230812907  1.16116841434639  1.11044872173502  1.06088894470701  1.01349657547037  0.878738167629891  0.486921812479066  0.487146756400205  0.487152950625582  0.487231770217896  0.487365064978205  0.487492237055347  0.487631247788406  0.487787649893603  0.487956154433136  0.488126755549527  0.488321170261565  0.4885010884743  0.488651252629292  0.488503430805677  0.488767845456801  0.488797507332605  0.489999999427354  0.489999999702561  0.489999999864648  0.489999999884237  0.4899999993255  0.49000000026161  0.490000000235232  0.490000000640849  0.490000000642147  0.490000000639641  0.490000000631379  0.490000000625004  0.490000000622555  0.4900000006241  0.490000000353422  
0.490000000419215  0.490000000314509  0.490000000192654  0.490000000049554  0.489999999880305  0.48999999967971  0.489999999444187  0.489999999177043  0.489999998898455  0.489999999214912  0.49559567936876  0.503030566782833  0.51222625029196  0.520912627062051  0.524010691823692  0.529979658365226  0.518914247686844  0.52276239059138  0.542215629540232  0.540928076983163  0.539470930840773  0.537131433065439  0.532852934662373  0.528194024121315  0.519102418188283  0.516359754484502  0.536119058862646  0.525451593645244  0.557343817697846  0.504907037766964  0.501403814659776  0.479326469224844  0.484836226888563  0.494259459315011  0.491552687568942  0.489999999153449  0.489999998375837  0.490000000274958  0.490866748514966  0.547790258908493  0.675005676158512  0.796621611063359  0.927915649384354  1.05135724222235  1.16390025168081  1.24143087538502  0.853543698857682  0.885232332603771  0.488520745688186  1.47837614817004  1.5261338128254  1.53553296748  1.52402531482173  1.51310785203168  1.49453325535916  1.46795638891147  1.43448341726083  1.39941918035189  1.36090632998609  1.31984806180775  1.27732236163285  1.2320720038449  1.18762543299167  1.14325644173636  1.09778081011459  1.05290957466033  1.00946940915981  0.967056760366098  0.863195017923504  0.487364680781367  0.487386232708499  0.487395152487905  0.487471194758042  0.487592128612386  0.487710314652152  0.487847562290353  0.487980251660633  0.488135160895134  0.488283391394907  0.48844466836188  0.48862443315657  0.488760256463699  0.488600328802387  0.488824193145789  0.488849644455311  0.490000000733149  0.489999999547022  0.490000000112716  0.489999999862337  0.48999999942568  0.490000000012296  0.490000000024016  0.48999999967862  0.489999999386072  0.489999999529434  0.489999999630146  0.489999999702554  0.489999999755413  0.489999999794367  0.489999999804134  
0.489999999763127  0.489999999776574  0.48999999979349  0.489999999814633  0.489999999840928  0.489999999873536  0.482736557711392  0.48416621405759  0.486107455785643  0.488715057081013  0.493510014562793  0.500910728239532  0.510429671396843  0.515707612255147  0.524477761715734  0.517272731946786  0.521137215472687  0.537364463705107  0.537694291293907  0.53679680726619  0.535015461185294  0.532371413880175  0.527608436822435  0.523631380655897  0.514254604775709  0.51186058091616  0.50914350525377  0.517278285667059  0.540938279943023  0.517705967774796  0.506309337082344  0.495760871038485  0.499835556695271  0.49335697252493  0.486106822484123  0.489999999865797  0.489999999623987  0.489999999517506  0.484341159354455  0.511839950015273  0.589803996132042  0.692251052506096  0.808797958984748  0.923323750683949  1.02999785596064  1.10148389140304  0.785897024527501  0.817175405026377  0.48868279084013  0.488507463555149  1.39405763643677  1.39700600613303  1.40613975521299  1.40322430834285  1.39089083404604  1.37251064597659  1.34714611615759  1.31927746525136  1.28795139824949  1.25366628680194  1.21768686515213  1.17883950281893  1.14124073508929  1.09818230109876  1.05775110084467  1.01736978462287  0.978470030414114  0.94195539205513  0.848368434739908  0.487598134215568  0.487617008748988  0.487620941201544  0.487693002224734  0.4878099189204  0.487922545250381  0.48803373742279  0.488156562361872  0.488300957677743  0.488447478603187  0.488592194437622  0.488741140049773  0.488856777674476  0.488675852127226  0.488868552900741  0.488908142406356  0.490000000021823  0.489999999572088  0.489999999675396  0.489999999732434  0.49000000028044  0.489999999391859  0.49000000025825  0.490000000320081  0.490000000113088  0.489999999939819  0.489999999779093  0.48999999963058  0.489999999493436  0.489999999366569  0.489999999905263  
0.490000000053678  0.490000000051092  0.479549381475532  0.479898812432631  0.480380955867401  0.481042175526105  0.481946028957654  0.483177864605963  0.484847572422049  0.487105634802726  0.490535079776471  0.497937049030669  0.505836646468165  0.516099232083084  0.525236455633684  0.53075711545314  0.534258421585022  0.53527235950302  0.534752430576007  0.533188381735138  0.531072589817231  0.528358859306394  0.523952613827766  0.512670989486953  0.510905535968024  0.508973404081333  0.506668232950521  0.504372475826424  0.539220745776658  0.509194835827682  0.504026378517969  0.486939610786284  0.489223782083067  0.489911225207115  0.484094578470816  0.489999999628288  0.490000000465839  0.489999999593352  0.483190487450254  0.505264971241505  0.526579404318503  0.609216706941746  0.714412233667612  0.819505226055204  0.917337214801206  0.981030546491874  0.729443740617732  0.759299332646544  0.488850247688492  0.488678762777762  0.488434138192902  1.27764753916096  1.2923639759394  1.29873829035833  1.29399894169821  1.28118900808473  1.26116587323458  1.23993601346475  1.21521887731003  1.18787232913244  1.15752374966892  1.12578111514121  1.09222326262427  1.05836281318449  1.02296182415037  0.980940123003723  0.947674945604829  1.22351630197691  0.821811044903981  0.487815937991427  0.487833596057902  0.487831464773703  0.487898696563997  0.488000558284872  0.488097505256616  0.488209964341195  0.488315080601038  0.488442099339651  0.48855811466272  0.488680884707463  0.488821428416605  0.488921769632611  0.488654270163244  0.488807683038956  0.488924602774448  0.49000000043559  0.489999999908208  0.489999999616289  0.490000000676961  0.490000000046507  0.490000000775907  0.489999999594475  0.489999999060017  0.489999999953596  0.489999999928868  0.489999999905116  0.48999999988284  0.489999999862148  0.489999999842979  0.489999999724924  
0.479408096803166  0.479462176001197  0.479579046112325  0.479780784501629  0.480097077137638  0.480567937366477  0.481247212810364  0.482207452507813  0.483550488707427  0.485440889411185  0.487674897268273  0.49445911086817  0.503449524760335  0.513844457288635  0.523793470199945  0.531364815491065  0.533367267291656  0.532781817566556  0.53115313120177  0.528974759476636  0.526458703039214  0.523126257653651  0.519427786600611  0.508313588378371  0.506751536665833  0.505022567787936  0.50300163071319  0.501119051031172  0.517838186373423  0.503455830841058  0.499941081821455  0.488234342260559  0.489488228675519  0.48990853509316  0.490000000911742  0.489999998573718  0.48999999968094  0.490000000982784  0.489999999761713  0.498074376377318  0.489747238511776  0.567906392925396  0.645047999986519  0.734811249065624  0.8231842323519  0.880035682920965  0.678239041774372  0.704904951413738  0.48900829822569  0.488843788287356  0.488597996789171  0.488490923652165  0.488525273713139  1.18579530485451  1.18675154280214  1.18394471732561  1.17523394528256  1.16203011381709  1.1385506145994  1.1182433984293  1.09348371656211  1.06714530286719  1.03916351022743  1.00965924354842  0.98016189400145  0.949875601411231  1.19664573543794  1.16746042118123  0.857567080481096  0.750598711416254  0.488014001369183  0.488026969890714  0.488082945945841  0.488162884047414  0.488259964107374  0.488344084508396  0.488444397506625  0.488555244729946  0.488681792652099  0.48879297953161  0.488682283894151  0.488784287541435  0.488590415954151  0.488822471716024  0.488975827775782  0.490000000039716  0.490000000062993  0.489999999722469  0.489999999800342  0.489999999138619  0.490000000477379  0.490000000477559  0.489999999760455  0.489999999629078  0.489999999559506  0.489999999510398  0.489999999478202  0.489999999458783  0.48999999944874  0.490000000592709  
0.479718793941154  0.479653921372653  0.479637689166964  0.479689393016501  0.479834956729037  0.480109382481515  0.480560337453036  0.481254414111469  0.482291763970257  0.483865245404959  0.485150130935807  0.490589344152078  0.4992641086652  0.509902406591043  0.522347594022905  0.532791886791123  0.531113237454487  0.529141374103921  0.518728118890299  0.524258286811726  0.521408605543325  0.518002688278264  0.514977635496092  0.504507120513115  0.502871218245323  0.5012871258317  0.499482158441655  0.497828887549768  0.496142799348315  0.495361894915597  0.496096896236576  0.490345758328911  0.489694903383087  0.489999999980271  0.489999999220919  0.489999999379082  0.490000000161369  0.489999999577635  0.489999999610224  0.490000000606769  0.490230854147141  0.52366078260409  0.594771314895506  0.674625077592543  0.751910263460528  0.799448500908713  0.658735049950066  0.679947005247064  0.489109803467297  0.488951569146613  0.488771708910887  0.488617512362994  0.488638872529748  0.488506169978068  0.488375987868038  0.488248845040382  0.488124366950745  0.488005914024458  0.48812723717511  0.488062124549319  0.998362141937208  0.976385651330755  0.952728466322904  0.927212757463217  0.9013291858439  1.1245090059914  1.1030309774868  1.08259801733619  0.828509896131359  0.728023848261747  0.48818531107311  0.488198289996768  0.488245681782062  0.488327852623294  0.488414644160019  0.488263950795983  0.488359313542718  0.488441904405652  0.488554746369635  0.488675570414915  0.488800576795826  0.48889210377054  0.488692796734748  0.488913021282031  0.4890633227637  0.490000000026866  0.489999999850707  0.490000000180669  0.49000000035  0.489999998347993  0.490000000006663  0.49000000074952  0.490000000936279  0.489999999772744  0.490000000099039  0.490000000266877  0.490000000280646  0.489999999001601  0.489999998989174  0.489999999853519  
0.490000000013685  0.490000000799841  0.49000000070485  0.490000000598259  0.490000000480798  0.490000000356383  0.490000000235786  0.490000000143399  0.490000000127555  0.482357602024645  0.482720353311121  0.487186158102738  0.493941819276447  0.503932969982837  0.515164735232714  0.523227753165391  0.524049953888544  0.523155982641192  0.515783747103878  0.512191700591809  0.515930296416596  0.512624528383437  0.510031462054806  0.506972274504207  0.503577746746208  0.500648819532112  0.497853050861733  0.495674641978645  0.493694401247491  0.494484063109186  0.491842293485608  0.490477145889613  0.48828301137978  0.490000000105747  0.489999999032049  0.490000000417147  0.489999999517183  0.490000000199728  0.489999999568468  0.489999999626546  0.487373838709422  0.50863295194491  0.553228991661957  0.615311624190054  0.675109183418448  0.713580594177708  0.611277085476749  0.628036077825486  0.489276883456504  0.489124247050955  0.488957220617561  0.488800871043211  0.488816160189261  0.488691424161532  0.488565171532441  0.48844192380797  0.488317351547555  0.488198277392389  0.488083526901098  0.487976929834667  0.488114500635892  0.48816211732824  0.916360535190361  0.886001930632502  1.08772560322615  1.07322302281279  1.05424343544011  1.08119183023608  0.799276448342189  0.702263394970621  0.488184335417008  0.488182877605306  0.488223542075329  0.488288327672079  0.488332568654437  0.488409542118287  0.488502275771927  0.488596888450768  0.488705783213593  0.488815053989512  0.488937447272887  0.489007081148699  0.488809022724157  0.489022204937063  0.489158809159216  0.489999999937676  0.489999999870618  0.489999999996141  0.490000002255273  0.489999999928563  0.490000000218504  0.490000000367161  0.490000000598957  0.490000000234498  0.490000000351991  0.489999999871472  0.48999999996135  0.4899999993502  0.490000000738375  0.49000000078533  
0.490000000232772  0.489999999627279  0.48999999965133  0.490000000278999  0.490000000176801  0.490000000064971  0.489999999956962  0.489999999882355  0.48999999989857  0.481085041080722  0.480623772059972  0.484431826740326  0.488862623870867  0.496624975875339  0.505420447745103  0.511849815120988  0.514815225644374  0.515662394535586  0.511187996879896  0.508468596092832  0.505550264730206  0.502333260222074  0.504852361271912  0.501983063474624  0.499061398160904  0.4964991630321  0.493847823926583  0.491992521231871  0.490552402928743  0.487938278698771  0.486427245141666  0.489643080228283  0.489999999352006  0.490000000255334  0.490000000233633  0.489999999823594  0.489999999736106  0.490000000566909  0.490000000338658  0.49000000001888  0.490000000083333  0.496050942980366  0.559005330202525  0.623386170235431  0.679945576757817  0.706415722370476  0.619508215693825  0.631912347993486  0.489345771588741  0.489204851421984  0.489051908081602  0.488892945917735  0.488901683657732  0.488787108679088  0.488670065471997  0.488550026365086  0.488435187795108  0.48832581078724  0.488480773711572  0.488413203018373  0.488359069820901  0.488312937916077  0.490000000644514  0.489999999884193  0.489999999766387  0.489999999739271  1.03381985930357  1.01835199979968  1.00088530990694  0.729907988045544  0.660440872829325  0.48833742272342  0.488378263989217  0.488439290151075  0.488509744466114  0.488581489634405  0.488666774085247  0.488755488780244  0.488851573665793  0.488953322588224  0.489061843101642  0.489127985315756  0.488928624094603  0.489133369352335  0.489245852123844  0.49000000048586  0.489999999720755  0.490000000365785  0.490000001388254  0.489999999878386  0.49000000090162  0.49000000030784  0.490000000347244  0.490000001236994  0.489999999282357  0.490000001229512  0.490000000028677  0.489999999894667  0.489999999885888  0.489999999857849  
0.489999998051434  0.48999999990985  0.489999999916529  0.489999999433084  0.490000000583027  0.490000000496146  0.490000001455604  0.490000001124404  0.490000000790339  0.489999999927753  0.478979816166983  0.482788138359098  0.485777293787937  0.490230057760364  0.496875902499351  0.502604957413766  0.505438178775836  0.506520770623498  0.505824167757139  0.504120847757899  0.501761930903494  0.499144267671268  0.496735650811363  0.494350297155693  0.492426846365565  0.492057191823811  0.490551997501208  0.489560725418134  0.489100657703874  0.490000000096143  0.490000000535147  0.48999999944084  0.490000000141822  0.489999999718534  0.489999996530232  0.490000000269912  0.489999999573625  0.489999999093658  0.489999999335998  0.489999999773453  0.490000000236765  0.488169318995705  0.518869497633365  0.556470709986199  0.599139084650257  0.618705419242237  0.570299970305598  0.580376858522589  0.489539626767452  0.489412593137984  0.489253458399011  0.489092200051575  0.489089637081095  0.488987864803417  0.488866078095625  0.488750212199864  0.488640402939355  0.488751305818151  0.488679851596473  0.488625789211237  0.489999999082403  0.489999999102861  0.490000001022879  0.489999999919153  0.489999999888743  0.489999998863563  0.49000000059663  0.490000000205493  0.490000000599617  0.488486857624975  0.488489190353384  0.488517388765621  0.488555822987004  0.488612831579859  0.488674387100159  0.488740705121407  0.488814799547566  0.488895915275529  0.488985207997252  0.48908071127172  0.489160418378337  0.489203439751732  0.489044656426779  0.489239766597384  0.489325012131321  0.490000000132582  0.490000000034658  0.490000000040624  0.489999999451492  0.490000000475914  0.490000000255046  0.490000000595809  0.490000000692975  0.490000000684528  0.48999999956939  0.489999999822155  0.489999999831736  0.490000000480316  0.490000000183749  0.489999999165403  
0.489999999951628  0.490000000306478  0.490000000345178  0.490000000249246  0.489999999336896  0.490000000148154  0.490000000755959  0.490000000922799  0.490000001074746  0.490000000412496  0.480488129691984  0.482679129560432  0.484398696038546  0.486949105134321  0.490585142641229  0.495317570966898  0.498681481050061  0.500392799337101  0.500920947074742  0.499980655107265  0.498185593482666  0.495939001284401  0.493463962097512  0.491444150789326  0.489994288623144  0.489521369035378  0.490000000757629  0.48999999901057  0.489999999629174  0.489999999014361  0.48999999755686  0.489999999519395  0.490000001219457  0.489999999410601  0.489999999808648  0.490000000642075  0.490000001277026  0.489999999032911  0.490000002609206  0.490000001176796  0.489999999502816  0.501669480949208  0.518822443690213  0.541101082476291  0.540698423075963  0.555014856989255  0.532122593379623  0.538326242936466  0.489718761997784  0.48959483279716  0.489440343416194  0.489275630677852  0.489253947845903  0.489163384611696  0.489046582285634  0.489080883120087  0.489008118763506  0.488944507455353  0.490000001980011  0.489999998993664  0.489999999616333  0.489999999589938  0.489999999585178  0.489999999536302  0.490000000000353  0.490000000816772  0.490000000159787  0.489999999858716  0.490000000153609  0.489999999775919  0.488644836860608  0.488645168558077  0.488712922714258  0.488763228036971  0.488818667731198  0.48887960183581  0.488935152102258  0.488988244548481  0.489015708388377  0.489116032686206  0.489220693851053  0.489213194242248  0.489145489614906  0.48933066944404  0.489513464775872  0.489999999899408  0.489999999424559  0.490000000392979  0.49000000003465  0.489999999672529  0.49000000072685  0.490000000412929  0.490000001427443  0.490000001106199  0.490000000335327  0.490000000407936  0.489999999601389  0.489999999332833  0.489999999308016  0.490000000271197  
0.490000000091816  0.490000000037994  0.490000000001727  0.490000000223171  0.489999999955551  0.490000000262716  0.490000000276524  0.490000001616943  0.490000000341009  0.490000000136383  0.489999999657841  0.482241295857963  0.483535891797494  0.48535093347206  0.487698104128671  0.490676834091221  0.493813178828095  0.495819097408175  0.496827502508089  0.496406871319113  0.495048128843954  0.493054526475452  0.490737992714805  0.489558516120022  0.490000000115649  0.489999998765781  0.489999998787971  0.48999999959964  0.489999999593107  0.489999998057706  0.489999999243468  0.489999999292995  0.490000001195332  0.490000000018419  0.490000000416532  0.490000000499651  0.489999999623669  0.48999999660602  0.490000001013421  0.489999998172488  0.490000000583924  0.490000000466881  0.485728389151532  0.486787880207362  0.500495485106435  0.530876131658113  0.513351717873377  0.508556436510502  0.48986248009185  0.489748509182226  0.489582894273215  0.489400967111718  0.489430446759837  0.489372666833896  0.489294928054932  0.489217822572153  0.490000000633807  0.489999999589504  0.489999999575597  0.48999999956169  0.490000000079121  0.490000000059855  0.489999999308781  0.490000000534447  0.489999998607586  0.490000000079502  0.490000000232183  0.489999999984241  0.489999999732599  0.490000000558796  0.489999999263035  0.490000000857287  0.488814708912308  0.488808103614229  0.488821621734471  0.488889223084439  0.488963969564348  0.48904477774802  0.489132906498177  0.489226681201946  0.48932203916336  0.489310428561402  0.48923891280818  0.489413987235449  0.489584297464149  0.48999999986823  0.489999999898294  0.490000001151731  0.490000000378602  0.489999999820958  0.490000000374365  0.490000000562436  0.490000000663509  0.490000000676194  0.490000000666735  0.489999998238249  0.490000001079913  0.489999998369893  0.490000000686323  0.490000000320973  
0.490000000170232  0.489999999576833  0.489999999927553  0.490000000443149  0.490000000427157  0.489999999858047  0.489999999973259  0.489999999972353  0.489999999920451  0.490000000410888  0.490000000051563  0.480749006675352  0.483161137949926  0.484643020800229  0.486499327434818  0.488569285489308  0.490874193692428  0.492822995272749  0.49371631261047  0.493852645199325  0.492890062262069  0.491345857113499  0.489732517601302  0.490000000068387  0.489999999563487  0.489999997900594  0.489999999193495  0.490000000039578  0.490000000086982  0.489999999524959  0.490000000185792  0.490000003155258  0.490000000439749  0.490000000016669  0.489999997835107  0.489999997634341  0.490000000459384  0.490000000212588  0.490000000169179  0.490000000674636  0.490000001730846  0.490000000543447  0.48999999876357  0.490000000995625  0.490000000551987  0.490000000344011  0.489999998986153  0.490000000809674  0.490002141175796  0.48994215897973  0.489830738550683  0.489714847130617  0.489601819243751  0.48955244503916  0.490000000159156  0.490000000143645  0.49000000013005  0.489999998745534  0.490000002290371  0.490000000895344  0.489999999014788  0.490000000007297  0.490000000111092  0.490000000115785  0.489999999522658  0.489999999556606  0.490000000259149  0.49000000013765  0.490000000314552  0.490000000208401  0.49000000032275  0.490000001083545  0.490000000132497  0.49000000024004  0.489999999312306  0.489999999670741  0.490000000841757  0.490000000412707  0.490000000330086  0.489376451820021  0.489340383319807  0.489404034834793  0.489330575981202  0.48949377329919  0.489650138867708  0.489999999993031  0.490000001100231  0.490000000696183  0.490000000452704  0.489999999590719  0.49000000098468  0.490000000467511  0.490000000207094  0.489999999491105  0.489999999488068  0.489999999495708  0.489999999960715  0.489999999965928  0.489999998791517  0.490000001267766  
0.489999999988326  0.490000000221001  0.490000000185847  0.489999998938222  0.490000000483744  0.490000000522521  0.490000000171094  0.489999999696552  0.490000000108273  0.490000000718147  0.489999999933051  0.489999999684296  0.481857030112133  0.484239054707085  0.485950002993055  0.48779765752272  0.489732583581677  0.491112162757476  0.491783650510379  0.491789641499227  0.491412357802995  0.49049480110168  0.490000001858633  0.489999997809165  0.490000000296198  0.490000000516903  0.490000000458818  0.489999999084985  0.490000000260589  0.489999998929678  0.490000000082265  0.490000000597402  0.489999999264924  0.489999999034263  0.489999999310769  0.489999999933215  0.489999999865622  0.490000001286116  0.489999999726328  0.489999999349031  0.489999999443327  0.489999999406371  0.489999999103829  0.489999999064862  0.490000002563139  0.490000000746247  0.489999999344436  0.489999999813748  0.490000000624789  0.489997384499844  0.489924280792227  0.489825948956201  0.490000000134188  0.490000001942513  0.489999999391805  0.490000000058066  0.490000000977874  0.49000000012379  0.489999998089762  0.489999999943767  0.48999999996012  0.490000000671308  0.4900000007299  0.490000000252049  0.489999999508442  0.48999999833797  0.490000000237683  0.490000000899236  0.490000000817393  0.490000000817232  0.490000000370318  0.489999999665511  0.490000000894234  0.489999999388105  0.490000000095816  0.489999999697785  0.489999999953563  0.490000001291498  0.490000001258329  0.490000001208604  0.490000001137575  0.489999999966929  0.489684673971337  0.489556393991656  0.489699675386578  0.490000000219253  0.490000000681543  0.489999999993255  0.489999999767692  0.490000000223251  0.490000000533067  0.489999999595447  0.490000000009826  0.489999999977774  0.489999999921002  0.489999999868981  0.489999999821666  0.489999999778744  0.48999999973984  0.48999999970342  
0.489999999907048  0.489999999811803  0.489999999888522  0.489999999857848  0.489999999764019  0.489999999923035  0.490000000051318  0.490000000172355  0.489999999974392  0.490000000179177  0.490000000190394  0.489999999807002  0.490000000535146  0.483864773186514  0.490000000901587  0.487320186453694  0.489155459705697  0.490000000706518  0.49000000014038  0.489999999928401  0.490000000689641  0.490023715524312  0.490000000000603  0.489999999682429  0.489999999748417  0.489999999910368  0.49000000057508  0.489999999667296  0.489999997417045  0.489999998724476  0.490000002084309  0.490000000249453  0.490000000480663  0.489999996425917  0.489999999618255  0.490000000890858  0.490000001061711  0.49000000111019  0.489999998382596  0.489999999664387  0.490000000659193  0.490000000406611  0.489999997795724  0.490000000653136  0.489999999814059  0.489999999788265  0.490000000271657  0.489999999299285  0.490000000204266  0.490000000567466  0.490000000656421  0.489999999625588  0.490000001845634  0.489999999955184  0.490000000415619  0.490000000477028  0.490000000307602  0.490000000268895  0.490000000211282  0.490000000152067  0.490000000777797  0.489999999705692  0.489999999883714  0.489999999844193  0.489999999993768  0.490000000205191  0.490000000217679  0.490000002789327  0.489999999950137  0.490000000133023  0.489999999847679  0.490000000460956  0.490000001049771  0.489999999194413  0.490000000342329  0.49000000009433  0.489999999044979  0.489999999515167  0.489999999527121  0.489999999542694  0.489999999562914  0.490000000159447  0.490000000002789  0.489800614908499  0.489739481987179  0.489999999955264  0.489999999306037  0.489999999427211  0.489999999855864  0.490000000197464  0.490000000531307  0.490000000609455  0.490000000025886  0.490000000021248  0.490000000035067  0.490000000046648  0.490000000056411  0.490000000064709  0.490000000071822  0.489999998960705  
0.48999999980243  0.490000000264549  0.49000000023607  0.490000000194215  0.49000000019093  0.489999999757073  0.490000000266484  0.490000000043812  0.490000000425865  0.49000000051535  0.49000000018443  0.490000000173872  0.490000000339365  0.490000000087386  0.489999999897768  0.486598960813204  0.488320618917485  0.489999999841043  0.490000001053447  0.490000000240056  0.490000000710797  0.489999999350622  0.48999999963482  0.490000000355538  0.489999999513308  0.489999999939174  0.490000000102574  0.489999999453408  0.489999999481254  0.490000000331804  0.490000002270726  0.490000001967338  0.490000000645313  0.489999999686666  0.489999998275615  0.490000000246977  0.490000002516555  0.489999998833888  0.489999999384244  0.489999999887083  0.489999999524223  0.490000000141245  0.489999999743896  0.490000000991736  0.489999998951752  0.489999999102964  0.490000000803864  0.490000000830376  0.490000000224562  0.490000000408415  0.490000000166596  0.489999999304875  0.489999999660837  0.490000000130832  0.489999999659817  0.489999999651212  0.490000000313919  0.489999998953737  0.490000001007337  0.4900000002415  0.490000000115572  0.489999999233216  0.4899999996999  0.490000000557651  0.489999999816525  0.490000000671576  0.489999998982182  0.489999999637383  0.490000000593913  0.489999999258986  0.489999999325124  0.489999999814239  0.489999999896187  0.490000000033037  0.489999999366832  0.49000000057951  0.489999999751324  0.489999999495384  0.490000000621846  0.489999999462404  0.489999999536097  0.489999999870444  0.489999998950875  0.489999999611135  0.490000000073987  0.489999998716756  0.490000000858506  0.490000000046158  0.489999999886613  0.489999999996946  0.490000000017578  0.490000000343869  0.490000000783927  0.490000000997391  0.490000001098385  0.490000001187119  0.490000001265644  0.490000001335476  0.49000000139774  0.490000001214793  
0.489999999961523  0.489999999783185  0.489999999851304  0.49000000001574  0.490000000137948  0.490000000227921  0.490000000682725  0.489999999951365  0.490000000253258  0.489999999831478  0.48999999984997  0.490000000098994  0.489999999580937  0.489999999941508  0.490000000029006  0.48571887382723  0.487123644579043  0.490000000074237  0.490000000349429  0.49000000055406  0.490000001526627  0.4899999993266  0.489999999990866  0.4899999978144  0.490000000084655  0.490000001431708  0.489999999016157  0.489999998878984  0.489999997543365  0.48999999932902  0.490000000320848  0.490000003275915  0.490000000062669  0.489999999729309  0.490000001159323  0.489999999877529  0.489999997705347  0.489999999298936  0.490000001070757  0.489999998855108  0.489999999262614  0.490000000791132  0.489999999382319  0.490000000699383  0.490000000590392  0.489999999805509  0.489999998728747  0.490000000107794  0.489999999490952  0.490000001585429  0.490000000463386  0.489999999381948  0.489999997648641  0.489999999985365  0.490000000121613  0.489999999254921  0.490000000677436  0.490000000547645  0.4900000006311  0.489999999801736  0.489999999206592  0.489999999058971  0.489999999048919  0.490000000251993  0.490000000371169  0.490000000461525  0.490000000704078  0.490000001158091  0.490000001176889  0.489999997781884  0.490000000825342  0.490000000744031  0.48999999988248  0.48999999968059  0.490000001144187  0.489999999753101  0.489999999585865  0.490000000266596  0.490000000093021  0.490000000809261  0.489999999976501  0.489999999628652  0.489999999758617  0.490000000372372  0.490000000080991  0.490000000175236  0.490000000198689  0.490000000077296  0.490000000031114  0.490000000003649  0.490000000992395  0.489999999874438  0.490000000168544  0.489999999620099  0.48999999957415  0.489999999541339  0.489999999518669  0.489999999503418  0.489999999493333  0.489999999700774  
0.490000000302226  0.48999999985834  0.490000000159932  0.490000000253036  0.490000000022546  0.490000000147455  0.489999999833923  0.48999999981366  0.489999999911919  0.48999999990507  0.490000000321688  0.490000000122677  0.490000000386945  0.489999999843533  0.490000000072939  0.485415878331197  0.486530470715882  0.490000000587042  0.489999998368423  0.489999999627309  0.489999998945582  0.489999999915523  0.490000000202764  0.489999999847909  0.489999999816486  0.489999998882303  0.489999998889131  0.489999999678207  0.490000001088064  0.489999999850068  0.489999999669913  0.489999997807346  0.489999997749115  0.489999999008098  0.489999999773726  0.490000001353109  0.490000003780711  0.489999998961991  0.489999998979402  0.490000000557057  0.490000000301557  0.49000000082263  0.490000000664141  0.490000000504164  0.49000000146881  0.490000002906602  0.489999999871976  0.489999999206666  0.490000000515923  0.489999999537082  0.490000000441058  0.490000000963484  0.490000000699066  0.490000000105465  0.489999999982433  0.48999999984551  0.489999999696905  0.490000000582955  0.489999999972054  0.489999999416985  0.489999999921481  0.490000000169446  0.490000000239056  0.489999999141662  0.490000001514787  0.489999999118079  0.489999999044414  0.489999999735773  0.489999999752667  0.49000000111018  0.490000001178444  0.489999999520231  0.489999999836844  0.489999999866403  0.490000001268144  0.48999999961546  0.49000000009316  0.490000000396457  0.490000000373348  0.490000000624518  0.490000000400066  0.489999999923207  0.489999999652759  0.490000000197505  0.490000000288971  0.489999999796703  0.489999999468421  0.489999999163427  0.489999999862803  0.489999999976833  0.489999999807434  0.489999999727346  0.489999999495663  0.489999999387542  0.489999999340315  0.489999999298886  0.489999999262296  0.489999999229878  0.490000000103623  0.489999998747247  
0.490000000091543  0.489999999761224  0.490000000537905  0.490000000575224  0.489999999967332  0.489999999251916  0.490000001454986  0.489999998472996  0.489999999789075  0.489999996944121  0.490000000080062  0.490000000202695  0.489999999987763  0.489999999963389  0.490000000047368  0.485191512210904  0.486032978697891  0.490000000309721  0.490000001276098  0.490000000217133  0.490000001299933  0.489999999365907  0.489999999431097  0.489999999806986  0.489999999911446  0.490000000919575  0.489999999984597  0.489999999832505  0.490000001652298  0.490000000695578  0.489999999689741  0.490000001844  0.490000000166651  0.489999999913984  0.490000000310372  0.490000001193335  0.489999998747055  0.490000000904703  0.489999998575251  0.49000000095294  0.490000000225499  0.489999999964582  0.489999999471  0.489999999717421  0.489999998059145  0.490000001100284  0.489999998892438  0.489999999303124  0.489999998565541  0.489999998883062  0.490000000094628  0.489999998995192  0.489999998950781  0.490000000069884  0.490000000478692  0.489999999890625  0.490000000545665  0.490000001045907  0.490000000081311  0.490000000196585  0.490000001087455  0.489999997606378  0.490000000639567  0.490000002694955  0.490000001087369  0.489999999387432  0.489999999353226  0.489999999319799  0.4900000002385  0.490000000097927  0.490000000120575  0.490000000553049  0.490000000383643  0.490000000357314  0.489999999939767  0.489999999686387  0.490000000856434  0.490000000091229  0.490000000074582  0.490000000381912  0.490000000682746  0.490000000277025  0.490000000001873  0.489999999959757  0.490000000438916  0.490000000144384  0.489999999763675  0.490000000369581  0.490000000053214  0.490000000498458  0.489999999395595  0.48999999984198  0.489999999406972  0.489999999571206  0.489999999548087  0.489999999532318  0.490000000103042  0.490000000112714  0.490000000121063  0.489999999940833  
0.489999999573311  0.489999999904987  0.490000000109695  0.489999999446333  0.489999999493372  0.489999999898287  0.489999999645875  0.490000001354728  0.490000000334087  0.489999999565867  0.490000000137477  0.48999999994404  0.490000000708018  0.490000000040405  0.490000000010991  0.485091228103205  0.485716958811554  0.490000000045615  0.489999999886925  0.490000000082936  0.489999999709347  0.490000000053678  0.490000000178564  0.489999999439788  0.4900000006648  0.489999999534568  0.489999999424256  0.490000000882916  0.489999999596127  0.490000000011501  0.489999998647032  0.49000000092987  0.489999999299891  0.489999999102419  0.489999999105507  0.489999999095076  0.490000003183988  0.490000000503075  0.489999999484143  0.489999999318094  0.489999999525935  0.48999999949021  0.490000000284251  0.490000000235289  0.490000000844657  0.490000001289582  0.490000000368127  0.49000000018241  0.490000001160945  0.490000001607289  0.490000000568939  0.489999999747963  0.489999999869912  0.489999998549426  0.489999999940344  0.489999999780715  0.490000000398082  0.489999999998788  0.490000000979681  0.490000001128596  0.490000001650314  0.490000002428704  0.490000000004221  0.490000000880641  0.490000000760003  0.490000000726233  0.490000000794705  0.490000000733853  0.490000000121739  0.490000000130449  0.489999999771743  0.490000000191136  0.49000000022  0.490000001966405  0.489999999378499  0.490000000099759  0.490000000053046  0.490000000442155  0.489999999950725  0.489999999830103  0.489999999249025  0.48999999998982  0.490000000484668  0.489999999423168  0.489999999601055  0.489999999585693  0.490000001001588  0.489999999476043  0.489999999725758  0.49000000023286  0.490000000384126  0.490000000032818  0.490000000302594  0.490000000225225  0.490000000171672  0.490000000120271  0.489999999550834  0.489999999016322  0.489999998927762  0.489999999882939  
0.48999999983522  0.490000000151281  0.489999999664218  0.489999999890172  0.49000000093163  0.489999998596319  0.490000001892308  0.49000000187093  0.489999998131533  0.490000000372607  0.489999999982042  0.49000000013109  0.490000000476817  0.489999999938214  0.489999999526321  0.485006432090531  0.485446754428079  0.490000000666344  0.490000002013893  0.489999999990345  0.490000000442697  0.49000000022856  0.490000001037971  0.490000000602422  0.49000000049619  0.490000001284545  0.490000001115222  0.489999999511544  0.489999999582718  0.489999999360924  0.489999999076146  0.489999998128461  0.490000000187703  0.490000000252134  0.49000000018573  0.489999999939676  0.490000001241055  0.49000000122403  0.490000000657584  0.489999999630857  0.489999996766619  0.490000001793677  0.48999999860035  0.490000000947675  0.490000002861781  0.490000001884503  0.490000000341574  0.489999999523706  0.489999999293922  0.489999999400701  0.490000001725253  0.489999999390751  0.489999999273749  0.489999999476207  0.489999999447472  0.490000000592693  0.490000000152849  0.490000000619984  0.490000000022212  0.489999999256603  0.489999999278897  0.489999999305391  0.489999999334933  0.489999999511353  0.489999999504484  0.489999999093942  0.489999999574537  0.489999999601691  0.489999999654544  0.489999999697175  0.489999999717302  0.48999999820915  0.489999998698238  0.48999999874455  0.48999999913475  0.489999999487141  0.489999998950685  0.489999999484825  0.489999999089939  0.490000000535156  0.489999999826918  0.489999999947479  0.49000000073471  0.490000000673932  0.490000000234867  0.489999999866519  0.490000000124495  0.489999999891643  0.49000000000152  0.490000000103931  0.490000000324209  0.490000000945798  0.489999999207191  0.490000000088737  0.490000000143428  0.490000000374494  0.490000000427264  0.489999999868457  0.489999999940021  0.490000000197265  
0.490000000240211  0.489999999597651  0.490000000091316  0.489999996717493  0.490000000088397  0.489999999958876  0.490000000234259  0.489999999708742  0.489999999658415  0.489999999817264  0.490000000278474  0.489999999486593  0.48999999989537  0.489999999949156  0.489999999241093  0.485091562796228  0.485387045780706  0.489999999547338  0.490000000525139  0.490000000812678  0.490000000140817  0.490000000356308  0.489999999696074  0.489999999274668  0.490000000370925  0.490000000505159  0.489999999373566  0.490000001507475  0.490000000076188  0.48999999908612  0.489999999787196  0.490000000399781  0.490000000451028  0.490000001644818  0.49000000055912  0.490000000545158  0.49000000049535  0.48999999955186  0.489999999591282  0.490000000144561  0.490000000639865  0.49000000113854  0.489999999794252  0.490000000819647  0.49000000192718  0.490000001249392  0.489999999610451  0.490000000950741  0.490000000959709  0.489999998372502  0.49000000038749  0.489999999179923  0.489999999680642  0.489999998942757  0.49000000159667  0.489999999873515  0.4900000005603  0.490000001818773  0.490000001704333  0.490000001595376  0.489999999931775  0.489999999945645  0.490000000574591  0.489999999880052  0.489999999874711  0.489999999865075  0.489999999398884  0.490000001144881  0.490000001033728  0.4900000006817  0.490000000623607  0.489999998954837  0.489999999105602  0.490000001337873  0.490000001207071  0.490000000085676  0.490000000859044  0.49000000006319  0.48999999864585  0.490000000027576  0.490000000445316  0.490000000030404  0.49000000043239  0.48999999856028  0.490000000253988  0.490000000674951  0.490000000029782  0.489999999503826  0.490000000662074  0.490000000829221  0.490000000246138  0.490000003496786  0.489999999760193  0.489999999794182  0.489999996981441  0.489999998687669  0.489999999304122  0.489999998483996  0.489999998639606  0.489999998829489  
0.489999999937188  0.489999999996546  0.490000000028893  0.489999999988988  0.490000000086663  0.490000000018874  0.490000000151639  0.49000000004468  0.490000000069544  0.49000000059339  0.489999999975319  0.48999999782138  0.490000000144456  0.490000003703333  0.490000000178057  0.485123138928865  0.485283764236473  0.490000000589635  0.490000001732235  0.490000000448317  0.489999999337779  0.490000001906493  0.490000000395593  0.489999999666846  0.490000000013128  0.490000000343185  0.489999997990439  0.489999999778271  0.489999999819276  0.489999998912793  0.489999998970547  0.489999999406684  0.49000000059975  0.489999999825493  0.489999999403547  0.489999999785961  0.490000000653001  0.490000000831052  0.489999999735361  0.489999999262208  0.490000000212826  0.490000000109374  0.49000000061138  0.489999998654948  0.490000000456554  0.490000000650399  0.489999999745307  0.490000001357648  0.490000001182474  0.49000000005148  0.490000000145678  0.490000000107648  0.489999999750159  0.489999998974465  0.490000000041578  0.489999999914306  0.489999998655173  0.489999998711888  0.489999998781392  0.489999998856903  0.489999998935046  0.489999999013901  0.48999999909221  0.489999999169031  0.489999999243549  0.489999999314965  0.489999999382426  0.489999999444947  0.489999999501343  0.489999999550129  0.4899999995894  0.490000000502925  0.490000000483818  0.489999999937132  0.490000001291451  0.490000000946015  0.489999999520786  0.489999999617593  0.490000002172877  0.490000000349326  0.490000000781381  0.490000000119298  0.489999999274808  0.489999999665704  0.490000000240721  0.490000000081712  0.489999999835072  0.489999999996141  0.490000000294232  0.48999999900388  0.490000000243298  0.490000000178058  0.489999999353958  0.489999997618056  0.490000000442399  0.4900000004399  0.49000000027221  0.490000000167829  0.489999996152683  0.490000000220001  
0.490000000455454  0.48999999971328  0.489999999176594  0.489999999381785  0.489999998415508  0.489999998491696  0.489999999864548  0.489999998124844  0.489999998261454  0.490000000293389  0.490000000100852  0.489999999728153  0.489999999555572  0.49000000024783  0.490000000006201  0.485166311139653  0.485203780948725  0.490000000763699  0.490000000517649  0.489999999674659  0.489999998648633  0.489999999670735  0.489999999352771  0.490000000178004  0.490000000053513  0.489999999824791  0.489999999736527  0.489999999808578  0.49000000064967  0.489999999792649  0.489999999782731  0.49000000013492  0.489999999813808  0.490000000384756  0.48999999981984  0.489999999391065  0.490000001547567  0.490000000487688  0.489999999438426  0.490000000889798  0.489999997393209  0.490000001331325  0.490000001038454  0.490000001043079  0.489999999925316  0.490000000225396  0.48999999921427  0.489999999726875  0.489999999574161  0.489999999680401  0.489999999380476  0.489999999840339  0.490000000167595  0.490000001253795  0.490000001162218  0.489999999853781  0.489999999855909  0.489999999863565  0.48999999987485  0.489999999888539  0.489999999903839  0.489999999920214  0.489999999937284  0.489999999954764  0.489999999972427  0.489999999990082  0.490000000007554  0.49000000002467  0.490000000041251  0.490000000057096  0.490000000071974  0.4900000000856  0.49000000009762  0.490000000107577  0.490000000114873  0.489999999456076  0.490000000434858  0.489999998716828  0.489999998783033  0.489999998902845  0.489999999112988  0.489999999685902  0.490000000338382  0.489999999030155  0.490000000389977  0.490000000477732  0.490000000029558  0.490000000036579  0.490000000039396  0.489999999962975  0.490000000067227  0.490000000321937  0.490000000275122  0.490000000240959  0.49000000043983  0.490000000009981  0.490000000257169  0.489999999984043  0.489999999985367  0.49000000001438  
0.490000000003564  0.490000000223004  0.490000000084527  0.489999999736097  0.48999999978907  0.489999999908649  0.490000001233464  0.490000001267278  0.490000001334091  0.489999999844147  0.489999999632574  0.490000000201975  0.490000000359654  0.490000000005835  0.489999999900005  0.485263676383092  0.485219914558029  0.490000000668647  0.490000000316717  0.489999999112424  0.489999999669326  0.489999999141447  0.490000001222225  0.490000000184903  0.490000000211431  0.490000000006985  0.489999997359022  0.489999999925716  0.489999999155316  0.489999998891222  0.490000000227878  0.490000000935868  0.4899999996606  0.490000000484496  0.490000000617853  0.49000000044442  0.490000000416615  0.490000000397552  0.490000001248809  0.48999999802531  0.490000000168097  0.48999999972851  0.489999998549637  0.490000000295412  0.489999999972014  0.490000000452338  0.489999999323606  0.489999999590453  0.49000000027773  0.490000000826997  0.489999999100142  0.490000000879431  0.490000000958616  0.489999999439148  0.490000000776221  0.489999998775177  0.48999999867948  0.489999998651127  0.489999998655906  0.490000000200054  0.490000000208244  0.490000000215006  0.490000000220704  0.490000000225594  0.490000000229864  0.490000000233656  0.490000000237078  0.490000000240218  0.490000000243149  0.490000000245933  0.490000000248626  0.490000000251283  0.490000000253958  0.490000000256709  0.490000000259604  0.490000000262729  0.490000000266216  0.49000000027032  0.490000000275752  0.490000000285341  0.490000000302487  0.490000001764358  0.489999999638507  0.489999999226385  0.489999999586894  0.48999999961784  0.490000000997848  0.490000000725138  0.490000000333561  0.490000000240807  0.489999999491254  0.49000000001063  0.490000001826171  0.489999999442965  0.489999999345536  0.489999999190267  0.490000003247005  0.490000000957491  0.489999999416924  0.490000000010079  
0.490000001000838  0.490000000364676  0.490000000344783  0.49000000032408  0.489999999801272  0.48999999514646  0.489999995455901  0.490000003718639  0.490000003463647  0.490000001800075  0.490000000023267  0.489999999760901  0.489999996525604  0.490000000253529  0.490000000580978  0.485354880604813  0.485209718382711  0.490000000935074  0.490000000879116  0.489999999906807  0.490000000743061  0.489999999442334  0.489999999485912  0.489999999797784  0.490000000209659  0.49000000106881  0.489999999329358  0.490000000261968  0.489999999209428  0.489999998702181  0.490000000876768  0.490000001273693  0.490000000167471  0.490000000374159  0.489999999261271  0.490000000500721  0.48999999950436  0.490000000017055  0.489999998845924  0.490000000242988  0.489999999263603  0.49000000065341  0.490000000122499  0.490000000732814  0.490000000257903  0.490000000411561  0.490000000131659  0.489999999286239  0.490000000655147  0.490000001179211  0.490000000553609  0.489999998405139  0.489999999486307  0.490000000132969  0.490000000426227  0.490000000487607  0.489999998860828  0.489999998792134  0.490000000092592  0.490000000145188  0.49000000019957  0.490000000255234  0.49000000031174  0.490000000368703  0.49000000042577  0.48999999924443  0.48999999926188  0.489999999286183  0.489999999316205  0.489999999351089  0.489999999390188  0.489999999433022  0.489999999479245  0.489999999862725  0.489999999958377  0.490000000056921  0.490000000158316  0.490000000262423  0.490000000368628  0.490000000474186  0.490000000549016  0.490000000097341  0.48999999964325  0.489999999799168  0.490000001727048  0.48999999979702  0.490000000030654  0.490000000225758  0.490000000706135  0.489999999890987  0.490000000941665  0.490000000920484  0.490000001444748  0.490000001083915  0.490000000885288  0.490000000910561  0.49000000053593  0.490000000313879  0.490000000008871  0.489999999938312  
0.48999999999951  0.49000000000868  0.489999999993508  0.489999999992071  0.489999999997114  0.489999999998594  0.489999999988914  0.489999999988856  0.489999999934238  0.489999999833476  0.489999999797507  0.490000000091497  0.49000000015099  0.490000000107391  0.490000001145273  0.485325622460624  0.489999998226259  0.49000000001241  0.490000001790604  0.490000000456724  0.489999997555721  0.489999999238342  0.490000000260831  0.48999999975661  0.490000000074669  0.490000001380644  0.489999999884909  0.489999999660531  0.49000000005507  0.490000001772323  0.489999998804194  0.490000000162917  0.489999999459401  0.489999999400452  0.490000000020918  0.490000000179369  0.490000000142056  0.489999999218553  0.490000001098038  0.489999999061507  0.49000000143695  0.490000001303272  0.489999999876981  0.48999999934274  0.490000000321358  0.489999999476861  0.489999999156553  0.489999999909607  0.489999999574846  0.490000000884827  0.490000000322597  0.490000000890704  0.4899999986265  0.490000001585964  0.49000000216139  0.490000001982006  0.490000000668292  0.490000000894124  0.489999999822897  0.490000000312449  0.489999999248156  0.489999999199337  0.489999999749642  0.489999999737317  0.489999999725525  0.489999999714257  0.489999999703531  0.489999999693392  0.489999999683906  0.48999999967517  0.489999999667311  0.490000000039851  0.490000000028658  0.490000000015093  0.489999999999148  0.489999999980862  0.489999999960518  0.489999999939154  0.489999999919936  0.489999999911598  0.48999999993674  0.489999999153992  0.489999999720359  0.490000000165558  0.489999998550025  0.489999999722585  0.490000000654685  0.489999998161689  0.489999999873238  0.48999999969175  0.490000000146303  0.490000000064918  0.490000000034349  0.490000000098596  0.490000000120199  0.490000001209146  0.490000000021987  0.490000000017843  0.489999999954307  0.489999999923669  
