DSAA
100   100
-99.25   -98.85
19.2   19.6
0.24815310861432   3.91262501355495
0.49  0.49  0.489999999978419  0.489999999975228  0.489999999615895  0.490000000131018  0.490000000735259  0.489999999198994  0.489999999691231  0.489999998991965  0.4900000001259  0.490000000011323  0.490000000538218  0.490000000332244  0.489999997944198  0.490000000274266  0.490000002063577  0.489999999387506  0.489999999295176  0.489999999656141  0.489999999864229  0.489999999896145  0.489999999743773  0.489999999961872  0.490000000923591  0.489999999320925  0.489999999973642  0.490000000327104  0.48999999878105  0.489999999491561  0.489999999934653  0.489999998959989  0.49000000009837  0.490000000905959  0.490000000626442  0.489999999014796  0.490000000207761  0.490000000507499  0.490000000836469  0.489999998099052  0.490000000063587  0.489999998996969  0.489999999841338  0.490000001394587  0.490000001001539  0.489999999604284  0.489999999378316  0.489999999574911  0.490000000471089  0.490000001435944  0.490000002452854  0.489999998720198  0.489999999565916  0.490000003375708  0.490000001062138  0.489999999526763  0.489999997003361  0.489999998814828  0.490000000442521  0.489999999319958  0.489999999242287  0.489999999188426  0.490000000012074  0.489999999129999  0.490000001354806  0.490000000456714  0.490000000851472  0.490000000347397  0.489999999388228  0.490000000075003  0.489999999577876  0.490000000656119  0.490000000520211  0.48999999892831  0.490000000458863  0.489999999568428  0.489999999996968  0.490000000142316  0.489999999849807  0.490000000597105  0.490000000120237  0.489999999642849  0.490000000041378  0.489999998235219  0.489999999325044  0.489999999994965  0.490000001288314  0.489999999563947  0.489999999967981  0.490000000177687  0.490000000470815  0.490000000654889  0.49000000044428  0.490000000395848  0.49000000018911  0.489999999186263  0.490000000108947  0.490000000072793  0.490000000078915  0.489999998918478  
0.490000000043762  0.490000000104087  0.490000000169665  0.490000000240272  0.48999999974651  0.489999999732998  0.490000000019816  0.489999998708784  0.489999999828338  0.490000000137996  0.490000000260157  0.489999999519601  0.490000001458888  0.489999998570985  0.490000000377738  0.490000000155104  0.49000000004678  0.489999999521568  0.490000000322823  0.489999997966944  0.489999999781183  0.490000000391919  0.490000000241387  0.490000000127865  0.489999999855082  0.489999999638185  0.490000000090779  0.489999999976153  0.490000001388249  0.489999998880994  0.490000000276252  0.490000000955665  0.489999998041331  0.490000001000485  0.489999998854802  0.490000001474695  0.489999999942078  0.490000000059494  0.489999999947566  0.489999999991804  0.489999999848015  0.489999999765199  0.490000000441949  0.490000000387677  0.49000000014162  0.489999999927924  0.490000000479905  0.490000000072301  0.489999999671278  0.489999998568357  0.490000001314809  0.49000000093454  0.489999998896177  0.490000000400582  0.490000000324777  0.490000000159721  0.48999999883361  0.489999999318031  0.489999999671162  0.48999999998556  0.489999999905738  0.489999999727112  0.489999999273528  0.489999999176205  0.489999999713039  0.49000000073758  0.48999999977095  0.489999999938703  0.490000000247421  0.48999999914979  0.489999999762879  0.490000000876842  0.489999999971413  0.490000000344097  0.49000000121736  0.48999999947114  0.489999999615207  0.489999998425735  0.490000000653612  0.490000000440532  0.489999999932843  0.489999999228526  0.490000000837499  0.48999999927935  0.489999999185049  0.490000000623441  0.489999999741137  0.49000000032242  0.489999999433161  0.489999999488245  0.490000001104114  0.48999999944899  0.490000000320169  0.490000000095197  0.489999995245837  0.490000001032336  0.490000000060165  0.489999999795349  0.490000000601302  0.490000000751608  
0.4900000003505  0.489999999969215  0.489999999310788  0.489999999544866  0.490000000080145  0.489999999396455  0.489999999949875  0.490000001253404  0.490000001116437  0.490000001029717  0.489999999582269  0.490000000013414  0.490000000025791  0.490000000650549  0.489999998119938  0.490000000008907  0.489999999878818  0.490000000803409  0.490000000033068  0.490000000735606  0.489999999069623  0.490000001998596  0.490000000132418  0.489999999693194  0.489999999044686  0.490000001519923  0.489999999362328  0.490000000218121  0.489999998855714  0.489999999643242  0.489999999952095  0.489999998406978  0.490000000306963  0.489999998104978  0.489999999911257  0.490000000731324  0.489999999974183  0.490000000235317  0.490000000851307  0.490000000299448  0.489999999956621  0.489999999206985  0.490000000286131  0.490000000462862  0.489999997794337  0.489999998709128  0.490000000226111  0.489999999101585  0.489999998635148  0.489999999502947  0.490000000232033  0.489999999513698  0.490000001773017  0.489999999492062  0.489999999617072  0.489999999175532  0.48999999811546  0.490000000835826  0.489999999841726  0.490000000645371  0.490000000260777  0.489999999486753  0.490000000878046  0.490000000038817  0.489999999922248  0.489999999426602  0.490000001263201  0.490000000105281  0.489999999294919  0.490000001262877  0.489999998167403  0.489999999411837  0.489999998746725  0.490000001089528  0.490000001344441  0.49000000114979  0.489999998962324  0.489999999327805  0.489999999217748  0.490000000555164  0.489999999895338  0.490000000008412  0.490000000117422  0.489999999080604  0.490000000775214  0.490000000548338  0.490000000354865  0.490000001477292  0.489999998865213  0.490000000882025  0.490000000573699  0.490000000352903  0.489999999231398  0.489999999752062  0.489999999959859  0.49000000036917  0.489999998954501  0.490000000084069  0.490000000266467  0.49000000215461  
0.489999999730895  0.490000000455667  0.490000000304587  0.49000000001375  0.490000000092563  0.490000000113509  0.490000000193872  0.490000000184917  0.490000000314044  0.490000001217945  0.489999999957883  0.49000000014581  0.489999998741946  0.489999998541167  0.490000001791418  0.489999999670109  0.490000000111946  0.489999999864516  0.490000000299585  0.490000000252367  0.489999999656112  0.490000001613832  0.489999999360741  0.490000001956674  0.490000000473262  0.490000000922937  0.49000000048991  0.490000000369488  0.490000000038533  0.490000000596792  0.489999999929563  0.48999999857209  0.490000000373687  0.490000001659377  0.489999999698817  0.490000000730367  0.490000000163452  0.490000000445141  0.490000001254125  0.490000000715176  0.490000000248295  0.490000000775299  0.490000001267581  0.490000000837752  0.489999999905729  0.490000000516001  0.490000000401362  0.490000002276544  0.489999999976881  0.490000001173691  0.490000000931047  0.49000000003391  0.489999999949123  0.49000000078451  0.490000001232628  0.489999999875224  0.490000001028072  0.490000000960277  0.490000000816636  0.490000000534801  0.489999999808773  0.48999999959321  0.490000000838428  0.489999999072003  0.489999998857716  0.490206715845238  0.490114396112912  0.490032502797245  0.493951007262105  0.489999998031303  0.48999999846054  0.490000000250854  0.490000001194445  0.490000000382166  0.489999999730713  0.49000000023065  0.489999999280101  0.489999999869021  0.48999999955621  0.490000000063658  0.490000000138717  0.490000000618927  0.48999999977438  0.489999999974619  0.489999999841997  0.48999999923448  0.490000000288148  0.490000000404819  0.489999999391843  0.489999998564657  0.490000000283572  0.489999999995526  0.490000000275269  0.489999998859501  0.489999999850505  0.489999999402128  0.489999999608881  0.489999998993307  0.490000000894165  0.4900000008646  
0.490000000905667  0.489999999999747  0.490000000821326  0.490000000764838  0.48999999989078  0.489999999826408  0.489999999758165  0.489999998520016  0.489999998470931  0.489999998901955  0.490000000279478  0.490000000647118  0.489999999649426  0.490000001935341  0.490000005610152  0.489999996117258  0.490000001340423  0.490000000775965  0.490000000121128  0.489999999535767  0.48999999759328  0.490000000033189  0.489999999967063  0.489999999673667  0.49000000115837  0.489999999608435  0.489999999187369  0.490000000657804  0.490000000842346  0.489999999989948  0.490000000061657  0.490000000137057  0.490000000012918  0.489999999850772  0.489999999906521  0.490000000669439  0.489999999391481  0.489999999915658  0.48999999998909  0.489999999897311  0.490000000847047  0.489999999691709  0.48999999877261  0.490000000806261  0.490000000036558  0.489999998630559  0.489999998960722  0.489999999834182  0.489999999686103  0.489999999630553  0.490000001750317  0.490000000948755  0.489999999937806  0.489999999485742  0.489999999408227  0.489999999651269  0.489999999090185  0.489999999545802  0.489999999462589  0.489999999519505  0.490000000714108  0.490000000277864  0.490000001033406  0.490000001660314  0.490275355757965  0.490088690363174  0.490036198735317  0.489964613576165  0.503352958924616  0.510448109091989  0.490000000449935  0.489999999637868  0.490000000612442  0.490000000001462  0.489999999437519  0.489999999921835  0.489999998138289  0.490000001421239  0.489999999858841  0.489999999998992  0.490000000105683  0.49000000018761  0.490000000297615  0.490000000304192  0.489999999314915  0.489999999992254  0.489999998901093  0.489999999221604  0.489999999951283  0.489999999833565  0.490000001144808  0.49000000053318  0.489999998961587  0.489999998999996  0.489999999033725  0.490000000344893  0.489999999056112  0.490000000231033  0.490000000274045  0.490000000252987  
0.490000000094638  0.490000000020079  0.490000000181824  0.49000000015476  0.490000000125406  0.489999998033893  0.489999998124736  0.489999998219512  0.489999999755234  0.489999999214319  0.489999999139825  0.489999999420462  0.490000000339804  0.489999999426229  0.490000001993433  0.489999998421821  0.489999999980831  0.489999999949093  0.490000000872071  0.489999999734752  0.490000000245282  0.489999996143064  0.490000001272679  0.490000000808349  0.490000000502745  0.489999999665888  0.489999998654319  0.490000000102003  0.490000000047363  0.490000000517169  0.489999999967275  0.489999999796131  0.490000000208442  0.490000000257328  0.489999999894069  0.490000000540038  0.490000000121501  0.490000000664466  0.490000000038191  0.489999999693787  0.489999999838645  0.489999999484527  0.490000001341493  0.49000000107283  0.48999999940882  0.489999999681359  0.489999999864186  0.490000000816273  0.490000000887359  0.490000000261651  0.490000000443191  0.489999999475498  0.490000000149202  0.489999999814023  0.489999999796909  0.49000000008943  0.49000000057795  0.490000000228045  0.489999999916339  0.489999999364553  0.490000000007097  0.490759998218145  0.490586850020201  0.490397415726412  0.49018754506104  0.489987135912866  0.489921891085868  0.489851370478128  0.515598210044796  0.524881752969009  0.53764638533901  0.542316543238632  0.490000000791459  0.49000000019385  0.489999999926042  0.490000000313199  0.490000000172441  0.48999999950813  0.489999999795115  0.490000000258539  0.490000000241115  0.490000000324138  0.489999999654206  0.490000000173929  0.489999999117771  0.489999999811996  0.48999999890172  0.490000000249505  0.489999999896354  0.490000000440366  0.490000000348052  0.489999999442964  0.490000001020238  0.489999999598894  0.489999999467738  0.489999999424446  0.490000001321362  0.490000000699749  0.490000000694099  0.490000000785956  
0.490000000034756  0.489999998461355  0.489999998433407  0.489999998404219  0.489999999461443  0.489999999503933  0.489999999749425  0.489999999742929  0.489999999736009  0.489999999783693  0.489999999128342  0.489999999666899  0.489999999254194  0.48999999955951  0.489999999677847  0.489999999997586  0.4900000004239  0.490000000117242  0.490000001142705  0.489999997654761  0.490000000201558  0.489999999929392  0.489999999895707  0.489999999802285  0.490000000134715  0.490000000206861  0.490000000497113  0.490000000689845  0.490000000446518  0.49000000024  0.49000000005753  0.49000000031848  0.489999999280954  0.49000000012248  0.490000000040789  0.490000000902577  0.490000000682441  0.490000000248625  0.489999999591344  0.489999999795868  0.490000000569063  0.490000000951942  0.489999999905164  0.490000000398081  0.490000000139215  0.489999999488921  0.489999999527678  0.490000000225466  0.490000000136303  0.490000000155769  0.490000000271996  0.490000000116775  0.490000000569476  0.490000000663108  0.490000000756586  0.490000000225331  0.489999998452493  0.489999999434119  0.490000000005122  0.489999999133624  0.490834443703334  0.490698121796981  0.490517947089573  0.490330482177506  0.490141741408214  0.489972510131314  0.489808407899288  0.489676293896272  0.530328051506586  0.541709286329  0.570435088648952  0.565109030865417  0.490000000174038  0.489999999650491  0.49000000072266  0.490000000544562  0.490000000393188  0.490000000201138  0.490000000251122  0.490000000050783  0.489999999833817  0.490000000444392  0.489999999863172  0.490000000307526  0.489999999816575  0.490000000355301  0.4900000000182  0.489999998557995  0.489999997426285  0.490000001081939  0.490000000111002  0.489999998116844  0.490000000572199  0.490000000520621  0.490000000493592  0.490000000234089  0.490000000174679  0.490000000116147  0.490000001009577  0.489999999527486  
0.49000000000453  0.490000000146535  0.49000000021182  0.490000000280842  0.490000000353599  0.490000000408725  0.490000000413282  0.490000001927956  0.490000001916308  0.4899999998571  0.490000000198572  0.490000000357133  0.490000000420843  0.489999999829516  0.489999999489053  0.489999999769671  0.489999999902832  0.48999999968351  0.489999999079278  0.48999999918149  0.490000005315914  0.489999999866418  0.489999999252592  0.490000000698879  0.49000000016982  0.489999999819993  0.490000001256877  0.489999999508207  0.490000000087473  0.489999999996286  0.489999999984531  0.489999999693428  0.489999998648256  0.490000000754443  0.490000000674372  0.49000000038693  0.490000000296193  0.490000001102296  0.490000000053248  0.490000000289387  0.489999999752626  0.490000000978895  0.490000001909039  0.489999999316806  0.489999999765751  0.490000001490032  0.490000000058038  0.489999999517917  0.489999999636997  0.489999999453835  0.48999999889684  0.489999999326271  0.49000000003205  0.489999999624223  0.490000001356194  0.490000000281306  0.489999999943567  0.490000000039014  0.490000000617736  0.490893174200772  0.49076763031787  0.490615612265859  0.490425855661117  0.490230907080902  0.490045294995329  0.489837035127849  0.489643527762472  0.48948282969682  0.558478188275103  0.574371637781408  0.599908989268871  0.590658864002571  0.490000000284506  0.490000001234206  0.489999999478412  0.490000000435126  0.490000000962612  0.489999999396843  0.601032729488361  0.595651113308108  0.588609627916182  0.489999999567893  0.490000001046041  0.490000000458386  0.489999999352343  0.489999999954161  0.489999999512889  0.490000000187154  0.490000001403788  0.490000000127321  0.490000000893385  0.489999998624159  0.489999999385905  0.4900000014395  0.49000000191404  0.490000002399978  0.4900000028559  0.490000003267133  0.490000003631772  0.490000003953185  
0.490000000160945  0.489999993857961  0.490000000388657  0.490000000029197  0.490000000033663  0.490000000038871  0.490000000044987  0.48999999976565  0.489999999798706  0.489999999351201  0.490000001205969  0.490000000916976  0.490000000467492  0.489999999587397  0.489999998927279  0.490000000455551  0.4899999992651  0.490000000784046  0.489999999987757  0.490000000867965  0.489999997552208  0.489999999447724  0.490000000424767  0.490000000860001  0.489999999336271  0.489999998552115  0.489999999857545  0.490000002073007  0.489999999659496  0.490000000752308  0.489999999750332  0.489999999987708  0.489999999901487  0.48999999913629  0.490000000621961  0.490000001151133  0.489999999678634  0.489999998931826  0.490000000978092  0.490000000182933  0.489999999772033  0.489999999141959  0.490000000019882  0.490000000574936  0.489999999807978  0.490000000122655  0.490000000088452  0.489999999469596  0.489999999638568  0.490000000660717  0.490000001298402  0.490000000287689  0.490000000232928  0.490000000210213  0.48999999913721  0.490000000531349  0.49000000011599  0.490968661776671  0.490901451313788  0.49081572819162  0.490683014884038  0.49050270432043  0.490290386862003  0.490068592197667  0.48983436436524  0.489606796689941  0.489413914117567  0.489250532700823  0.579310925381269  0.59720099218449  0.642022432912722  0.616496624431663  0.489999999485321  0.490000000970248  0.490000001293908  0.632894608124251  0.598062186153282  0.597652197652102  0.595669243807389  0.592299436713207  0.571315909690393  0.490000000266219  0.490000000302306  0.490000000225352  0.490000000186544  0.490000000437499  0.489999999585992  0.489999999450015  0.489999999564413  0.489999999863678  0.490000000162583  0.490000000173339  0.490000000357209  0.490000000831981  0.490000000941083  0.49000000096413  0.490000000953199  0.490000000924565  0.489999999093508  0.489999999032201  
0.489999999944563  0.489999999627032  0.489999999736859  0.490000000049265  0.48999999773672  0.489999997920126  0.489999998114603  0.489999998320574  0.489999999716231  0.490000000193436  0.48999999854131  0.490000000766537  0.490000000115236  0.489999999023073  0.490000000086817  0.489999998615405  0.489999998615156  0.490000001309796  0.490000000753682  0.490000000316288  0.489999997948678  0.490000000450795  0.490000000376442  0.490000000244168  0.489999999399057  0.490000000468369  0.490000001090037  0.489999999743428  0.490000000295103  0.490000000162559  0.489999999930283  0.489999999330758  0.490000000413879  0.48999999946096  0.490000000429662  0.490000000094242  0.48999999985165  0.490000000710473  0.489999999998394  0.490000000225002  0.490000000002737  0.489999999420419  0.490000000923718  0.489999998550121  0.489999999872714  0.489999999759341  0.489999999592195  0.489999999375944  0.489999999966452  0.489999999933948  0.490000002199877  0.48999999902704  0.490000000076402  0.489999999718658  0.490000000643455  0.490000000174623  0.490926588732381  0.490887738718958  0.490816227289466  0.490740679813194  0.490573602351272  0.490358581947101  0.490109027691903  0.489851403711081  0.489560017494754  0.489317965330779  0.489134991897379  0.488971748875285  0.601427164140116  0.622323759008152  0.676363248839604  0.623006255483356  0.48885885699835  0.488491458570217  0.488505197520777  0.616604854729561  0.618750744030807  0.618016017926893  0.615698504665711  0.645969715795981  0.587136978646124  0.48999999982723  0.489999999863427  0.490000001440251  0.489999998314501  0.490000000439167  0.489999999706034  0.489999999941127  0.489999999793129  0.489999999744795  0.490000000576997  0.489999999077746  0.489999999241515  0.490000000023289  0.490000000117958  0.49000000016324  0.490000000185124  0.490000000193581  0.490000000193703  0.490000000188574  
0.490000000253876  0.490000000098947  0.490000000100129  0.490000000101216  0.490000000041001  0.489999999704539  0.48999999883806  0.489999998848956  0.489999998860331  0.489999999291226  0.490000003162144  0.490000001308417  0.490000000250242  0.490000000303251  0.489999998614462  0.490000001639785  0.490000001953637  0.489999997654254  0.489999998823597  0.489999999776852  0.490000001419281  0.490000000720769  0.490000000560563  0.490000000396434  0.490000000492755  0.490000000173824  0.490000000080639  0.490000000569962  0.489999998902072  0.490000001862668  0.489999999989719  0.490000000407965  0.489999999718967  0.490000000082174  0.490000000288267  0.490000000301005  0.490000000170156  0.489999999723327  0.4899999996764  0.490000000074163  0.489999999604618  0.490000001545869  0.489999999278026  0.489999999850586  0.489999998893691  0.489999998918208  0.489999999131311  0.490000000549773  0.490000000406791  0.490000000318891  0.490000000351428  0.490000001130485  0.4900000008133  0.489999999553291  0.489999999973622  0.489999999702786  0.490853835556156  0.490808131227884  0.490714452039195  0.490613373500891  0.490412326863814  0.490162203215628  0.48987713948654  0.489546935941623  0.489222592329938  0.488975540921084  0.488807604044441  0.488645773149835  0.626138174501473  0.643196289463778  0.680218265814334  0.58081904428941  0.488636889681359  0.488666548493787  0.488729217136506  0.638799295911836  0.641404392803615  0.640040165725202  0.679581379615023  0.639729117082913  0.604366852210944  0.490000000013323  0.489999999761298  0.489999999106751  0.490000000891952  0.489999999431854  0.490000000064313  0.490000000867139  0.489999999088968  0.490000000922895  0.489999999182123  0.490000000146796  0.489999999497755  0.489999999887957  0.490000000118886  0.490000000280626  0.490000000368781  0.490000000407476  0.490000000417206  0.49000000041041  
0.490000000419858  0.489999999836131  0.489999999739528  0.48999999977371  0.489999999809734  0.48999999984762  0.48999999958998  0.490000000765299  0.490000001995945  0.490000002057173  0.489999998787446  0.489999999747793  0.490000000147335  0.489999999250525  0.489999999663198  0.490000002531814  0.490000001264905  0.490000000604197  0.489999998547903  0.490000000469945  0.490000001687063  0.489999999347404  0.489999999372607  0.490000002935185  0.489999999409194  0.490000000012972  0.490000000073861  0.489999999860389  0.490000000609724  0.489999999227532  0.489999999058283  0.490000000181559  0.490000001487192  0.489999998001478  0.490000000228898  0.48999999930436  0.490000000868485  0.489999999919333  0.490000000061483  0.489999998532672  0.48999999999728  0.490000000183078  0.489999999866333  0.490000000488971  0.489999999548123  0.489999998783097  0.490000000336897  0.489999999619205  0.490000000371939  0.489999999926009  0.489999999653081  0.489999999759849  0.490000000103557  0.48999999960754  0.489999999506462  0.490705551236204  0.490705605205051  0.490649388732206  0.490543937918894  0.490397315696206  0.490192701221238  0.489887647071064  0.489521342707039  0.489165812882457  0.488826497705942  0.488577759092837  0.488425663245305  0.488292149354362  0.645126688512568  0.669958382058787  0.714401095690314  0.597891330562917  0.488429032206385  0.488494404112883  0.61391296995865  0.61350377372715  0.61209554217204  0.657412432461954  0.659406667348006  0.66881733097097  0.648942455020622  0.489999999791376  0.489999999978049  0.490000000482808  0.489999998407981  0.490000000010174  0.490000000767696  0.490000000558747  0.489999999549005  0.490000001753899  0.490000000898466  0.490000002261884  0.489999998129699  0.48999999978998  0.489999999856992  0.489999999871172  0.48999999987975  0.489999999888269  0.489999999897197  0.489999999906274  
0.490000000080307  0.49000000014692  0.490000000159089  0.490000000324926  0.48999999897224  0.489999998955814  0.489999998939763  0.489999998924391  0.49000000072664  0.490000001257008  0.489999999730692  0.489999999563962  0.490000000981865  0.490000000569093  0.49000000092284  0.490000000903084  0.489999999909604  0.489999999367741  0.490000001668328  0.489999999469945  0.490000000941987  0.489999999965018  0.490000000569091  0.489999998265982  0.489999999963744  0.490000000015507  0.490000002163185  0.490000000284191  0.490000001194863  0.490000000032582  0.489999999004263  0.489999998864797  0.489999999913279  0.490000000492138  0.489999998148732  0.489999998222224  0.490000000818348  0.48999999864916  0.490000000083884  0.490000000518947  0.489999999474076  0.490000000600656  0.490000000244528  0.489999999690977  0.490000000942028  0.490000002158055  0.490000001298762  0.489999999966465  0.489929892165377  0.48995787381635  0.490000000238114  0.49000000105568  0.490000000406101  0.489999999973059  0.490000000140329  0.490508029133851  0.490498650406062  0.490426342525762  0.490299249277207  0.490099576676094  0.489813846019937  0.489462347345312  0.489072503613953  0.488704064051952  0.48836561250927  0.48812549323387  0.487780667513948  0.487550922165453  0.66979216765232  0.698487361994557  0.749854914635342  0.618153963411591  0.488170544818795  0.488255714334919  0.633374871058643  0.634115688954822  0.63166199263382  0.698608871113868  0.687671993731803  0.689330090248286  0.664090184053987  0.490000000559578  0.490000000275842  0.49000000000129  0.490000000098072  0.490000000112508  0.490000001216996  0.489999999984366  0.490000000608437  0.489999998470237  0.490000000111076  0.490000000626887  0.490000000843599  0.489999999737435  0.489999999586385  0.489999999497519  0.489999999445035  0.489999999419472  0.489999999413379  0.489999999420998  
0.489999999405795  0.490000000200541  0.489999999995939  0.490000000735702  0.490000000761688  0.490000000788605  0.489999999694956  0.490000000798358  0.490000000877144  0.490000001544544  0.490000000441487  0.489999999900435  0.490000000723087  0.490000000260879  0.490000001159613  0.490000000406583  0.49000000026974  0.489999998379248  0.490000000735411  0.489999998414631  0.490000000015566  0.490000000351789  0.490000000392983  0.489999999773723  0.4900000015567  0.490000001735782  0.490000001217498  0.489999999848154  0.489999999833521  0.490000000893367  0.489999999585687  0.48999999926679  0.486078047800668  0.488854908482272  0.490334158728659  0.494769648332786  0.489693023926207  0.489573700665408  0.489468576122894  0.489380651792531  0.489307049349414  0.489205333360803  0.489388481586029  0.490000000079462  0.490000001019813  0.489999999724735  0.489999999123118  0.489793262763443  0.489665684488099  0.489661533775107  0.489764186140349  0.489909064574413  0.490010133629347  0.490055346482909  0.490201555837721  0.490312956676962  0.490224262009337  0.490089289915272  0.489908966186221  0.489624562045839  0.489263949049354  0.488914818124955  0.488530405658302  0.488167195941896  0.487820525610447  0.487523175726932  0.487270749356009  0.487049482818741  0.694629770357952  0.729927683972112  0.789829032322361  0.639901622267769  0.487945570002484  0.653526389102405  0.655497834469073  0.65505309727682  0.73576128961902  0.72458263687095  0.714684002090705  0.709168510453717  0.681291770636551  0.489999999524086  0.490000000048246  0.49000000084597  0.489999998971268  0.489999999981441  0.490000001748164  0.489999999463221  0.490000000671566  0.490000000324359  0.489999999931819  0.489999999418551  0.489999999621471  0.489999999645581  0.489999999416164  0.489999999439627  0.489999999504554  0.489999999570825  0.489999999630857  0.489999999683766  
0.489999999878881  0.489999999454113  0.489999999908571  0.489999999890826  0.489999999915104  0.489999999916344  0.489999999693493  0.489999999733582  0.490000001510835  0.489999995707962  0.48999999724701  0.489999999846325  0.490000000415048  0.489999998420209  0.490000001269123  0.490000001250017  0.490000001233762  0.489999999791424  0.489999998683922  0.489999997835404  0.489999999671742  0.490000000733913  0.490000000556245  0.490000000871498  0.489999999843317  0.490000002326644  0.490000001763983  0.489999999347717  0.490000002160073  0.489999998266523  0.49000000093653  0.490000000208371  0.489393309899934  0.493781553965577  0.500636226986309  0.502798177345172  0.48949186083165  0.489294868862753  0.489105152900774  0.48895497306762  0.488810010862619  0.489064236559344  0.489129309689412  0.489128421387207  0.489155957697021  0.48920516190424  0.489239885216679  0.489175688003912  0.489137929557567  0.489128795196506  0.489219997958678  0.489308967192502  0.489447453451498  0.48962743113211  0.489912315890601  0.489893665582928  0.489722245885345  0.489507390512189  0.489254104112988  0.488969728465496  0.488571749746764  0.488221354320508  0.487876481372671  0.48757156402546  0.487256045715577  0.487024955190095  0.486806398723719  0.486614578490632  0.721413667870749  0.756936659345874  0.826131065053631  0.66408392055894  0.487644725883695  0.678943198545598  0.681287504499349  0.746051982221862  0.759695951767168  0.752785163614639  0.73906782429791  0.728371756342147  0.697653578092463  0.490000001083912  0.489999999802111  0.489999999700718  0.489999999799167  0.489999999873828  0.489999999526362  0.489999998381033  0.490000001751838  0.489999999550399  0.489999999900293  0.490000002009534  0.49000000446073  0.489999999752377  0.489999999389859  0.489999999277479  0.489999999289733  0.48999999935403  0.489999999436099  0.489999999520831  
0.490000000160649  0.490000000069161  0.490000000079288  0.490000000090016  0.490000000101383  0.490000000113431  0.489999999979492  0.489999995759736  0.489999995966447  0.490000000863738  0.490000000484108  0.490000000123478  0.490000000424816  0.490000001353336  0.489999999390577  0.489999999385612  0.490000002000166  0.490000000089717  0.489999999703924  0.490000003345272  0.489999997687418  0.489999997647915  0.48999999977927  0.489999998007901  0.489999999153569  0.490000003674824  0.489999999815639  0.489999998155022  0.490000001352264  0.48999999971739  0.489999999516492  0.48953998823925  0.491790087015132  0.502729471859198  0.516086794760111  0.524697930928808  0.489204444226709  0.488963085681498  0.488723810132615  0.488557837235652  0.488361274998696  0.488727981394442  0.488661877702927  0.488601140460348  0.488567535848921  0.488513450195695  0.488514591424273  0.488440955021897  0.488465901082942  0.488448728401514  0.48852668034988  0.488640991580503  0.488735740294853  0.488964616715412  0.489070835752137  0.489070883976315  0.488933097722786  0.488721624789544  0.488470363936094  0.488218778881684  0.48781452049446  0.48748714796599  0.487167597264629  0.486892923229496  0.486584377098265  0.486368928083879  0.486184393945986  0.486019948232768  0.741896285068343  0.782900821512456  0.861773126035068  0.690946517673784  0.487321612636866  0.708198814905481  0.709351408435412  0.797345321499187  0.784656860716406  0.784659422506051  0.764135250538293  0.744970340615049  0.490000000015832  0.490000000607867  0.489999999915655  0.490000000942886  0.490000000181434  0.490000000164837  0.490000001749632  0.490000000955605  0.490000000834487  0.489999998988374  0.489999999862103  0.489999999235709  0.490000000112034  0.489999999280031  0.490000000155569  0.490000000671792  0.490000000963623  0.49000000112306  0.490000001205714  0.49000000124454  
0.490000000387924  0.489999998953923  0.48999999889696  0.489999998837068  0.489999998774133  0.489999998708037  0.48999999863865  0.489999998565829  0.489999998489421  0.489999999785895  0.490000000171376  0.490000000796835  0.489999999234709  0.490000003081003  0.489999999730087  0.490000000928511  0.489999998424279  0.489999999819594  0.490000000217315  0.490000003420473  0.490000001218874  0.490000001209237  0.489999999574393  0.49000000062743  0.490000001518402  0.489999999879382  0.49000000154803  0.490000000195109  0.490000000389049  0.454340359815112  0.479846514998591  0.490315078785502  0.495804152391399  0.517979192283963  0.62188303591539  0.643419054277475  0.633289212501543  0.63392075170324  0.630559884460339  0.620071076545349  0.607108168170961  0.595224491453505  0.585356529352695  0.55424620768262  0.538436598043275  0.521771928917602  0.487706622578389  0.487634762826808  0.487687694169379  0.487663174850403  0.487739950270877  0.487843212799608  0.487982765770496  0.4881279627809  0.48812016807613  0.488108545552354  0.488007246167269  0.487824608296975  0.487597616164509  0.487392956027535  0.487005717008298  0.486692384266713  0.486400418239309  0.486162760123189  0.485874012355508  0.485678838277389  0.485526302384192  0.485394334592341  0.760670699616944  0.807588195378394  0.898781444962028  0.805625396599268  0.73427501412728  0.741072235125734  0.837049538909119  0.831041464387399  0.818969343229458  0.801992395702077  0.787942566961649  0.760124434861995  0.490000001417742  0.489999998779173  0.489999999191256  0.490000000546885  0.489999999189402  0.490000001750077  0.490000000117491  0.48999999958453  0.489999999931092  0.489999999735443  0.490000000035769  0.489999999236455  0.489999998526943  0.490000001065094  0.49000000079537  0.490000000612522  0.490000000483173  0.490000000399724  0.490000000353647  0.490000000336  
0.489999998252627  0.489999999956337  0.489999999985916  0.490000000016631  0.49000000004845  0.490000000081329  0.490000000115216  0.490000000150036  0.490000000185703  0.49000000001658  0.490000000575669  0.490000000603399  0.489999997985991  0.490000000713911  0.490000000544851  0.49000000089538  0.489999999790864  0.490000000114021  0.489999999559558  0.490000002447701  0.489999999210971  0.490000001200587  0.490000000164973  0.490000001424765  0.49000000088239  0.490000001008617  0.489999998873525  0.489999997336171  0.440478747307946  0.480395208010596  0.500688532766806  0.558995532443689  0.623783750112249  0.690286937372335  0.73327115749126  0.758449022776825  0.703109324637623  0.708187529930812  0.695239012984705  0.697051987021055  0.693628440567579  0.669691481325256  0.642588983255757  0.601551887098391  0.558376915641029  0.546825020578274  0.486687873131545  0.486813258817347  0.486844151153716  0.486796750041199  0.48690799674948  0.486966886165353  0.487078236637427  0.487216310203027  0.487125896589861  0.487104444035927  0.487020752243084  0.486864480553946  0.486670603079428  0.486518140090913  0.486258055019652  0.485856699947589  0.485591919474922  0.485383003984118  0.485126398499396  0.484963650950989  0.484837924846959  0.484737415492147  0.7775503129627  0.831190958491696  0.935657772824319  0.86622030086439  0.770507569357744  0.850412346545588  0.872936910457765  0.86298587671135  0.851365156155631  0.829843813627432  0.811867700637578  0.773716750074692  0.490000001714941  0.490000000774335  0.489999998672453  0.489999999230058  0.490000001155336  0.490000000237395  0.490000000495963  0.48999999986095  0.489999999703012  0.48999999976019  0.489999999524705  0.489999998768418  0.49000000186518  0.490000000277917  0.490000000032759  0.489999999856651  0.489999999703698  0.48999999957797  0.489999999481145  0.489999999410064  
0.489999999632197  0.48999999919597  0.490000000132931  0.490000000114876  0.490000000096075  0.490000000076519  0.490000000056195  0.490000000035089  0.49000000001318  0.49000000120587  0.490000002929932  0.490000003032353  0.490000002886844  0.490000000011107  0.489999999836982  0.490000001274583  0.490000000323084  0.489999998174251  0.489999998642346  0.490000000010496  0.489999998424239  0.489999998385823  0.490000000325035  0.489999999519953  0.490000000901356  0.490000001531451  0.404824296578705  0.417857337891117  0.454238092304663  0.500419895287478  0.593399846590344  0.707198371139922  0.791268350872934  0.834393883015319  0.855484020023017  0.860798269163484  0.776457783597895  0.804302680019347  0.779423369595346  0.756525362631016  0.73631141850054  0.703853808274388  0.645220506885591  0.612906871939028  0.566139782836758  0.48584545426012  0.485852237394214  0.485956627000224  0.48595984166146  0.485942912402012  0.486010780565492  0.48602902122876  0.486129331946925  0.486267075701993  0.486126488251661  0.486096689071756  0.486005927260644  0.485884935038543  0.485697667546977  0.485619785946711  0.485381367867931  0.484991233448255  0.484752111063042  0.484581850299525  0.484348363969847  0.484237649288343  0.484140841036462  0.484078188020464  0.791422152157212  0.853067454183247  0.973173146267681  0.906516828318169  0.838890597518238  0.917075464966683  0.915250707713175  0.907401836688237  0.884975702879817  0.858370060273612  0.805644243921757  0.78455887528165  0.490000001069533  0.489999999922238  0.489999999510334  0.490000001199085  0.490000000870072  0.489999999621118  0.489999999035426  0.490000000667604  0.489999998754298  0.490000000513257  0.489999999781975  0.490000000789207  0.489999998629197  0.489999998610989  0.489999999575604  0.490000000248668  0.490000000683478  0.490000000956997  0.490000001129289  0.490000001240211  
0.489999999890156  0.490000000792496  0.490000001210317  0.490000001243737  0.49000000007481  0.490000000093733  0.490000000113442  0.490000000133979  0.490000000155405  0.490000000026463  0.490000000555902  0.490000000364291  0.490000000854215  0.4900000011904  0.490000000261043  0.490000001650744  0.490000001037902  0.489999999781952  0.490000001663532  0.490000001608021  0.489999999080501  0.489999996020272  0.489999997029186  0.490000000176097  0.49000000124659  0.490000002214201  0.433550857025265  0.43697403007929  0.453191296807115  0.541556580919269  0.746567123575688  0.907914350597816  0.977813669698264  0.988896974197432  0.97345808653811  0.958588748451027  0.934192693223053  0.871879871812919  0.835087833218888  0.810593646711104  0.754940432203331  0.725234516740285  0.661571811331575  0.586468578072442  0.48522417159318  0.485024894645276  0.485041063834385  0.485070526127191  0.485055841319393  0.485008254498848  0.485079034587491  0.485083254395736  0.485140326236722  0.485296356992282  0.485106618563606  0.485073061566527  0.484993072664514  0.484893455851214  0.484743009844255  0.484687300817848  0.48447878754119  0.484107935034766  0.48388678053832  0.483757468828766  0.483550651072614  0.483477015182266  0.483444033924203  0.483413761583303  0.802071927513698  0.873366409817675  1.01199230072019  0.952445812545581  0.987476697738764  0.964065922167512  0.960339647205527  0.948526313681028  0.919610341265305  0.886639801337269  0.818644265112217  0.490000000058978  0.490000000581926  0.490000000590152  0.490000000551028  0.490000000432041  0.489999998997527  0.489999999979728  0.490000000456677  0.489999999145651  0.490000000351207  0.489999999753731  0.490000000113688  0.48999999822797  0.490000000421508  0.48999999942016  0.489999999630372  0.489999999813682  0.489999999961217  0.490000000079296  0.490000000176627  0.490000000259713  
0.490000000276033  0.489999999530657  0.489999999573527  0.490000000115858  0.490000000606241  0.490000000540827  0.490000000313972  0.490000000605641  0.49000000062772  0.490000000685562  0.490000001830844  0.489999999682685  0.489999999148874  0.489999999468541  0.489999999962973  0.490000001196936  0.489999999659565  0.489999998508422  0.490000000445748  0.490000001186831  0.490000000645688  0.490000000786013  0.490000000120715  0.490000000250574  0.490000002406454  0.489999999330668  0.46340390903986  0.476926797274985  0.51920828964453  0.675958452644047  0.952596472376121  1.1644724688278  1.17499514380893  1.13118686148541  1.07943451885599  1.03726640331795  0.996850743849844  0.947792263556305  0.889410507374653  0.783190373507057  0.735820984989387  0.699403271378541  0.622251821496886  0.484605550781506  0.484448725540758  0.48421199358628  0.484207372585688  0.484181362964876  0.484134492852041  0.484041304623851  0.484091347454215  0.484085786049783  0.484144025624781  0.484312541992638  0.484098204466402  0.484052422219624  0.483979220192232  0.483904338187229  0.483773274228338  0.483751024338009  0.483553257493149  0.483237557537839  0.483014800621616  0.482913410318898  0.48273824809821  0.48272518481436  0.482729727898539  0.482745341543385  0.482715161399276  0.890536374177387  1.05364644092625  0.994785267229779  1.03787044054236  1.02969338855023  1.01481764366759  0.99145013765117  0.962367771849151  0.926195907387614  0.825794751293997  0.490000001410364  0.489999998579337  0.490000001149024  0.489999998752178  0.490000001821923  0.490000000772783  0.490000000926671  0.490000000220438  0.489999999342586  0.490000000236492  0.490000000949118  0.490000000244778  0.489999999930863  0.489999998621663  0.489999998274127  0.489999998736768  0.489999998980347  0.489999999158563  0.489999999318731  0.489999999473096  0.489999999623836  
0.490000002463867  0.489999997874515  0.490000000567763  0.490000001929152  0.490000001917126  0.490000000956415  0.490000000048522  0.489999999933335  0.489999999584894  0.489999999779261  0.49000000036042  0.490000001301874  0.490000001661485  0.489999999403815  0.490000000994736  0.489999999245079  0.489999999282132  0.49000000031487  0.490000000423103  0.490000001005819  0.490000002448015  0.490000003467339  0.490000000835224  0.490000001483091  0.490000000857712  0.489999999146423  0.490196068565822  0.541508866830451  0.632777770952878  0.819246021894899  1.08565572328723  1.31465175366819  1.29756081322646  1.23733231930795  1.1812109502274  1.12768896772241  1.06209905067882  1.006769509618  0.888428337407987  0.820120212328152  0.766777475464538  0.702119125825834  0.63051178163019  0.48391348435334  0.483700973854598  0.483429836809785  0.483347938832296  0.483285455428726  0.483287185275  0.483059095816788  0.483098006332434  0.483084727054062  0.483149698001542  0.483320836051151  0.48310097913023  0.483061971183619  0.482991484001498  0.482929293931822  0.482853574094169  0.482814067339628  0.482620214640968  0.482390035087514  0.482145812645357  0.482061340435911  0.481917501371679  0.481967972300321  0.48203536182283  0.48208570386916  0.482112299381151  0.903937164561668  1.09662433282805  1.10556914192895  1.09656202307663  1.11412983220708  1.06740609197299  1.03543727119819  1.00522911809197  0.891527820158597  0.829809335476008  0.48999999941664  0.490000001655891  0.489999999893641  0.490000000427535  0.490000000023352  0.490000001540231  0.490000000466628  0.490000000621625  0.490000000489322  0.490000000594698  0.489999999693564  0.490000000559698  0.490000000083768  0.489999997447443  0.489999999333078  0.489999999223302  0.48999999921444  0.489999999269766  0.489999999362346  0.489999999475137  0.489999999598093  
0.490000003095154  0.490000000858095  0.490000000926902  0.490000000568089  0.490000000555889  0.490000000544941  0.490000000535688  0.489999999754207  0.490000001975781  0.490000000504593  0.489999999900498  0.489999999924181  0.490000000449546  0.490000000698738  0.489999998834549  0.489999999953473  0.489999997914588  0.489999999687224  0.49000000136772  0.489999999707519  0.489999999009202  0.489999998914931  0.490000002459119  0.490000000039  0.490000001615499  0.489999999048407  0.499850071250074  0.588573945006744  0.711851877917879  0.888610163586271  1.08915859894511  1.25331259020742  1.30214790220524  1.27894604345112  1.23141485736559  1.1527425527073  1.13355650111773  1.04831909673514  0.934859950915774  0.86111352124504  0.789991901285449  0.71662006629145  0.59272256356629  0.483213415542771  0.482981040859827  0.482675715306925  0.482516176376777  0.482392954756769  0.482340958598807  0.482092816501338  0.482121335056019  0.482070970367143  0.482180331305289  0.48232562943921  0.482135773055184  0.482098762419986  0.482042714957142  0.481989177718358  0.481918227739329  0.481868923026734  0.481693934660506  0.481514147917756  0.481290584343961  0.481208526218137  0.481102505806931  0.481238648379624  0.48134599832312  0.481454404856758  0.481538479933838  0.911635439504047  1.09882967222159  1.15945350871394  1.16080567709944  1.17453045291436  1.15424276466067  1.09213977785647  1.03759871559452  0.89936827523626  0.828542227031935  0.490000000737843  0.490000001343465  0.49000000104289  0.489999999913685  0.489999999462257  0.490000001070675  0.489999998634212  0.490000000477879  0.490000000433029  0.490000000152687  0.490000000259544  0.4899999988608  0.489999998448335  0.490000000699643  0.490000000752357  0.490000000498017  0.490000000295825  0.490000000131681  0.489999999987691  0.489999999855795  0.489999999732473  
0.4900000013878  0.490000000502937  0.490000000443002  0.490000001290405  0.489999999890256  0.489999999913947  0.490000000297454  0.490000002558593  0.489999999537912  0.489999998923757  0.490000000047157  0.489999999078864  0.489999999133761  0.49000000064197  0.490000000270577  0.490000000520437  0.489999999286068  0.490000000045864  0.490000000147002  0.490000001096258  0.490000001257028  0.490000001009152  0.490000000081157  0.490000000083569  0.490000002109992  0.489951662729415  0.528436380408846  0.613111180961796  0.74160808892278  0.901420542904435  1.06427900351416  1.20733829846403  1.27759920914686  1.29129182765673  1.23132133673006  1.1870157445301  1.13508540255028  1.08524810726632  1.00507580851649  0.882655390216952  0.812926028710058  0.725805628466749  0.593031900854322  0.590016355540214  0.482305255064729  0.482035721898156  0.481740343966234  0.481520268916437  0.481391156264983  0.481169130350297  0.481142254701877  0.481182458717748  0.481236264121726  0.481354453306749  0.481230399659297  0.48120914328035  0.481186718524434  0.481135705676895  0.481030957550657  0.480961972089772  0.480805325074325  0.480668200249426  0.480506783243531  0.480391630986531  0.480350488338623  0.480526989892451  0.480722191572697  0.480909160779271  0.481041877448631  0.906694945939314  1.13272629267971  1.22286642666619  1.23987628136682  1.24038679331859  1.21703206959558  1.1338595261316  1.06345061792048  0.895599080436467  0.489999999871466  0.489999999159843  0.490000000230713  0.490000000636814  0.490000000681491  0.490000000328983  0.490000001009336  0.490000000017884  0.490000000541777  0.49000000053483  0.490000000408189  0.490000000501098  0.489999999947551  0.490000001452069  0.490000001892216  0.490000000284206  0.489999999671249  0.489999999340148  0.489999999146793  0.489999999028523  0.489999998954596  0.489999998908291  
0.490000000748312  0.490000000030264  0.490000000022198  0.490000000900789  0.49000000009009  0.489999999893434  0.49000000053904  0.490000000541582  0.49000000100956  0.490000000413122  0.490000000133741  0.490000000070674  0.490000000006186  0.490000000852321  0.4899999997358  0.490000000837678  0.490000000243504  0.490000001368752  0.489999998934192  0.489999999780117  0.489999999076035  0.489999998863171  0.489999997916374  0.489999999356301  0.48999999979117  0.490470832508187  0.520275161030252  0.601029762228571  0.739865662833899  0.893945961082914  1.04142288978808  1.17899865070694  1.22798397467653  1.25969196105175  1.2465379560968  1.2034088208987  1.14843954650427  1.10270946405195  1.02370010783824  0.939634317216414  0.848946750828275  0.731828652243384  0.585931611759761  0.563660467933149  0.554460445564218  0.48140720393458  0.481061596967609  0.480760163204275  0.480482105954096  0.480339763142481  0.480344571243586  0.480392026939028  0.480397031361226  0.480338330787364  0.480382845685088  0.480446351536653  0.480477445624431  0.480403633983912  0.480287658929793  0.480189105218183  0.480073333994377  0.480011003222965  0.479975510414357  0.480000000199926  0.479999998931706  0.479990610828921  0.480186540804788  0.480406635044612  0.480518313369681  0.480859241276135  1.14125853670627  1.29134297147106  1.32015504056182  1.31186554534466  1.26946997979362  1.19543721045544  1.08502446063143  0.487776939804047  0.488154857723839  0.48842016235854  0.488691565251109  0.489032579025515  0.489258451085226  0.48941163003789  0.489524622625746  0.489406495605681  0.489518196302638  0.489717671140988  0.490000001526064  0.489999999723541  0.489999999713682  0.490000001039714  0.489999998643895  0.49000000044032  0.49000000085676  0.49000000097223  0.490000001032116  0.490000001080479  0.490000001127276  0.490000001175457  
0.489999996710318  0.490000000669302  0.490000000669042  0.490000000669195  0.490000000669883  0.490000001496619  0.490000000797445  0.489999997370293  0.490000001490818  0.490000000065898  0.490000000102338  0.490000000641305  0.489999999861955  0.489999999028769  0.489999998695892  0.489999999280583  0.490000001091019  0.490000000531516  0.490000000021247  0.490000000284774  0.49000000112716  0.490000001007444  0.489999999071981  0.490000003684301  0.4900000004047  0.473110147360502  0.486245978689928  0.567347010402955  0.717719151723519  0.88624995038681  1.02012810819089  1.13312607176029  1.21147445688453  1.25219700736113  1.24541893550742  1.21995286165203  1.15158222737939  1.10218892599121  1.01910606568546  0.931164486536965  0.844406673081934  0.749771562592359  0.574455418954513  0.555173775207736  0.541468584223431  0.51995590023145  0.480544849914511  0.480252019974409  0.480001473091867  0.480000000461068  0.479999999879469  0.480000000670098  0.480000000062081  0.479999999227751  0.480000000036885  0.480000000521644  0.480000000877185  0.479999999359426  0.479999999491172  0.479999999855408  0.480000000296553  0.479999999940292  0.480000000154005  0.479999999768565  0.480000000234612  0.479999999686126  0.480009913893894  0.480235004856726  0.480325977040908  0.480519035559371  1.14774195244083  1.38976344923142  1.43306544625126  1.37141082738626  1.28484206472729  1.18536665644209  1.04192423389369  0.487960118940137  0.488361398953025  0.488629858356847  0.488916451930618  0.489253898864103  0.489468871925174  0.489595483293567  0.489663118482276  0.489553984938542  0.489644135348005  0.489781851336087  0.489687532607193  0.489696217550445  0.490000000427027  0.489999999651007  0.489999999613814  0.49000000229318  0.490000002065813  0.490000001973649  0.490000001936523  0.490000001919613  0.490000001911296  0.490000001907494  
0.49000000040475  0.490000000098125  0.4899999998308  0.490000000557998  0.490000000599203  0.490000000640377  0.490000000559954  0.489999999345699  0.489999999977056  0.489999998729076  0.490000000288133  0.489999999287661  0.489999999422464  0.48999999852384  0.489999999332383  0.490000000223251  0.489999999891149  0.489999999655783  0.490000000204335  0.490000000634503  0.490000000491587  0.490000000441101  0.489999999661045  0.489999999988035  0.445797139923045  0.450807272488637  0.480436957953063  0.557884747183014  0.709156605814279  0.877620431589872  1.02161907275239  1.12747545345466  1.20523615148206  1.23252104804784  1.24114492480407  1.23847188542479  1.17270170470181  1.10738131583084  1.00806074533406  0.915636024709465  0.825120187514172  0.723127017754476  0.584096197917413  0.541978247756208  0.527376586987906  0.508069087955219  0.480211729207983  0.479991829841671  0.479983007280959  0.479999997951468  0.479999999876497  0.480000000285026  0.48000000094368  0.480000000695202  0.480000000266281  0.479999999152668  0.47999999994279  0.479999999797429  0.480000000932172  0.479999998123005  0.48000000093616  0.480000000328807  0.480000000013618  0.48000000065104  0.479999999680435  0.479999998861012  0.480000000817981  0.480011284721424  0.480183679044231  0.480228926778279  1.06610597512651  1.55033837694309  1.50096134609066  1.36930707448181  1.22326934352899  1.11475739063418  1.01210392343779  0.488168975280883  0.48859091861896  0.488872912727189  0.48918161117464  0.489513723690084  0.489705331501632  0.48977785772102  0.489685916556311  0.48972705907593  0.489801341261041  0.489889682688307  0.489791712375546  0.489789513499692  0.489936564863649  0.490000000015208  0.489999999802759  0.489999999999634  0.489999999840002  0.48999999969849  0.489999999587411  0.489999999499127  0.489999999426794  0.489999999366387  
0.490000000213066  0.49000000026216  0.49000000028587  0.489999999953282  0.489999999292262  0.489999999289507  0.489999999287723  0.490000000721947  0.489999999498471  0.490000001872345  0.489999998580491  0.490000000116308  0.48999999966247  0.489999999160655  0.490000001220098  0.489999999792974  0.490000000287284  0.490000000559452  0.490000000197122  0.489999999896347  0.48999999971942  0.490000000743564  0.490000000016982  0.489999999668028  0.410467842566261  0.441942548659207  0.484775389925592  0.574629848301693  0.716360615684151  0.880467630272607  1.02848100495776  1.1337478126992  1.19829016816835  1.23218907603448  1.24311668570836  1.24439431151316  1.17689496068477  1.09143464937388  0.978191388629298  0.87072437570729  0.776639649944974  0.578784858949261  0.559808067277713  0.54147603090195  0.509528795199542  0.497525335422678  0.483800558183008  0.479919648652548  0.479910671768848  0.479999999528296  0.480000000803475  0.479999999788482  0.480000000000005  0.479999999965649  0.480000001246941  0.480000000440786  0.480000000763276  0.480000000019789  0.479999999580303  0.479999999558368  0.479999997798745  0.479999999639288  0.480000000679411  0.479999999761921  0.479999999857836  0.479999999738504  0.480000001159583  0.480000000721185  0.479999999986916  0.480000000089858  0.751135422782939  1.26977243727564  1.30560514822274  1.22473333677977  1.12794716273274  1.03181705280738  0.943938621887469  0.831380451838537  0.724700938265364  0.652556871579976  0.586743769228559  0.532420819748004  0.511031240889122  0.511746614262488  0.519108835815632  0.510644766142441  0.503820656857295  0.510628614267605  0.510992894141616  0.505534771850745  0.485931021670516  0.472341473827605  0.490000000081209  0.489999997880197  0.489999997755151  0.489999997635196  0.489999997520189  0.489999997416697  0.48999999732745  0.489999999327419  
0.49000000091218  0.489999999862914  0.4899999996558  0.48999999964297  0.489999999630577  0.4900000008517  0.490000000855728  0.49000000085825  0.489999999637055  0.489999999398216  0.490000000435761  0.489999999002718  0.490000000107574  0.490000000203213  0.48999999986363  0.489999999609847  0.490000000021605  0.490000001654155  0.490000000077664  0.490000001707074  0.489999999950031  0.490000002234054  0.490000000181908  0.40595546862419  0.401865758073449  0.436625101779542  0.492104593255092  0.577236358058782  0.72294388800383  0.893460520199785  1.05405875579248  1.15250259279856  1.20040221513184  1.22368353448501  1.23172034675323  1.23411800964791  1.17316399392897  1.05041379271089  0.925883135072893  0.800607294220352  0.600752939665371  0.570036420110493  0.547659763460776  0.532002425116998  0.49989842491443  0.490617557792295  0.482036563847267  0.479999999558412  0.47999999993395  0.480000001109705  0.479999999090469  0.48000000085729  0.480000000257384  0.480000000340168  0.480000000258094  0.480000000711758  0.480000000084882  0.480000000076784  0.480000000636123  0.480000001469311  0.480000001399847  0.479999999373063  0.479999999741716  0.480000001312462  0.480000000799013  0.479999999819962  0.479999998908945  0.479999999677214  0.480000000045938  0.479999999991159  0.500537022360786  0.820082230969601  0.96170644143529  0.977879331974476  0.934042546180758  0.864984865636852  0.788909423055685  0.715480751259009  0.648141957267963  0.583622862933146  0.515915180905054  0.47844393701324  0.489999999371676  0.489999999934037  0.490000001337826  0.490000001737514  0.489999999614772  0.489999998843198  0.489999999964535  0.490000001683168  0.489999996281277  0.489999999508874  0.490000000491198  0.490000001208252  0.490000001191947  0.490000001603053  0.490000001603019  0.490000002013546  0.490000002031583  0.490000002698218  
0.490000000769111  0.49000000026944  0.490000000260523  0.489999997505695  0.490000001042905  0.490000001013434  0.490000000981801  0.490000000945604  0.490000000933156  0.490000000074255  0.490000000520391  0.490000000939212  0.490000000748033  0.490000000132185  0.489999999877077  0.49000000025903  0.489999999260064  0.490000000537022  0.49000000020416  0.490000001922552  0.385159136766588  0.388546197514306  0.395644269839161  0.402989261802234  0.396319177062587  0.424362621398365  0.469044430830022  0.556461816286882  0.727442026666661  0.911861107856833  1.06660888884146  1.1614278453463  1.19498397595911  1.18825356113764  1.1730416964105  1.16490916474937  1.0961664367754  0.932227294220228  0.808360119474923  0.708284548861275  0.639684750551247  0.583522585774667  0.537529526660579  0.52051544259914  0.501059867865743  0.488120628162551  0.479923837967994  0.480000000435578  0.479999999823989  0.479999999890192  0.480000000696701  0.480000000299882  0.480000001061322  0.480000000245193  0.480000000271195  0.480000000998868  0.480000000266137  0.479999999845256  0.480000000342951  0.480000000563321  0.479999998808129  0.48000000009225  0.480000000037494  0.480000000540581  0.479999999353584  0.479999999641166  0.480000000822317  0.480000000088475  0.479999999688988  0.480000000739813  0.479999999037712  0.602810192609601  0.482288773350944  0.483589376505395  0.485226133793896  0.712260974584831  0.655265191548976  0.605289499000853  0.55819254396599  0.517183792309152  0.488333388449  0.489999999992806  0.489999999039558  0.490000000709542  0.489999998658477  0.490000001244549  0.490000001033973  0.489999999427824  0.490000000580992  0.489999999852504  0.490000002364741  0.489999999560559  0.489999998657956  0.490000000977779  0.490000000962866  0.489999999755236  0.489999999754658  0.489999998340831  0.489999998312949  0.490000000623666  
0.489999999566717  0.489999999405641  0.490000000466314  0.490000000480049  0.490000000491015  0.490000000498606  0.490000001180801  0.490000001144134  0.490000000335331  0.489999999396896  0.489999998168965  0.49000000052007  0.489999999830306  0.490000001339155  0.489999999301634  0.490000000262204  0.490000001111581  0.490000000075831  0.3850257412033  0.362702266782601  0.357658800741254  0.376832393749529  0.385498483953701  0.399023300697009  0.409651537207955  0.419046307020612  0.460833418404675  0.552004333757694  0.7611503159086  0.95563638086383  1.10757837566218  1.19594271254766  1.19930293568513  1.14587794968546  1.07133233328275  0.984854400423598  0.850377130251954  0.73676006172918  0.650161052708362  0.582554732029977  0.548147338949392  0.518622995465957  0.491110885908245  0.492717485332919  0.518344994697944  0.532415903568565  0.474790576657726  0.480000000145337  0.479999999458602  0.47999999962276  0.479999998247519  0.480000000247323  0.495148466959257  0.452088668611993  0.480000000047114  0.479999999208197  0.47999999974035  0.480000000237533  0.480000000058723  0.480000000844067  0.480000000132198  0.479999999371217  0.479999999663108  0.479999999554762  0.480000000124144  0.480000000205294  0.480000000141497  0.479999999253296  0.480000000120473  0.480000000151102  0.480000000690445  0.553103081175561  0.481370709820247  0.483659761182509  0.485527758914744  0.487388121936515  0.489166376415174  0.506155022659853  0.500092594168164  0.489999999309482  0.489999999334888  0.489999998388071  0.490000000442968  0.490000000988209  0.490000001614045  0.490000000062879  0.490000000539575  0.490000000847558  0.489999998965618  0.49000000019028  0.490000003828039  0.490000001698366  0.489999999316852  0.489999999590773  0.49000000264528  0.489999995743432  0.490000000167652  0.49000000019424  0.490000000215944  0.490000002679128  
0.49000000008116  0.489999999380807  0.489999999387332  0.48999999987573  0.489999999865663  0.490000000956708  0.49000000064933  0.490000000913482  0.489999999361829  0.490000001257496  0.489999999318883  0.490000001691514  0.489999999987429  0.490000001535329  0.489999998654446  0.490000001111276  0.49000000026777  0.489999999802098  0.359915868861147  0.363785747062015  0.379656713615434  0.380435845239496  0.38397090768537  0.393972222045131  0.416265358237047  0.440087755949212  0.514069371744597  0.656911121128845  0.844289207689795  1.03086905685667  1.18612173037349  1.26187485541974  1.21451206256524  1.10729250402543  0.969242594882785  0.809431580478334  0.624066339699152  0.520866241339921  0.502208252393076  0.466188337725741  0.475453565126065  0.480641872581306  0.478015148135613  0.496846287836424  0.540861806516877  0.591183274426917  0.638073897665097  0.667088890512437  0.677003698454849  0.686587262409973  0.695401213725979  0.480000000067558  0.609711403861982  0.4894525706251  0.391937387254398  0.480000000046093  0.48000000024003  0.479999999674939  0.479999999846258  0.479999999878207  0.480000000062909  0.480000000100871  0.479999999774744  0.480000000251755  0.480000000019293  0.479999999074088  0.480000000644166  0.480000000704962  0.480000000369489  0.479999999682211  0.479999999726322  0.485766231703762  0.48129419205865  0.483731757671153  0.486083429907695  0.488418893639234  0.489692597528065  0.489999999273963  0.490000001090385  0.489999999882066  0.489999999992497  0.489999999447834  0.490000002108362  0.489999999975924  0.489999999954197  0.489999999839042  0.489999999701518  0.489999998982014  0.490000000289171  0.489999999876012  0.48999999952486  0.490000000318601  0.48999999959628  0.490000001792497  0.490000001757643  0.490000001720425  0.489999998627676  0.490000001109464  0.489999998229916  0.489999999107399  
0.489999999676304  0.489999999561263  0.489999999585598  0.489999999924969  0.489999999928553  0.489999999675765  0.489999999242007  0.489999999323497  0.48999999940618  0.49000000015759  0.489999999240357  0.490000001408163  0.489999999614059  0.490000000283192  0.489999999629577  0.490000000036272  0.489999999376929  0.391741402930984  0.375312020384576  0.382894266289047  0.396742998250066  0.398176914026549  0.402009775840916  0.412813831365944  0.441562131247738  0.493231403291043  0.606918615783517  0.765449050169021  0.944783019781038  1.12368950090092  1.28080574138823  1.36088353846265  1.21773975334314  1.04382212515379  0.854427621923752  0.660498781259925  0.491533589327292  0.444867399767571  0.436802654013356  0.480000000277512  0.479999999738927  0.479999999773031  0.474382455599383  0.518192189206828  0.597335144446951  0.688420604037645  0.779034573099099  0.856305997006919  0.922091248075003  0.968881321327081  0.994731762388455  0.958531494600684  0.841465260803975  0.646906667220418  0.473971484457176  0.366977569520352  0.290335629303442  0.24815310861432  0.479999999500655  0.480000001069631  0.480000000567882  0.48000000017489  0.479999998907674  0.479999999116723  0.480000000003497  0.480000000898743  0.479999999474308  0.480000000041408  0.480000001708459  0.480000000516021  0.480000001259046  0.480000000709038  0.480647930166159  0.483506024961931  0.486463425508991  0.488995421238308  0.490257004661739  0.490000000878405  0.489999996431909  0.489999999693609  0.490000000406334  0.489999999653472  0.490000000747949  0.490000000468864  0.490000001505619  0.490000001974345  0.490000000503472  0.490000001622657  0.489999997362296  0.490000000470962  0.490000001209528  0.489999998523258  0.490000001672608  0.489999999826348  0.490000004663089  0.490000004642992  0.490000004633812  0.489999997529127  0.489999997587825  0.490000001127056  
0.489999999717196  0.489999999538931  0.489999999598735  0.490000000195756  0.489999999845418  0.489999999845394  0.489999999846714  0.489999999280479  0.489999999306743  0.489999999357672  0.489999998854461  0.490000000289803  0.49000000061669  0.489999999586077  0.489999999225743  0.489999999319296  0.489999999567999  0.388248748805724  0.416732112936033  0.426342826159651  0.434698163774134  0.439596942083227  0.443707675856422  0.455186738283592  0.483200350570937  0.583532152273087  0.714633471454142  0.869178786900006  1.03579695137399  1.19082361944755  1.30052850128876  1.31521445862418  1.16677485075599  0.960470400260044  0.749249239974631  0.564972468548388  0.443217927120639  0.406853291005825  0.480000000683957  0.480000000415661  0.480000000128374  0.479999999335673  0.462376485555134  0.534589185440091  0.653919903987597  0.785799266272131  0.916259546209037  1.05251162666429  1.17502674415551  1.27435268434911  1.31762682280537  1.2841460206529  1.14330346912664  0.905246143429765  0.649197707397176  0.431315765375634  0.316164034141105  0.264530355536556  0.480000000130634  0.479999999794726  0.480000000632668  0.479999999660283  0.479999999869309  0.480000000387739  0.480000000522088  0.480000000480384  0.480000000430883  0.479999999755698  0.480000000727719  0.479999999158215  0.48000000067635  0.479999999879903  0.480072123508648  0.483238792603156  0.486971699659488  0.489956027617136  0.489999999547837  0.48999999899182  0.489999999349385  0.489999995722208  0.489999999171965  0.489999999591879  0.489999998961225  0.490000000603431  0.490000001054898  0.489999999574088  0.489999999573741  0.489999999481048  0.489999999411165  0.489999999246451  0.489999998847556  0.489999998756936  0.489999998270932  0.490000001084179  0.489999999252786  0.49000000016216  0.489999999981424  0.490000001634624  0.490000000885789  0.489999998141175  
0.49000000247566  0.489999999226492  0.490000000325117  0.489999998539534  0.48999999854627  0.489999998556005  0.48999999960989  0.489999999602983  0.489999999826009  0.489999999854197  0.489999999443944  0.490000000750166  0.490000000270579  0.489999999908688  0.489999999682605  0.48999999969593  0.489999999825283  0.417404494706887  0.434864741742137  0.453615701449631  0.469453688420135  0.476675627577025  0.485159055231279  0.511467541607224  0.575658896995804  0.680180702985371  0.812837859114262  0.964802934112132  1.11511376246852  1.25055031796737  1.31315854839061  1.27306392709035  1.12775401537866  0.924753150715144  0.708786168189487  0.534657300766103  0.430885212394008  0.480000000105631  0.480000000226367  0.47999999989563  0.479999999512596  0.422306034270343  0.455262957206143  0.557520696994013  0.713503315767076  0.884547714503076  1.05683879866803  1.24122580072228  1.42033223127658  1.58211060383386  1.67808085667234  1.67767587920833  1.5099559345105  1.22187441775782  0.854437436451227  0.511331772330369  0.366996786746966  0.306457687936418  0.480000000549197  0.479999999671286  0.480000001430432  0.480000001231332  0.480000000093899  0.480000000005664  0.48000000026169  0.479999999799189  0.480000000756376  0.480000000175152  0.480000001497509  0.479999999896887  0.479999999677972  0.479999998709988  0.479337634666942  0.482575732709178  0.487961198625036  0.490910140749895  0.49000000001023  0.489999998751851  0.489999997894776  0.489999999957687  0.489999998440395  0.490000000015148  0.490000002268447  0.490000000528902  0.489999999874225  0.490000000991632  0.489999998837615  0.489999999549267  0.490000000901409  0.490000000827942  0.489999999097238  0.490000001855333  0.490000000941878  0.490000000824216  0.490000000467603  0.490000001061363  0.490000006228206  0.490000000515576  0.489999998872543  0.489999998101694  
0.490000000380942  0.490000000784322  0.48999999911659  0.489999999171512  0.489999999889279  0.490000000196252  0.490000000254945  0.490000000321266  0.490000000724121  0.49000000071439  0.489999999949504  0.490000000030333  0.490000000873736  0.490000000459467  0.490000000087213  0.490000000284138  0.490000001123939  0.431166654056051  0.454836654260897  0.483213465313161  0.505877585392836  0.523783243472246  0.547956411504978  0.593210242519477  0.671679560863348  0.773006894148293  0.903330673460877  1.0408728713453  1.18452671173867  1.308668125263  1.35355163476593  1.27047217900439  1.10460715569836  0.900811461360977  0.671106815642509  0.485711468642076  0.42667115886236  0.427809088371942  0.479999998902587  0.479999999994176  0.366343967124441  0.422033867767132  0.475694375355988  0.598435943504693  0.778113466590529  0.969643544798455  1.17813053077037  1.39501416965065  1.63142937625587  1.85138012977377  2.05369014483802  2.12588903396101  1.914870797816  1.53159591284279  1.10131554714116  0.728217665513105  0.498552591307847  0.382898669262151  0.331112164183018  0.479999998704433  0.480000001585347  0.480000000847431  0.480000000311713  0.480000000578383  0.480000000396315  0.480000000421661  0.479999999775018  0.480000000744882  0.479999999323639  0.480000000573473  0.479999999854061  0.480000000304007  0.479324826512411  0.483662930185395  0.489635644800193  0.489999999501089  0.490000000537351  0.490000001280222  0.490000000981247  0.489999999513554  0.490000002406446  0.490000000767255  0.489999997673381  0.489999999897907  0.490000000486219  0.489999999455971  0.490000000744031  0.489999999327608  0.490000000678668  0.489999999545743  0.490000001295782  0.489999999139149  0.489999998830294  0.489999997968967  0.49000000021112  0.490000000776506  0.489999999155598  0.490000000648292  0.490000001479346  0.489999998238396  
0.490000000428038  0.489999998903252  0.489999998910924  0.489999998923024  0.489999998940424  0.490000001048641  0.490000001049438  0.490000001046276  0.490000001037443  0.490000000038178  0.489999999297553  0.490000000453751  0.490000000902505  0.490000000069097  0.490000000361038  0.490000000221509  0.489999999256374  0.461676113133616  0.47927440201489  0.499670685835554  0.520086964976902  0.570192033078695  0.610963969082269  0.667984021795717  0.746357610154322  0.847971369465453  0.970247875498116  1.09754972724603  1.23557925646456  1.35594270805416  1.40707919401313  1.27728376212814  1.10994998661277  0.909391305077643  0.68879950398817  0.500990590617261  0.472230935338768  0.454212315042497  0.436736924233237  0.397448259283783  0.372763344192117  0.437521785027663  0.505807291084083  0.6452323976387  0.826462614181995  1.03332209419644  1.25788818692305  1.49922400579796  1.75932789774973  2.04381548707777  2.33188253689  2.60765572195619  2.24971038325897  1.76920306495729  1.31294543396148  0.93560939271446  0.657430675416747  0.488641554381193  0.389968325514651  0.480000000480152  0.479999999553446  0.480000000794386  0.480000000240461  0.47999999860149  0.480000000838547  0.480000000494135  0.480000001759259  0.480000000577594  0.48000000023072  0.479999999892312  0.480000000078045  0.479999999322328  0.481265735128429  0.48652705511343  0.490830313548015  0.489999999296288  0.490000000199793  0.490000000483833  0.489999998733398  0.490000000827619  0.489999999850091  0.490000000222007  0.490000000574279  0.490000000969349  0.490000001647511  0.490000000813592  0.490000000713912  0.49000000066008  0.490000001606714  0.489999998517292  0.489999997999219  0.489999999895249  0.489999997791077  0.490000001066106  0.489999999634744  0.49000000232408  0.489999999576652  0.490000000863922  0.48999999972161  0.490000002507418  
0.489999999491958  0.489999999786928  0.489999999754863  0.489999999720252  0.489999999996237  0.489999999995883  0.48999999999707  0.489999999999859  0.489999999353731  0.489999999361017  0.490000000153979  0.490000000016388  0.490000000128531  0.490000000225542  0.490000000706002  0.489999999428646  0.490000000059071  0.470396917390361  0.48966178217123  0.515160898158821  0.564640611418999  0.606592622767236  0.658883475523014  0.718970206816485  0.795105238528075  0.899508277055756  1.01135134023195  1.12993688410316  1.23867931099309  1.32367334124373  1.34091656099934  1.2554872349406  1.11830015400835  0.952203025101967  0.775737648489404  0.633304514956502  0.519122369577359  0.475166286378775  0.41739675881253  0.384859335380399  0.396484154601733  0.445152925195225  0.479999999734411  0.674688765239782  0.86407657306049  1.0740297962741  1.30057207232036  1.54063701916962  1.7954785267273  2.09791485627037  2.34884390156166  2.48035566677387  2.25512442575224  1.84889233205635  1.42922424927774  1.06645290079915  0.774219868471868  0.556946458908537  0.479999999665127  0.480000000178418  0.480000002927338  0.480000000873776  0.480000000496978  0.479999999757822  0.480000000667491  0.479999999172894  0.479999999840215  0.480000000666556  0.479999999891946  0.480000000910497  0.479372448193959  0.480512408027457  0.484269376791925  0.488762815874554  0.49093648050543  0.491697170253137  0.492041863156625  0.492176152676712  0.489999999966765  0.490000000504538  0.490000001333263  0.48999999852894  0.489999998520696  0.490000002141853  0.489999999205895  0.490000001466797  0.490000000982308  0.489999999453527  0.489999999159321  0.490000000176501  0.490000001293624  0.489999998772673  0.490000000960024  0.489999999482898  0.490000000350785  0.489999996712659  0.490000001385414  0.490000001751501  0.48999999941332  0.49000000005427  
0.489999999844006  0.489999999841342  0.489999999821505  0.489999998097015  0.489999998106174  0.489999998122757  0.489999998148905  0.489999998187549  0.489999998242802  0.490000000602663  0.489999999935848  0.490000000282225  0.489999999587265  0.490000000766774  0.490000000773584  0.49000000028966  0.490000000008505  0.479660148152651  0.510226414452131  0.548574611301395  0.592667239881774  0.642325934836352  0.70038286057177  0.766651259767894  0.8530436237008  0.942999255136331  1.04513332528064  1.1452982847378  1.23143909515409  1.29355712059726  1.29844637720744  1.24007116411495  1.1352310192355  1.00551798706251  0.868123339866444  0.749317791578036  0.629235761375824  0.533028275580111  0.438716147540152  0.397927775918665  0.39959498174527  0.454674749377579  0.534351961792683  0.811214845686224  1.03948586082702  1.26721644580371  1.4924125304093  1.71457736645925  1.97670002256882  2.21563764942819  2.37342810155958  2.38771731107863  2.22230918736264  1.92160340037058  1.57378962951081  1.21569414657022  0.898032285397506  0.622555569454831  0.469573041141034  0.479999999648616  0.47999999994297  0.479999999599543  0.479999999001901  0.479999999110147  0.480000000522148  0.47999999994719  0.480000000333772  0.480000000524349  0.479967641728011  0.479727664119321  0.480735634233943  0.483070512472712  0.486663485382707  0.490217796568251  0.490000000137104  0.489999999759055  0.490000000035762  0.490000000665204  0.489999999662796  0.490000000241935  0.489999999831293  0.4899999999587  0.490000000144582  0.489999999744458  0.489999999510709  0.49000000053943  0.490000000689019  0.489999999378865  0.48999999969253  0.489999999775748  0.49000000099387  0.489999998317935  0.489999999345755  0.489999999937995  0.490000000954873  0.489999999526132  0.48999999952953  0.489999999299077  0.490000000074982  0.489999998919702  
0.489999998416351  0.489999998414266  0.48999999844082  0.489999998469545  0.489999998500958  0.489999998535754  0.489999998574878  0.489999998619639  0.489999998671861  0.489999998746288  0.490000000119199  0.490000000123146  0.489999999594932  0.490000001325864  0.489999999892593  0.489999999699335  0.489999999538413  0.492949758603805  0.530177844911925  0.575733532049418  0.625308622263892  0.675401444311395  0.732356821079948  0.802426456701944  0.88521515841373  0.970900313941939  1.07131500569326  1.15192134561802  1.22531354179312  1.26940998397453  1.27844545688786  1.2526753407864  1.18441062421132  1.09586745761867  0.9929397727638  0.896469892447274  0.785042523955123  0.683286823176309  0.573107836909091  0.482662011416246  0.452969105691306  0.550125130209298  0.657823361404804  0.978981068080428  1.2025151283092  1.3593581398145  1.56063591843185  1.75234961998711  2.06805939986219  2.21802287951401  2.30062658882069  2.31039504502703  2.16049239218815  1.92164576623783  1.63232277857749  1.32376380302716  1.01622331900651  0.727059820926567  0.479794780399971  0.450797604160961  0.467826764219327  0.479999999653041  0.479999999707406  0.47999999886865  0.480000001458597  0.48000000001901  0.480000001490167  0.479904944297668  0.480051302732416  0.480743217525949  0.482553136802183  0.485266829299168  0.488341492411545  0.490725507257319  0.489999999737947  0.48999999952492  0.490000001201348  0.489999999916735  0.490000000877789  0.489999999273304  0.489999999540532  0.490000000377039  0.489999998474716  0.490000002041809  0.490000000498216  0.490000000376324  0.489999998330112  0.490000000329177  0.489999999107565  0.489999999800785  0.489999999802965  0.490000000596267  0.489999997098276  0.490000001703587  0.490000001513389  0.489999998366651  0.489999999348281  0.490000000399122  0.489999998960864  0.489999999052515  
0.489999999632272  0.490000000414962  0.490000000392814  0.490000000367658  0.490000000338905  0.490000000305807  0.490000000267404  0.49000000022245  0.490000000169312  0.489999999310949  0.489999999496851  0.489999998752702  0.489999999994459  0.48999999998873  0.490000000676874  0.489999999869696  0.489999999989084  0.506707504651402  0.549998736960963  0.598395050375215  0.650876777074025  0.702295812584755  0.759223882227102  0.826792918523314  0.9155018280582  0.998895139329275  1.08845892124568  1.16267462548152  1.22796776779208  1.26911748069924  1.3022054858654  1.27526606587889  1.2335363334276  1.16684266292897  1.09125876866587  1.0482021116501  0.988443656494894  0.917814397444311  0.831830116035807  0.744531550306632  0.715539748596866  0.777580473120133  0.858652426790097  1.19099934352695  1.3920665996538  1.59269853584622  1.78633938951165  1.99547899122544  2.08819525059931  2.17268327328292  2.20809081287949  2.19565315191834  2.18816048280792  1.98371495570806  1.71469477702226  1.42009888596714  1.13072985015333  0.869274275255386  0.575515265887136  0.526183439785068  0.517022275927166  0.543863212040114  0.543478863726996  0.535386217010038  0.536841976798784  0.50969653533257  0.479337811545772  0.472851223238827  0.480432297718436  0.481888263001556  0.48398323394309  0.486532023231598  0.489244416973172  0.491008648437011  0.489999999931929  0.489999999028492  0.489999999089004  0.490000002029277  0.490000000201592  0.490000000502699  0.490000001420437  0.490000000715836  0.490000001232486  0.489999999337792  0.49000000011498  0.489999999195708  0.490000000047269  0.489999999117818  0.490000000251152  0.490000000213611  0.489999999468815  0.48999999997074  0.489999998983493  0.49000000104327  0.489999999994963  0.490000002019792  0.48999999996853  0.489999999555786  0.489999999783769  0.489999999136383  
0.489999999632641  0.489999999774663  0.489999999762198  0.48999999974977  0.489999999737414  0.489999999725164  0.489999999713051  0.489999999701099  0.489999999689309  0.489999999689092  0.490000000042925  0.489999999687132  0.490000000208958  0.489999999577246  0.489999999603919  0.489999999494968  0.489999996131162  0.520257914512125  0.56904132838677  0.622370736901873  0.68084396741727  0.736110016320053  0.796327794421486  0.868543323781582  0.950585063803272  1.03003923901201  1.11477854701529  1.18382898624129  1.24945050315118  1.31305651620571  1.33955556811805  1.33271861099402  1.32195953639029  1.28764691889053  1.24474104216635  1.22309524534795  1.2081362885684  1.1844331052402  1.1478826008032  1.08862387362695  1.054220012951  1.0673329990588  1.26642617262959  1.42575901482896  1.59203041782651  1.76413101374522  1.92924149839469  2.02553061284021  2.11116294148208  2.16827427113058  2.16966756900568  2.08474994503303  2.05924614766091  1.99979307081666  1.76843511703839  1.51382562911292  1.25693353973321  1.02438677116361  0.683478414046419  0.628499696797607  0.596658337288607  0.577762897226834  0.561237586526516  0.541595789356139  0.614861431964811  0.579877766580872  0.560724254264879  0.53241451091157  0.481334481800347  0.482913281634368  0.484858196746715  0.487151602609019  0.489447804163289  0.490983421448329  0.489999999388009  0.490000000924723  0.48999999948526  0.489999999000616  0.49000000004376  0.489999999842615  0.489999999144539  0.489999998412608  0.48999999984895  0.490000000051401  0.490000000981177  0.489999999533949  0.490000000396024  0.489999999301212  0.489999999829269  0.490000001341349  0.489999999865939  0.490000001601637  0.489999999465941  0.489999999698556  0.490000000822852  0.489999999972925  0.4899999980381  0.490000000778754  0.489999999417879  0.489999999825908  
0.489999999014904  0.489999997741535  0.489999997726499  0.489999997714046  0.489999997704922  0.489999997700112  0.489999997700948  0.489999997709264  0.489999997727654  0.489999998582834  0.489999999164939  0.489999999065524  0.489999999356399  0.489999998903076  0.490000000526181  0.490000000024081  0.490000000554244  0.531863642808147  0.588306751349292  0.649762137401338  0.714661902962748  0.77528441432946  0.838272366748207  0.918622445078324  0.987031105339132  1.05673429241219  1.14060739888371  1.21688117841172  1.3019649833147  1.35500789876477  1.39238938697744  1.40348060324725  1.41013218544769  1.40649456400658  1.40220132953359  1.41457251512528  1.44182854239667  1.46564118855838  1.48782429261832  1.43233508945735  1.38125485671167  1.36359122915276  1.54050132325911  1.6640984158655  1.79219736629858  1.93259277658439  2.01109457776402  2.09134651467202  2.15292592975494  2.17816184797503  2.12304497558668  2.0738925013684  2.04845693249575  1.92215511480446  1.82131566656177  1.59832072345073  1.37109870900596  1.16635306056526  0.801712228498692  0.736234059841169  0.684015180724581  0.645411379822513  0.618280892178455  0.586561051009424  0.595364174216629  0.561118138573435  0.619095840052584  0.574315429691879  0.482081435126393  0.483460250321911  0.485207871092009  0.48716505294299  0.488909393041642  0.490273342847058  0.490000000269537  0.489999999575156  0.489999999732563  0.48999999631066  0.489999999256818  0.490000002256148  0.489999998475706  0.489999998454649  0.490000000621635  0.489999999762345  0.489999999201854  0.490000000802972  0.490000000014596  0.48999999948238  0.49000000005229  0.490000000023286  0.489999999799172  0.490000000536603  0.490000000743937  0.489999999585962  0.489999999465832  0.490000000935597  0.490000000275042  0.489999999858792  0.489999999478614  0.489999999335695  
0.489999999309677  0.489999999665661  0.489999999653627  0.489999999642807  0.489999999633476  0.489999999625961  0.489999999620665  0.489999999618079  0.489999999618826  0.489999999665633  0.489999999914372  0.490000001040571  0.49000000029716  0.48999999921293  0.489999999177249  0.489999998231755  0.489999999018134  0.539917546016283  0.609017689007679  0.682871545554822  0.758162780235896  0.825218895922493  0.890562904672703  0.964566439243138  1.02477731775339  1.08713707939967  1.17352583715385  1.27405300288428  1.35450646361637  1.41689059497018  1.45887291927271  1.48215764757647  1.5051924714376  1.52954367572605  1.55427585687122  1.59005722734553  1.6481886218039  1.70170316538401  1.7585107629358  1.71719982627286  1.66646091415377  1.64190499832568  1.80038722339151  1.8962355442148  1.99260849759623  2.10000566670943  2.11314914896602  2.15192821556973  2.19086712409822  2.1591229862755  2.13820732464428  2.08243657211276  1.98925421122739  1.95118850440297  1.90125613797957  1.69753835517997  1.49282415388145  1.30288730192624  0.921265277455531  0.844856739642937  0.77617038177462  0.726623904683085  0.677564520146462  0.634939339077099  0.646401409037193  0.599155938419713  0.585153327905374  0.540780250786996  0.481553626679146  0.482639467519318  0.484094449211601  0.485964725123845  0.48804894099769  0.489918270554448  0.491108103716294  0.490000000053165  0.490000000580379  0.490000000198928  0.489999999466992  0.490000000716478  0.489999998388793  0.490000000151643  0.490000000156866  0.490000001981462  0.489999998616704  0.49000000007927  0.490000000006462  0.489999999582841  0.489999999622578  0.490000000491919  0.490000000697281  0.490000000036941  0.490000000076113  0.489999998432587  0.489999999005968  0.4900000007942  0.489999998418307  0.489999998353281  0.489999997631737  0.4899999989318  
0.489999999978424  0.489999999377512  0.489999999364096  0.489999999349876  0.489999999334727  0.489999999318488  0.489999999300961  0.489999999281893  0.489999999260973  0.489999997035429  0.48999999687732  0.489999998265314  0.489999999522953  0.489999999438105  0.489999999190693  0.489999999061265  0.487745097827095  0.54765112395587  0.627628608814628  0.715669905095222  0.80315542052041  0.877181671486861  0.943492976190839  1.01358322431967  1.07659959327149  1.14355227031591  1.23560698853988  1.33835387593447  1.4276576934665  1.49456281919866  1.53788256252067  1.56708469906345  1.60798044831864  1.65071112392117  1.69421300712258  1.74617291603921  1.81822320982762  1.87753066493379  1.92461700312091  1.93184641303682  1.91333484035773  1.89635175880705  2.0360615789018  2.11036334202219  2.18478758566701  2.17823126122198  2.23296824618939  2.21904835831612  2.23234330245047  2.21556743943057  2.18258540303132  2.1208714188291  2.03203800259139  2.00102440080793  1.96727284350735  1.78623861032777  1.59782027838935  1.42306345061733  1.03293557031855  0.957116386622072  0.87447851773531  0.80356266635575  0.746691036850482  0.68730839051504  0.690100979862309  0.632188385843944  0.612055428124535  0.557529171800752  0.481455051850994  0.48224008962379  0.483273716932189  0.48448153397205  0.486211236170192  0.488403252075363  0.490540522662757  0.491490175494868  0.489999999575022  0.490000000160385  0.489999998726512  0.489999999629023  0.490000001498123  0.490000001662768  0.490000000652903  0.489999999578058  0.489999999749782  0.490000000036527  0.490000000648249  0.489999999082358  0.489999998962658  0.490000000102511  0.489999998824336  0.490000000375899  0.489999999577702  0.489999999832061  0.490000001263767  0.49000000131536  0.489999999575195  0.489999999552323  0.489999999264476  0.489999999546831  
0.490000000536329  0.490000000387286  0.490000001669448  0.489999999715991  0.489999999704698  0.489999999691026  0.489999999674394  0.489999999654037  0.489999999628947  0.489999999596007  0.490000000394662  0.490000000375486  0.490000000781762  0.489999999859744  0.489999999657361  0.489999998409186  0.489999999305589  0.552627158527332  0.64303564284197  0.744286636093559  0.849763522901403  0.927897638194266  0.99556899954138  1.0663107209134  1.1389631531895  1.21910493168832  1.31255541674294  1.41565866650867  1.51501464321306  1.59131352621577  1.6359522376776  1.66175036521668  1.7145056865512  1.76594025762382  1.81940337872157  1.8814211517662  1.96216523788862  2.02691081768547  2.08418765586133  2.12285672956027  2.13354947934948  2.12579904962697  2.24593582762831  2.30938895706731  2.31053958491142  2.33049258021907  2.31183399584378  2.32452305926764  2.32073544995842  2.3026302238293  2.25721505956329  2.18731058074695  2.09397622152317  2.06821986931379  1.95199684215308  1.8707814674538  1.69599267218433  1.54249278578465  1.15475063337859  1.05833422156757  0.964540886705363  0.880953986476581  0.80919984759454  0.737755865511296  0.720357159924534  0.662582506450529  0.635353094497873  0.577304614517706  0.481003450799193  0.481827886520152  0.482272721643716  0.482817724850053  0.483657830907981  0.484606200915891  0.486072790114498  0.489602899490936  0.490000002450411  0.490000000433044  0.48999999863993  0.490000004048648  0.490000000464344  0.490000000739456  0.49000000028975  0.490000000745576  0.489999999503824  0.489999999162404  0.489999998773853  0.489999999915717  0.489999998030963  0.490000000793812  0.489999999252626  0.490000000045941  0.490000001358165  0.489999997924117  0.489999999063547  0.489999998870324  0.48999999969684  0.489999998810583  0.489999998793319  0.489999998888065  
0.490000001238219  0.490000000322861  0.490000000321884  0.490000000602416  0.490000000629338  0.489999999786089  0.490000001109173  0.490000001076884  0.490000001034411  0.490000000171357  0.489999998923449  0.489999997615031  0.490000000128326  0.489999999492312  0.489999998952197  0.48999999763361  0.489999999963608  0.553058003646854  0.652082830260192  0.761147396345899  0.871341648699909  0.957976651180308  1.03585779492443  1.11641957008596  1.19814526508491  1.28708547819244  1.3866466166497  1.49772211736082  1.61014049737142  1.70656479771589  1.75735186131856  1.78608454242617  1.82563872741647  1.87544963778135  1.93155393899692  1.99837095683677  2.08591858872084  2.15311655757628  2.22716728338546  2.29770889694376  2.33849584654894  2.34267685879271  2.43640376053013  2.43428469682388  2.44867335509545  2.43501424751924  2.44006454311426  2.43847196702955  2.42598629247322  2.39293635356945  2.3416430224237  2.26755850643738  2.17007724912022  2.05997785696631  2.03445364154776  1.9766227434977  1.80864503072176  1.64691485081564  1.26435181414965  1.15977935227556  1.05348944026685  0.958484363616889  0.875409968616503  0.792437997975842  0.761974936425413  0.687688623154585  0.65203577012047  0.586340846735638  0.480690772063088  0.480899229466393  0.481064826993101  0.481057751241185  0.480856524987865  0.480812417073265  0.479624482992633  0.483622138176115  0.490312881849913  0.491394963658331  0.489999999476394  0.490000001395657  0.490000001848766  0.490000000830472  0.489999999731649  0.489999999673408  0.490000000966396  0.489999999347119  0.489999999523061  0.489999999756164  0.490000001104626  0.489999999795111  0.489999999960652  0.490000000915969  0.490000000268331  0.489999998196008  0.490000002248692  0.490000000481708  0.490000000467509  0.490000000860341  0.489999999783753  0.490000000213774  
0.490000000493122  0.489999996059049  0.489999996034594  0.489999996010953  0.489999995988717  0.48999999596878  0.489999995952513  0.489999995942078  0.489999995940955  0.489999996139959  0.489999999812434  0.490000000468501  0.490000000750286  0.489999999755089  0.489999999547103  0.489999999571134  0.468005899030339  0.5500784304352  0.658755078749804  0.773848412657314  0.886185581236181  0.985043750401965  1.07601442046912  1.16295204670663  1.2521789231363  1.34746636118578  1.45332393397211  1.57140842195531  1.69586502738283  1.82439128267536  1.86647065630703  1.88740272290318  1.92346038536264  1.96954391039017  2.02689158510127  2.09691531429733  2.18735635203596  2.26174778035016  2.34991882152144  2.45011815917645  2.53159063223408  2.5410903874121  2.59796356141681  2.58665407866228  2.57352748729548  2.5734559711883  2.57294216311281  2.55959818995784  2.5381309441062  2.49935045559745  2.43754102614269  2.36056373543524  2.26264719756109  2.15115941576472  2.13909587290209  2.06729517053389  1.90703965992424  1.74572624573367  1.37109025742451  1.25772005998108  1.14388026031049  1.04356115585746  0.943280021820178  0.847185991799032  0.801934550453867  0.713048403405035  0.660452103733385  0.584815976623148  0.480337605900045  0.479999999623858  0.480000000534731  0.480000000711702  0.479999998821098  0.479520882518457  0.478575224247784  0.47914387410502  0.487001705267247  0.489899338975139  0.490628820901245  0.490000000240425  0.489999999422155  0.489999999975327  0.490000000805163  0.490000000579262  0.49000000012021  0.490000000437792  0.489999999104574  0.489999999803177  0.489999999906838  0.48999999975085  0.489999999737717  0.489999998450183  0.489999997724424  0.489999999824497  0.489999999780335  0.490000001222268  0.490000000279558  0.490000001910155  0.489999998622727  0.490000000621756  
0.489999996921114  0.489999999087548  0.490000001305287  0.4900000012914  0.490000001369062  0.49000000383259  0.489999997871371  0.489999997872363  0.489999997878513  0.489999998093193  0.489999999116446  0.48999999819325  0.490000000145016  0.49000000003978  0.489999999049397  0.489999998810661  0.453804798846083  0.546686043564381  0.665852785221289  0.789336274193562  0.909039757020488  1.01993628778468  1.11982730383641  1.21336837093338  1.30636037149568  1.40145794732479  1.51029718128274  1.6287514442562  1.74770402621591  1.85361607505018  1.91760591611379  1.95599631697898  1.99468149026741  2.04208489721728  2.09997800406401  2.17350019796214  2.26477169086303  2.35045563463136  2.44408307777998  2.55148736959291  2.64607532280766  2.66935749521949  2.72351069544678  2.70175891621295  2.71553760228969  2.72153386729078  2.71909802327829  2.702595020472  2.67619850479764  2.62893874648201  2.56305428272552  2.47743436338045  2.38147413168223  2.26393430301329  2.24118679717261  2.15410715883724  1.99428935103047  1.84120128196529  1.43979547198458  1.32748864722307  1.21087355242944  1.10395857215408  0.996690096639024  0.89298289006106  0.8192859477737  0.728123054710686  0.640066716760091  0.576112196684602  0.47999999839169  0.479999999112275  0.479999999892155  0.479999999764096  0.480000001516711  0.479540609832576  0.478771779516352  0.479834445546922  0.483423667174842  0.487221417093178  0.489405446087608  0.490031516038089  0.490349936935058  0.489999999449634  0.489999999461613  0.490000001531826  0.490000002013389  0.490000000160015  0.490000000348569  0.490000000450378  0.490000000045217  0.490000000053467  0.490000000159438  0.490000000199275  0.490000000462168  0.490000001137484  0.490000001263052  0.490000001270234  0.490000000520557  0.490000000513783  0.490000000167105  0.489999999024817  
0.48999999798223  0.490000000314736  0.489999998032623  0.489999998864068  0.489999999204314  0.489999999217008  0.490000000648436  0.489999998810743  0.489999998910322  0.489999999132155  0.490000000215573  0.489999999559353  0.490000000974687  0.489999999878926  0.49000000019296  0.383020851009375  0.450800383737739  0.550500812734646  0.679549917019675  0.813569635128213  0.942445428397301  1.0615498088976  1.16552201680821  1.26131185514387  1.35757947459741  1.45571724969794  1.56273634747668  1.67352475627501  1.78086563996819  1.87473513905233  1.9461200000149  1.99930742207933  2.04709625740537  2.09859661282466  2.15559813666203  2.22755737960614  2.31931287815267  2.40653352643118  2.50112885114287  2.60754086023932  2.68406993443829  2.72857304886747  2.80830165668262  2.81390148397587  2.8334728585885  2.84304627332355  2.84450978987064  2.82963384305348  2.79794033348449  2.74745638125316  2.67665873657684  2.59429561158884  2.4953791605169  2.37184973235142  2.33787272597953  2.20776581691347  2.08577567113279  1.9264502556906  1.72008715701604  1.42537295811732  1.3017734304059  1.18096996582419  1.06471163560687  0.942206685526903  0.857395778375959  0.752810717331893  0.649182378081884  0.56577134315675  0.480000000129706  0.479999999222101  0.480000000354418  0.4799999994377  0.479999999095541  0.479529984628738  0.479616329890208  0.479585344467062  0.48169243989451  0.484850903506572  0.487328532063881  0.488901929595594  0.489688495118125  0.489889341158709  0.490075484912731  0.490268622223095  0.489999999929387  0.489999999982373  0.490000000825003  0.490000000616271  0.489999998914387  0.490000001028081  0.489999998142749  0.489999999196216  0.489999998667141  0.490000002304321  0.490000002287379  0.489999999134039  0.48999999964504  0.489999999646862  0.489999999158616  0.489999999772427  
0.490000000462771  0.490000000584843  0.489999999697951  0.490000000430656  0.49000000099045  0.490000000425474  0.4900000005782  0.49000000098417  0.490000000961478  0.489999998921999  0.489999999525284  0.489999999208667  0.489999999427257  0.489999999215  0.490000000054994  0.375825812922456  0.447976521686671  0.559890677893259  0.702134266337921  0.849958639865701  0.989917371737398  1.11459977245198  1.21774466104153  1.31054753766441  1.40732469992806  1.50675078298272  1.60960454621272  1.71247857811719  1.8102946883208  1.89709217118714  1.96972508792798  2.02953420409654  2.08105175585874  2.13404131959398  2.19316520004006  2.26294128326953  2.35196127720387  2.43879497919901  2.53231784342158  2.6249529149134  2.71921141007754  2.77238338416976  2.88096854991699  2.9014686093708  2.93672845231761  2.95863753976204  2.96840508263137  2.95542547659215  2.92359917359269  2.87061343541998  2.80297547347356  2.7123885303414  2.60433675057991  2.48055636510263  2.43426189808585  2.30243912544477  2.17453989373132  2.01179524066032  1.80151642384199  1.51652647927012  1.38478272689734  1.25484360174287  1.11511162047713  0.992684166868599  0.892865296655883  0.776399541546042  0.659993675640985  0.560490509593924  0.478550485859449  0.479999999088975  0.480000000029532  0.479999998193216  0.480000000294512  0.479654224042142  0.47999999966398  0.479939018904858  0.480774913716652  0.483527187874575  0.485758081782466  0.487474582524662  0.488613407411624  0.489278190787513  0.489681936416642  0.490034180224699  0.490385021766696  0.49000000005683  0.49000000008261  0.490000001109342  0.490000000072974  0.490000000945143  0.490000000887376  0.490000001693925  0.490000000576795  0.490000000240142  0.490000000922902  0.490000000597729  0.490000000533252  0.49000000061084  0.490000001136259  0.490000001032917  
0.489999999348513  0.489999999825357  0.490000000158328  0.489999998885733  0.489999999292141  0.489999999999793  0.489999999841341  0.489999999867268  0.48999999990718  0.489999999986805  0.490000000880569  0.49000000009111  0.490000000090131  0.489999999900743  0.323328855668333  0.376268227359378  0.449314987272608  0.57397337619662  0.737398829206642  0.903951679294473  1.05897213952303  1.18781371996689  1.28428349417173  1.36245732483234  1.46124739336325  1.56134744712431  1.65515604088997  1.7503158094375  1.84003016076274  1.91976302860876  1.9897785309812  2.05048518531007  2.10055437671039  2.15293015213331  2.21113678872747  2.28126437677571  2.36535378845259  2.44968255563068  2.54344024937997  2.63928825669319  2.74367420388914  2.8219012283784  2.91404633520505  2.97951783378503  3.03204728096383  3.070852134648  3.08932782224347  3.08747465047467  3.05875756379164  3.00700904438893  2.93161423638279  2.83975699353623  2.72161022794858  2.59399454218626  2.45003636869057  2.39136363633733  2.25709734271727  2.09771768174678  1.88555884314328  1.60461966471145  1.46474652724011  1.31242349333503  1.17373221085451  1.04247191931363  0.932677465925839  0.804911136158839  0.675289382263684  0.559015792925134  0.474452510038306  0.480000000368642  0.479999999310659  0.479999999766804  0.480000000077  0.479999999466489  0.47998823370186  0.48013607283067  0.480937381952152  0.482867301113912  0.484906942241932  0.486457223672731  0.488279102861775  0.488908242611365  0.489371929299411  0.489740511279361  0.49016265846801  0.48999999994108  0.49000000023596  0.490000000491629  0.490000000845971  0.490000002907463  0.489999999946685  0.489999999170275  0.489999999531048  0.490000001082063  0.489999999730559  0.489999999736882  0.489999997199543  0.490000000746431  0.490000000787908  0.49000000144426  
0.4900000004951  0.490000001112508  0.490000000993587  0.490000000340616  0.489999999870597  0.489999998627652  0.489999999712474  0.490000001081725  0.490000000995232  0.489999999870231  0.489999999723188  0.490000000153717  0.490000000132897  0.489999999982313  0.325109122298012  0.375885892112158  0.457136840043535  0.60098073617373  0.781389078331733  0.969109671747633  1.14628056607089  1.29086957695706  1.38489954338213  1.42976907043847  1.54107259272821  1.63403717999748  1.70600150692911  1.7933751882694  1.87152293500689  1.9415370281009  2.0043413852787  2.05879803081357  2.10971846907099  2.15762624125576  2.21388380945628  2.2815006699766  2.36065252590223  2.44546341995028  2.54058282934058  2.64202553862211  2.75703710839804  2.85120955932739  2.96024082906237  3.04773770273039  3.12165159407401  3.17563538543382  3.20943087451839  3.22381247952196  3.20606805397334  3.1436801654052  3.06617134411903  2.96010687068025  2.84015553639021  2.69773890080752  2.54242826940056  2.4886496475771  2.46339168307202  2.27880175264126  1.96409481223971  1.69885936640393  1.5514605139414  1.40555614007494  1.260614703715  1.11988853297954  0.979064895564473  0.856768959334221  0.713733294658914  0.579936112956774  0.469294447291142  0.426424044291615  0.416820677209546  0.480000000124434  0.479999999554796  0.480000000926626  0.479996856498352  0.480422341633924  0.481162057825484  0.482788861948091  0.484466434777007  0.485911901054529  0.487731221606089  0.488461314383118  0.489039136218065  0.489505914144051  0.490012607760214  0.49000000059286  0.48999999983952  0.490000000347594  0.489999999910392  0.490000000307603  0.490000000498653  0.490000004014342  0.489999998991188  0.489999999047131  0.49000000188084  0.490000001916373  0.490000000176512  0.490000000176086  0.490000001962169  0.490000001019411  
0.490000000151563  0.490000000063531  0.490000000481792  0.489999999982651  0.489999999675485  0.489999999866547  0.489999999711383  0.489999999997759  0.490000000171503  0.490000000110585  0.489999999977321  0.489999999929764  0.489999999765768  0.301645686475269  0.334875222268962  0.390763376152741  0.476949019224352  0.635442249156802  0.830722882436094  1.03959811630328  1.24826528798154  1.42503513486311  1.53248848656318  1.59874212659273  1.66630170223931  1.73128864160222  1.78696030921016  1.84395191833993  1.90208793666571  1.96070033013383  2.01569438446897  2.0626107405191  2.10700836891383  2.15390974390563  2.20394625041968  2.26824862765649  2.34394727666136  2.42683822994458  2.52372664393977  2.63236969504394  2.75008020658422  2.87658627548676  3.00474347612746  3.11215551486104  3.20927285606401  3.28614845309312  3.34476378238942  3.36233312105544  3.34344251059702  3.2905904253602  3.19962047980478  2.99250142981543  2.94682807243328  2.79812689144927  2.8809357229248  2.71217866711238  2.52454221447524  2.34691238702178  2.04532331639549  1.7902437413192  1.636857785536  1.4848841350323  1.33377006895469  1.18653423237893  1.03863020093217  0.907288760831099  0.762282111085776  0.62504620845159  0.50534341182163  0.443550934489378  0.425210694888751  0.426725180024418  0.480000000249531  0.479816319351722  0.480122639967008  0.480682984809992  0.482488453334539  0.482783264360951  0.484111125173374  0.485538076037207  0.48663210806438  0.488145645270585  0.488831346941175  0.489354080991183  0.489892749152223  0.490000000379352  0.489999999806917  0.490000000656159  0.490000000722556  0.489999999867342  0.489999999667211  0.489999999844605  0.489999999562006  0.489999999384769  0.489999999386645  0.489999999841096  0.489999999846518  0.489999999853538  0.48999999841256  0.489999999796481  
0.490000001450249  0.489999999311125  0.489999999300076  0.490000000161075  0.490000001229338  0.490000002158904  0.490000000342921  0.490000000101361  0.490000000164446  0.490000000795493  0.489999999891648  0.49000000014412  0.489999999982595  0.319862621745198  0.359675293432836  0.412717868506445  0.503456516546933  0.673287512977599  0.874025789745244  1.09401293708131  1.33025855476318  1.57058324929797  1.6730299914878  1.74286081076186  1.78436164799008  1.82514856831987  1.85358948013093  1.88117311281909  1.92311475399583  1.97355090601252  2.02450549108524  2.06623125173184  2.09823739938886  2.13731517248095  2.18818270172613  2.24938402015903  2.31641851059913  2.39563107037639  2.49348033302878  2.6117698429544  2.74394979086714  2.90829188761057  3.04375639654875  3.17465021670798  3.29446945238132  3.40211877832974  3.47407496932629  3.50614449938788  3.49263985150899  3.42949831000052  3.32438354284318  3.13338576423524  3.05372259001362  3.08300818646311  2.94271560772438  2.77700484572701  2.59265706034298  2.41735110051863  2.10288357662877  1.87529892385969  1.71698323744634  1.5605160339819  1.4051862741999  1.25494444881681  1.10428659328172  0.968490669019066  0.824461690147102  0.689039489334644  0.558966780552431  0.472604608666718  0.45240073536832  0.453450300879978  0.479867062881819  0.479927571870416  0.480321342100239  0.480987484315643  0.482531030716707  0.483762096921196  0.484127679556246  0.485419424569467  0.486442663383898  0.487985266166603  0.488687590931161  0.489247730638713  0.489795969411333  0.489999999779714  0.490000000361361  0.489999999778249  0.489999999708389  0.490000000713917  0.489999998569314  0.490000003408339  0.490000004091453  0.490000003967692  0.490000003923099  0.490000003877071  0.490000003830376  0.490000003783511  0.490000003736802  0.49000000423177  
0.490000002064126  0.490000001218136  0.490000000599381  0.489999999703535  0.489999999725619  0.489999999705347  0.490000000363204  0.489999999989608  0.490000000093144  0.489999999172415  0.489999999831686  0.490000000087905  0.376404975617268  0.382911004863046  0.398691420862872  0.452142244969517  0.551994191448774  0.713651368735572  0.902857567513266  1.11187032333903  1.33467686341241  1.54654362517227  1.71236429178523  1.80529479759888  1.84264144658715  1.88938306169683  1.88453762182957  1.88013217672737  1.9169173026504  1.97856839024154  2.03713348446075  2.07124585712564  2.08687635009789  2.11445635082196  2.16637897121951  2.22439222526972  2.28361175543078  2.35394404789849  2.44932970168766  2.57876159481083  2.73154582984347  2.88930753052593  3.06903114062908  3.22218189895959  3.37223277267745  3.4984468271245  3.6052101558259  3.67337706816391  3.67976879933218  3.56425337511928  3.40674746222584  3.26881739062176  3.28903014706391  3.14856646790457  3.00336489608127  2.83675913998244  2.65037391526879  2.47036112734632  2.17358194397701  1.95809162182013  1.79586277477944  1.63727412831683  1.47788057965916  1.32507897784896  1.1733978760772  1.03795934349414  0.897973244713965  0.767780568619211  0.644069422534327  0.55219907216686  0.508008123512974  0.488781728669303  0.48308102716741  0.477865407209317  0.473560414527189  0.471735721642265  0.462686539769248  0.460169543006861  0.466280371467552  0.469477099463508  0.464340878469418  0.626628673733249  0.590226141070861  0.558923528630543  0.514873144405211  0.489999999910044  0.489999999596421  0.489999999888202  0.490000000357753  0.489999999835134  0.490000000424383  0.490000000822288  0.490000000759611  0.489999999954582  0.48999999995604  0.489999999957254  0.490000001154451  0.489999999965454  0.489999999893348  0.490000000162581  
0.489999999867967  0.490000000308391  0.490000000286462  0.490000001208765  0.490000000918363  0.490000000412852  0.490000000353671  0.489999999901168  0.489999999858201  0.490000001374892  0.4900000005846  0.490000000340797  0.392468627064642  0.414067790003268  0.454621839706979  0.508682200915442  0.610615123153911  0.74844301621956  0.91234339709269  1.09354938413405  1.28110365189335  1.46123873355742  1.61647773530085  1.72557695621021  1.79851791214072  1.86848164445181  1.82590215362281  1.80662229891263  1.87081112334443  1.97206720952878  2.05665451289421  2.09642598948731  2.09147100080749  2.10204626053443  2.15676538422617  2.20733677449003  2.25398014511046  2.30646248203115  2.39105787319711  2.53735483095031  2.71696814107388  2.89405184171748  3.09931738137564  3.27194793287178  3.43593829937742  3.58464489223979  3.71531389735455  3.81637408664545  3.79982247153457  3.6683253331764  3.52792597157422  3.39981673814605  3.3536676446836  3.20516566473905  3.04999355063311  2.89059414072908  2.71100296537554  2.53152123200275  2.24058637482379  2.03638530660653  1.87330523296054  1.71312739135001  1.55368148387149  1.40005953741612  1.25076211874394  1.11596439897397  0.979666638709102  0.856131380966885  0.734312654929748  0.642449382356817  0.573914608725985  0.537664690937306  0.507148327967471  0.496431088536631  0.498728670912477  0.489728634658536  0.476891744894664  0.477971647762092  0.480342696537717  0.47875831588933  0.479983170359121  0.483210144108419  0.603414355263268  0.567151868037156  0.518860819512914  0.489999999857895  0.489999999937914  0.490000000240356  0.490000000525358  0.490000000185372  0.489999999727658  0.49000000172525  0.490000002178361  0.490000002128424  0.490000002148444  0.48999999850942  0.48999999888421  0.489999999525364  0.489999999195638  0.489999999811642  
0.490000000602411  0.490000001643829  0.490000001636772  0.490000000336559  0.49000000034595  0.490000000449463  0.490000000370241  0.49000000034366  0.490000000303641  0.490000000246505  0.489999999614326  0.385467168915965  0.409201297580429  0.439688247758792  0.48677461215099  0.555654301725179  0.650238786437166  0.770014025797518  0.905501950297102  1.05432593909562  1.20339359371396  1.34779261786882  1.4884895260936  1.59980418380173  1.67292674761996  1.69669295220949  1.64367974789978  1.64106889244215  1.78962563182786  1.96449408797884  2.09735490799628  2.14433950249676  2.13757981165831  2.13997514069427  2.16741273526276  2.20554604172203  2.24122072843931  2.27370091190759  2.31706778226683  2.50833802331287  2.7155572030204  2.90687271698404  3.12989656151707  3.31404765335854  3.48850031592584  3.6447314837836  3.79652476400873  3.91262501355495  3.89163268055237  3.76599493867353  3.62659889676167  3.4807704325875  3.39618233682731  3.24972635815491  3.0912230190464  2.93610394710881  2.75395026076003  2.57558596813112  2.28059114332612  2.10892110945144  1.94420948195726  1.78369762893247  1.62627982201961  1.47324999215525  1.3265491159281  1.19509120522828  0.940344717484968  0.85377183050656  0.739141443210523  0.660252372894245  0.611984400587778  0.572445477188077  0.539342305708852  0.530862784979956  0.530350176007004  0.517577158007936  0.50307162283666  0.497674480789736  0.496127605003573  0.496152315267951  0.496190606016343  0.480801671200575  0.606989871345041  0.568880716185745  0.520026590789142  0.490000001528625  0.489999999817205  0.489999999884818  0.490000000097092  0.490000001460177  0.48999999954685  0.490000000711726  0.49000000076516  0.490000000888613  0.4899999984722  0.489999999907008  0.489999999358289  0.490000000664241  0.48999999929151  0.489999997492404  
0.490000000084451  0.490000000124171  0.490000000094515  0.489999999856433  0.48999999992132  0.490000000000575  0.490000000094967  0.490000000202842  0.490000000317048  0.490000001287671  0.489999999543015  0.422890664272468  0.446459734622274  0.473140436765431  0.512610129218054  0.586426809261454  0.675418670210932  0.776804677797881  0.892164621175042  1.01237459607381  1.12687984415029  1.23431474969997  1.36660227435707  1.46868131928511  1.53554940437743  1.55914402003199  1.47025186878503  1.40287178851809  1.72505352631761  1.95708714784725  2.16472759652163  2.19037619041616  2.16382157886797  2.16010154489025  2.18108313348882  2.21633156744946  2.25475412049154  2.29857778175241  2.37540682512024  2.53968629906537  2.74023593341964  2.93092081782009  3.1605778132217  3.34999829363707  3.52323928246077  3.69268752428307  3.81836042581478  3.89952402501774  3.88699976712939  3.79611318934239  3.67172981628993  3.5325434567386  3.42782295549143  3.27429737504027  3.11659010227197  2.9696900032128  2.79068593363931  2.61679304508657  2.338845620906  2.17158054870654  1.96290416660173  1.805577063027  1.65163912676594  1.50180836169873  1.36265486819333  1.23213526597444  1.11033816374341  0.898633198770928  0.786760548928484  0.715732528837035  0.635225586063652  0.592299012380603  0.547015601450358  0.539493408150481  0.535873500735565  0.521638022311334  0.493033360365601  0.48675689612259  0.482657263184564  0.483012669385411  0.483558217040917  0.487548056201168  0.511503356309854  0.578376346267598  0.490000000603225  0.490000000173064  0.490000000196321  0.49000000024887  0.490000000521199  0.489999999611084  0.489999999558468  0.489999998940146  0.489999999073321  0.490000001915713  0.490000000251276  0.490000000437367  0.48999999990075  0.490000000073194  0.490000000324601  0.489999999960688  
0.490000000803065  0.49000000066935  0.490000001720134  0.490000001705085  0.490000000194084  0.490000000178187  0.490000000157961  0.4900000001327  0.490000000101828  0.490000000084321  0.490000000186908  0.440425844113756  0.461893024729666  0.489948346201075  0.540182190117516  0.609042219100577  0.689852917922113  0.772206283435112  0.869881094323652  0.97050752133981  1.06954324946274  1.16717828454011  1.26708648637155  1.35310039047638  1.41277111876316  1.44687452707589  1.42749005237522  1.5767862551213  1.7269328128649  1.8826551416252  2.0647929857288  2.12297899169658  2.12858684563276  2.14510307062793  2.17509500912096  2.22809402394457  2.28228761200835  2.3513795221995  2.45657343992981  2.601574005637  2.78332003653497  2.96245863226821  3.19197854165544  3.39403762473555  3.56728521358585  3.71270823081157  3.8274542361481  3.87981660502736  3.87023619522039  3.79487135528447  3.68674337134003  3.5582477802473  3.43845019170702  3.28531934109956  3.12509911165271  2.9617442861389  2.81860422678921  2.64733515053424  2.38797862138086  2.22070295994086  2.01454432323637  1.85956019626016  1.70815881453533  1.56180629145308  1.42607579421455  1.29707630677626  1.14377373457241  1.02484675839398  0.807995610822183  0.734179654023828  0.676725928846994  0.628773735179179  0.578340320714566  0.570803589872624  0.562521710093864  0.54483025396805  0.512972459708164  0.499447765408865  0.493920260722032  0.490025491405079  0.488551446661171  0.492312629429816  0.521033247915126  0.589244910575647  0.48999999971019  0.490000000441363  0.489999999969264  0.489999999760958  0.489999998207868  0.49000000110529  0.490000000931093  0.489999999821557  0.490000000343065  0.489999999874819  0.490000000004967  0.489999999197646  0.490000000473807  0.490000000659412  0.49000000062251  0.490000001659708  
0.489999998920245  0.489999999340851  0.489999999563214  0.489999999576713  0.489999999590739  0.489999999603714  0.489999999612805  0.48999999961353  0.489999999600008  0.490000001058613  0.489999999875115  0.465656970839645  0.48112567523376  0.499759104784106  0.563336959364789  0.625079769359402  0.69752825243477  0.762988538202899  0.846232455378103  0.931873571086295  1.01737477379325  1.10051321405013  1.18161313443388  1.25090659720311  1.30621447285804  1.34778386197608  1.39083243226225  1.49358991784802  1.58933380270186  1.69885814375755  1.84519403635009  1.96280128398241  2.03890764027071  2.09805356241771  2.15413819482399  2.23360472472919  2.30820615341416  2.39693131571239  2.51533331165221  2.65357869145276  2.82311585485792  2.99054557724495  3.20866364736138  3.41473965311947  3.58461002924718  3.7276286054201  3.82423176398111  3.86750519350273  3.85313240328439  3.78792039457125  3.68975627368303  3.56056019238538  3.4378906906805  3.28637004461377  3.12798636885123  2.96484850328393  2.83171506383909  2.67019120993525  2.42605088040143  2.26227510684827  2.11217590865144  1.90580507226665  1.75869095002817  1.61501058802651  1.48212058934364  1.31041469150297  1.18502390650975  1.01488851456944  0.850530294109009  0.774729325053993  0.71495940737032  0.663398839992907  0.609255142755408  0.596616795199016  0.583623823985104  0.561224237096061  0.532699082510599  0.516868634259884  0.506049559939855  0.499708536527883  0.495711909829365  0.498472954853114  0.527854019573024  0.488768113534592  0.489999999748417  0.489999999547354  0.490000000135256  0.490000000043675  0.49000000072766  0.489999999938654  0.489999999361744  0.490000002531185  0.489999999875751  0.489999999582903  0.490000001026383  0.489999999948677  0.490000000299857  0.490000000851782  0.49000000214997  0.490000002069566  
0.490000001158053  0.490000000985306  0.490000000921342  0.490000000841175  0.490000000742563  0.490000000623548  0.490000000482836  0.490000000320107  0.490000000135498  0.489999999817355  0.472745854399144  0.472729907570695  0.489503705406556  0.528986786358489  0.576963695849237  0.634016940002566  0.699211179494112  0.748268781249751  0.819585788587638  0.892634949408266  0.966613589445484  1.03658247411859  1.10329479471269  1.15947165237211  1.20725405757553  1.24726837046881  1.28147415694806  1.32710971787152  1.36494349450388  1.44725108049369  1.62689848428762  1.80132140709911  1.93423157355231  2.03479133834235  2.12190199324032  2.19790895686308  2.32131243730976  2.4243666510794  2.5503010420286  2.68461082222006  2.84710196686211  3.00002715234441  3.23953180443478  3.42480174308408  3.60138992871251  3.73778455970411  3.82887428528774  3.8637259211193  3.84086411633836  3.77188550986818  3.67574170608793  3.55529342532822  3.41713126245321  3.27480799169879  3.11854922258209  2.95848426392682  2.83442482904004  2.67719727303669  2.45346964994694  2.29418872803226  2.15019678999854  2.00078290915347  1.8018153272448  1.64722894842006  1.47267761372663  1.26239538041009  1.15408931895577  1.0520524378754  0.886810229941704  0.810126660950443  0.748787508549413  0.694305245663117  0.63744176253425  0.623450829971261  0.598346046293928  0.571228649172384  0.552120472536352  0.532112367254129  0.518218657609022  0.508419351748653  0.502469770454995  0.505069322818898  0.537608164331004  0.488684711941931  0.489999999913835  0.489999998899292  0.490000000119269  0.490000000146143  0.489999999995552  0.490000000555804  0.490000001920936  0.490000001090063  0.489999999591565  0.489999999562235  0.490000000325134  0.490000000051549  0.489999999287215  0.489999999231692  0.489999999175428  0.489999999238399  
0.489999999418024  0.490000000003671  0.490000000010228  0.490000000018384  0.490000000027845  0.490000000037934  0.490000000047318  0.490000000053575  0.490000000053797  0.489999999999598  0.47592958693726  0.479584505442095  0.499583498842011  0.544404089816286  0.590235018704633  0.640462459583714  0.708107091554468  0.733732335362621  0.794439139971023  0.855720005858299  0.916779048947594  0.974965241357177  1.02986191331453  1.0762541513976  1.11664078827614  1.14917284583773  1.16579555983606  1.18268050777433  1.17823975799604  1.20984993451387  1.45804974251413  1.67438562490501  1.84227957862137  1.9683308049361  2.07688476591411  2.17662291241575  2.25882472804682  2.43112544876987  2.55950491405433  2.68962477224064  2.84700586818821  3.00583383063626  3.23699056501269  3.42952764542003  3.61112094747613  3.75503771072521  3.84493770090358  3.86918173150252  3.8325501565147  3.75177477478617  3.65488574815904  3.53210349958548  3.39427075469607  3.25312935003872  3.10117102604929  2.94635822386727  2.83506996588363  2.68241949534071  2.46665747900053  2.31475091748679  2.17830401632204  2.01648462762721  1.81921641530655  1.61555541053573  1.40217754643792  1.29121144174234  1.18342822320072  1.08256922790339  0.917600793952494  0.84018538655023  0.777810306426978  0.721385030344277  0.662282954654831  0.645072502799722  0.623275631516414  0.583913608950434  0.567861190576126  0.547900648262617  0.531441703734061  0.518295442378357  0.509555606858772  0.512710710332239  0.551074207959287  0.488583725880049  0.490000000234291  0.49000000010628  0.490000000544758  0.490000000041353  0.490000000619475  0.490000000233989  0.489999999866157  0.490000000248957  0.490000000461052  0.489999999626914  0.490000000532586  0.489999999412905  0.489999999370116  0.490000000217593  0.490000000229788  0.49000000024179  
0.489999998603759  0.489999998819324  0.489999998967881  0.489999999143486  0.48999999934962  0.489999999589226  0.489999999864024  0.490000000173518  0.490000000512962  0.490000000654234  0.479277804876953  0.49005368262602  0.503646549322645  0.556130771456765  0.596994836336885  0.639689262339478  0.692493163217902  0.721429298453564  0.772946235757838  0.823932344473504  0.873514329757725  0.9184831299627  0.963193431263933  1.00454097706627  1.03583044600605  1.06317439048699  1.07440985957887  1.09126008297765  1.11492448844471  1.19654761099981  1.3738369918611  1.58132869153143  1.75832537247626  1.8943897151632  2.02428013475622  2.14813732647873  2.24206600868174  2.30921810386131  2.54051673972525  2.66439707129472  2.81641185618442  2.97359652628422  3.21169681164865  3.4041853118944  3.59533872841315  3.75889517744505  3.86308351683199  3.87267441398016  3.80621932559896  3.71507747525759  3.61203801721938  3.49098597378421  3.35681428406281  3.21446572489226  3.06463263758388  2.9143691735972  2.81357795248863  2.66887216022685  2.47148760442984  2.30617793093345  2.16249255793961  1.96438849670832  1.79317710913435  1.53611249359049  1.42080897227392  1.31238133030609  1.20479978063165  1.10779199855027  0.942782836777733  0.865610206369173  0.802471350584854  0.744487344227025  0.684242894243819  0.66580173939382  0.639218547392832  0.602375233239992  0.581111861736988  0.56286117199429  0.54333638216283  0.529003590957632  0.517471552710554  0.519901099291292  0.48820599208466  0.488490674525823  0.489999999741383  0.49000000045951  0.490000000140904  0.49000000105257  0.490000000344852  0.490000000654173  0.489999999873886  0.490000001097235  0.490000000387457  0.490000000380412  0.489999999899387  0.489999999882657  0.489999999871135  0.489999999717058  0.489999999711481  0.490000000328733  
0.489999999987699  0.489999999979058  0.490000000020347  0.490000000076221  0.490000000150346  0.49000000024727  0.490000000372972  0.490000000536664  0.490000000751749  0.490000000771917  0.482751798290753  0.495592813123714  0.511298948880744  0.562879987141024  0.597641145999156  0.637259566941633  0.683868785246834  0.706996063701669  0.750478985277536  0.79271693969967  0.833579325977463  0.869089220277575  0.904995971329138  0.93821099834872  0.965608513350524  0.991641195483738  1.00222935252497  1.03166558446013  1.07926761514736  1.17011365793625  1.31130080037642  1.48194633621098  1.6493736179429  1.80329708687416  1.95645325592291  2.11073315354529  2.21985740121288  2.27495830239589  2.480480929865  2.60178916142205  2.74794504338482  2.95232575340362  3.1399838559775  3.34171222055878  3.55146140938606  3.751825927951  3.88513219655691  3.86213471202124  3.76077560878785  3.65279732069639  3.54819679650976  3.42703843043954  3.30089449192801  3.15488255287388  3.01619154390435  2.87238387132217  2.77893939886307  2.62451567805537  2.4379786699158  2.30002507255724  2.11476646664355  1.93095381853503  1.80126521140403  1.54301538794566  1.43138954585303  1.32655873955496  1.22019002443839  1.124961536223  0.964541574424885  0.88718279345808  0.823855465690476  0.765802789135556  0.705133368756161  0.685599588057455  0.656938667815762  0.614605173761571  0.591613732982317  0.576482060729309  0.557675659741861  0.541457628513887  0.528449104369994  0.528561438637512  0.488267981111468  0.488421877338377  0.489999999761053  0.489999999217665  0.490000000062021  0.490000000346173  0.489999999703687  0.489999999492879  0.490000000204617  0.490000000555182  0.489999999693574  0.489999999821164  0.489999999822866  0.489999999411017  0.489999999386266  0.490000001038109  0.49000000103613  0.49000000109131  
0.489999999283225  0.489999999322717  0.489999999396715  0.489999999486201  0.489999999591819  0.489999999711587  0.489999999838317  0.489999999956738  0.490000000045357  0.489999999599658  0.485833510607947  0.500556805528344  0.518408480351748  0.565535221238127  0.596735664286694  0.635900979566229  0.678857016905704  0.695144765005538  0.731613379286069  0.765855026734694  0.790623175671358  0.827961863896935  0.853363097830422  0.881276260659122  0.869572922572231  0.893577542642049  0.920730523344479  0.95601533714984  1.01199037936834  1.09702020132339  1.21483741238833  1.35690282997746  1.51040560164189  1.66830360511549  1.84350143462756  2.03920674631222  2.21691294236491  2.30218127733561  2.38385519201535  2.49468586836597  2.63606274781194  2.8352874536184  3.02367492115722  3.22972806255133  3.44343954156294  3.66434564917542  3.8586129338755  3.77323227914722  3.65932738853354  3.54157396175162  3.44324027871605  3.34197376864089  3.22010217315874  3.08355173864351  2.9502641446279  2.79568232025408  2.74027670394017  2.59109523439352  2.43705314295296  2.21741928376369  2.03953402606381  1.92396806434319  1.79913873689695  1.5417321991012  1.43410916155094  1.33382306912041  1.22867156392027  1.13616176286306  0.484103573126183  0.4841482782438  0.484240817625832  0.484370240060587  0.484536827239275  0.48474360352231  0.48548787069067  0.485811607744255  0.486165943711592  0.486527291811032  0.48693154456702  0.487330665007566  0.487747828640588  0.48808703398547  0.488291244786129  0.488650529178388  0.489999999208385  0.489999999608431  0.489999999995427  0.490000000110744  0.489999999577794  0.490000000159178  0.490000000032055  0.490000000005297  0.489999999268194  0.490000000228238  0.490000000237757  0.49000000025286  0.490000000272807  0.490000000296637  0.490000000323481  0.489999999782995  
0.489999999280234  0.489999998013706  0.489999998062496  0.489999998174959  0.489999998325228  0.489999998523069  0.489999998776772  0.48999999908009  0.489999999348533  0.489999999751353  0.488697811139158  0.505456550763304  0.525054549382918  0.565635136118684  0.589637554811347  0.625719645644687  0.660369977214944  0.677759739770412  0.709971202057523  0.736602737903649  0.760806625928239  0.783616133683451  0.805926873945388  0.827987383847852  0.809630295622663  0.831534622418232  0.855039781033154  0.895352462026326  0.947619872217791  1.02221597841939  1.11977074086497  1.23914069978808  1.37401642991451  1.52070100308943  1.69562634945127  1.89386288146536  2.08099982071457  2.14611867713774  2.22721137862131  2.33649646105192  2.47845983252343  2.67331232690525  2.85823108109874  3.05884616548263  3.25878756584141  3.44552716953257  3.56595605114273  3.56340756789313  3.48997723761046  3.39439781295304  3.31827338862767  3.21827916296215  3.1125200793205  3.01161207765038  2.85298874876962  2.72722442020824  2.64371511501683  2.5203791285612  2.2848669958194  2.17224640260156  2.03805083007997  1.92842961528291  1.80752867277492  1.67009601504624  1.43027289577482  1.33309582973694  1.23242980102666  1.14079129682582  0.48445689416509  0.484504257464752  0.484595404193179  0.484719680733888  0.484875645208311  0.485602465332996  0.485801889005499  0.486103265697486  0.486438446473925  0.486794990282831  0.487166359940623  0.487536150467059  0.487869120275794  0.488179955815755  0.488271313770421  0.488623001683883  0.488729155999588  0.490000000684541  0.489999999808001  0.490000000029933  0.49000000032132  0.489999999570238  0.48999999947845  0.490000000985724  0.4900000008913  0.490000000831934  0.490000000787912  0.490000000746029  0.490000000706749  0.49000000067003  0.489999999870233  0.48999999967361  
0.489999999678622  0.489999999724676  0.489999999773992  0.489999999826495  0.489999999881533  0.489999999937154  0.489999999988468  0.490000000023365  0.49000000000753  0.489999999775293  0.492526476805532  0.510112734592719  0.536700640580924  0.564221908358229  0.587323503366807  0.615527870116581  0.643329765665391  0.669773013231381  0.704834721680432  0.715538229528085  0.729863908780552  0.745707276624882  0.762807622369375  0.750841746289118  0.762902780332274  0.775054124900147  0.79428945231067  0.829589812651736  0.873494629899295  0.932644844812976  1.0132071263343  1.10834936741349  1.20759662445556  1.34622518433865  1.50289452772207  1.66566382598399  1.78747073854362  1.89392849081956  2.00841679120967  2.12820846974978  2.27773300163063  2.47106423635308  2.65459094330326  2.84606280981037  3.02570588588057  3.17967894711519  3.2811916441462  3.30907756375609  3.27649828348363  3.21250949011073  3.1560138555394  3.07383312918147  2.97823787348627  2.91330154213482  2.74415576098975  2.64728337048695  2.50043304035994  2.3680240564348  2.26280916854085  2.13264475575196  2.00620067275747  1.88881350353338  1.787820052878  1.67606326014692  1.55290335240376  1.32693419655377  1.2286897988196  1.1397847467496  0.48478849167141  0.484859444606678  0.484948407454442  0.485069215383866  0.485217953337219  0.4859180231363  0.486110145758743  0.486399192234753  0.486702675130084  0.48702881113725  0.487350777086638  0.487676591985035  0.487966018242859  0.488230650934446  0.488285566993968  0.488564895253466  0.488648925759027  0.48999999981186  0.489999999876771  0.490000000193338  0.490000000224327  0.489999999716157  0.490000000477665  0.490000000594095  0.489999999996444  0.489999997874668  0.489999997840694  0.489999997818742  0.489999997803981  0.489999997793852  0.489999997786872  0.490000000616665  
0.490000000873501  0.490000000835788  0.490000000795049  0.490000000750181  0.490000000699289  0.4900000006391  0.490000000564259  0.490000000468262  0.490000000356533  0.489999999483967  0.495265212930274  0.513706971329768  0.534870574619383  0.561719780965726  0.581873414423036  0.605392060148986  0.631226563507946  0.656362386379282  0.688022229714657  0.719663400039634  0.704150353876877  0.708423949829448  0.734201152318731  0.711242983155031  0.70981977064855  0.721216905355682  0.731972243480893  0.762514744099418  0.795059596479314  0.839604556956898  0.896808549780424  0.969568844874653  1.05397944035158  1.15493100278898  1.2823758139356  1.40719487748766  1.486091860866  1.6017462729539  1.74422524466308  1.87865198391365  2.05047567703373  2.23853282398803  2.42327314460198  2.60768676677466  2.77143431080058  2.90991060020382  3.0059622903358  3.05086998020159  3.03891610415444  3.00288417062395  2.98474539933054  2.92507970938459  2.84728845730943  2.77235020790729  2.60852397781855  2.50487141145842  2.36242716761029  2.32094715491884  2.20702985367931  2.08573180057352  1.97415338550898  1.85491938734337  1.76073636990505  1.65510996961683  1.55624507822565  1.44341870607441  1.22049298660093  1.13624826771179  0.485128312372571  0.485197337585453  0.485285366812998  0.485402543292336  0.48554339525191  0.48620856277474  0.486403334495109  0.486673476620355  0.486931391843537  0.48722966400086  0.487509689797663  0.487772010801674  0.488015282919511  0.488216564993418  0.488185946768681  0.488489279542127  0.4885741350699  0.490000001213159  0.48999999892047  0.490000000838826  0.489999999700666  0.489999998321251  0.489999997360603  0.49000000071053  0.490000000751732  0.490000000737237  0.490000000715659  0.490000000690937  0.490000000666156  0.490000000642443  0.490000000620151  0.490000000681677  
0.489999999897535  0.489999999889655  0.489999999898219  0.489999999928955  0.489999999989009  0.490000000086178  0.490000000225405  0.490000000397695  0.490000000555462  0.489999999711589  0.496873794364697  0.516139830041922  0.537278855149112  0.559550991369135  0.579768240192255  0.597179290967028  0.620690368487673  0.642484313463433  0.66925528879455  0.698995069579756  0.734321686054827  0.690847669734016  0.698635775612029  0.669489371661774  0.662734071855053  0.669451974625674  0.669972695689523  0.693321998559463  0.717828639284511  0.746333285059336  0.782865190689278  0.82791854482359  0.884156366744421  0.950737105329467  1.04441900800065  1.13646172930246  1.18279581471978  1.32449977267924  1.45342377241958  1.60453074450974  1.78743082224484  1.99046866633788  2.17834927981352  2.35934256023874  2.51471099808518  2.6455947227399  2.74024631176441  2.78882584023615  2.80440036006989  2.79200116269925  2.80398325319581  2.76617746546927  2.68097249117338  2.61115802292442  2.52613961887469  2.35316024232342  2.29845004683815  2.25052469145425  2.14396547871188  2.02416378446696  1.92578111316796  1.82254994699984  1.72684829238568  1.62732108623151  1.53433992865175  1.44679488623015  1.20647978303526  1.12559443682657  0.485450822742671  0.485514546407506  0.485604187172904  0.48571580302822  0.486262905902525  0.486470292880707  0.486671614565146  0.486899330293456  0.487121101739799  0.487364333418829  0.487592350420783  0.487785387526598  0.488013698415786  0.487947808938024  0.487976730017102  0.488335893585015  0.488606428801952  0.489999999948215  0.489999998987192  0.490000000048472  0.489999999932281  0.490000000961998  0.490000001573445  0.490000000535264  0.490000000751637  0.489999999568299  0.489999999451359  0.489999999354863  0.49000000013237  0.490000000120982  0.490000000568227  0.489999998477828  
0.489999999703744  0.48999999971974  0.489999999737556  0.489999999756702  0.489999999775901  0.489999999792274  0.489999999799707  0.489999999785961  0.48999999973183  0.490000001345273  0.498898923667134  0.517983874485392  0.5374374908213  0.557659095720873  0.576161061778823  0.589625722627602  0.610550705810356  0.627634265147937  0.664523637118821  0.685487111540088  0.715175974071579  0.750088826734568  0.667893843039777  0.623361556156864  0.623574530652998  0.619859654821084  0.611323108470578  0.627293891499864  0.639913281341678  0.656426326925456  0.677129033066595  0.698371804120706  0.721648752276303  0.752676148543662  0.801407516571563  0.865311437795043  0.892630630358909  1.01442375477922  1.14590121116413  1.32018509509259  1.52040208629574  1.74301700071053  1.93625722393075  2.11627123449518  2.26177034425067  2.37642150790421  2.47769438006887  2.54371987017455  2.5742120357065  2.5796237446087  2.59550012785288  2.58626716878648  2.53898708052427  2.47751313498953  2.3524353910403  2.30424078085002  2.21171559594173  2.16938015915528  2.07311923260282  1.97550721546731  1.86850852281852  1.77515228251359  1.68621789369294  1.59245203851545  1.50619296512338  1.42401348374308  1.33659574876698  1.1103768247454  0.485751606241033  0.485812421507903  0.485895982129447  0.486001476775615  0.486169170254925  0.486675027069014  0.486863420266378  0.487046752561387  0.486913970565148  0.487127894464055  0.48736463997048  0.487616631205462  0.487878019861011  0.488094367537751  0.488087133585392  0.488428644491913  0.488655753805069  0.490000000685606  0.489999999008676  0.490000000060283  0.490000000002946  0.489999999833887  0.48999999986428  0.490000000480653  0.490000000374021  0.490000000188303  0.490000000098213  0.490000000035906  0.4899999989064  0.490000000393972  0.489999999882743  0.49000000024999  
0.490000000404349  0.490000000349242  0.490000000281278  0.490000000201541  0.490000000116524  0.490000000046188  0.490000000042682  0.490000000229462  0.490000000850951  0.48999999928618  0.501554576321519  0.519349532473106  0.537678178810998  0.555836613640988  0.572784766157682  0.582412591397236  0.601035914902672  0.627584790721276  0.650620879479391  0.66812120108518  0.694706584352831  0.729648205715709  0.73128636041176  0.754516895222588  0.568072909118358  0.552076205360863  0.559817058375128  0.566357264212012  0.569637819975799  0.576017672654756  0.5834656660011  0.587226769864155  0.590057131888098  0.585242935665748  0.57908492463143  0.602929015127061  0.64704779091345  0.705581628761464  0.834900093148539  1.05120142258309  1.27160767212648  1.50792104197999  1.70402965225661  1.86261249483664  2.00760251858108  2.13411219613405  2.23671293525757  2.31053301455665  2.37903812439707  2.38856819972105  2.43016182609722  2.42115192968372  2.38862171194746  2.29552331221418  2.30871929269023  2.2247784806052  2.11712063742304  2.02763189442314  1.99485545077086  1.90712279748329  1.80835803939647  1.72265236584366  1.63560014465578  1.55337859250782  1.47412692675649  1.39651494333703  1.31474633976832  1.19550272102845  0.486018903598409  0.486074648517843  0.486151720429702  0.486247660288407  0.486475101775846  0.486637646310559  0.486792691351048  0.486964641198561  0.487153774871352  0.487353192496314  0.487574706052025  0.487801682960697  0.488052060100725  0.488242098849073  0.488200197255525  0.488522402314512  0.488696927229223  0.489999999937843  0.489999999911355  0.489999999994669  0.489999999773511  0.490000000891657  0.489999999961095  0.490000000314422  0.489999999743817  0.490000000130216  0.490000000147701  0.490000000163227  0.489999999497185  0.490000000329174  0.489999999048886  0.49000000099244  
0.490000001512606  0.490000001524834  0.490000001534751  0.490000001541553  0.490000001544065  0.490000001540145  0.490000001524284  0.49000000147693  0.490000001335998  0.490000001469222  0.502145277065069  0.519561610466111  0.537428785729896  0.553649711122348  0.569627909703129  0.586782479554903  0.576088634376349  0.59814720009879  0.61389995654322  0.630364480013637  0.63382735058826  0.657293647262065  0.667286158300097  0.675153420119898  0.679305280654156  0.676364426183476  0.648206431873363  0.588652887591707  0.653692727474429  0.602548166661575  0.589755344439719  0.557421388644312  0.569530637140284  0.539159158755851  0.503152695185636  0.489480241848513  0.494853315292255  0.492768522371876  0.587818626390127  0.816153957785858  1.03519048963258  1.23568535518956  1.42627454679662  1.60156712976912  1.74275268787506  1.86937301180395  1.95943713618043  2.03978831450267  2.11171381596802  2.13596874418192  2.19911175264501  2.19173734601802  2.11281148889914  2.07896390809636  2.03091399895558  1.97709824499164  1.87166134066704  1.806803732902  1.73507545314664  1.66494272302394  1.59334379358404  1.52160248604699  1.44731619628206  1.37683797618669  1.30764410982013  1.23931881689084  1.17346267884109  1.11179938060975  0.486241153606104  0.486292327690016  0.486361990774296  0.48659006405585  0.486736678734146  0.486882221643602  0.487032230652012  0.48721795833473  0.487398793914215  0.4875856887619  0.487794422394983  0.488005240611258  0.488234225170872  0.48840427372788  0.488327417669983  0.488629923268539  0.488732419782129  0.490000001030287  0.489999999886793  0.489999999797035  0.49000000130032  0.490000000803244  0.489999999621675  0.490000000786996  0.490000000797468  0.490000000571678  0.49000000035292  0.49000000108535  0.49000000075116  0.489999999505043  0.490000000154959  0.490000000280807  
0.490000001655907  0.490000001519008  0.490000001391944  0.490000001278704  0.490000001183654  0.49000000111065  0.490000001060459  0.49000000102396  0.490000000973019  0.489999999432867  0.50190706033251  0.518902114398444  0.536714436534918  0.555575327834046  0.567085906586039  0.576396284891981  0.572490428250888  0.586199683740026  0.593767832573909  0.607768006754725  0.625892790332565  0.632841150435741  0.591138406902057  0.58087126167355  0.566030969764108  0.587426860955422  0.616654161882293  0.565520634209036  0.613557768058572  0.566559607949491  0.553098946101465  0.521970571924851  0.523592985785089  0.506544592718819  0.487632142780564  0.490000000304383  0.490000000106289  0.490000000228362  0.547763566840918  0.688828307166141  0.866892796778669  1.06071814458729  1.23964154017967  1.40447608804764  1.51390700928012  1.63807591282667  1.74091758193773  1.82307671685293  1.90684051133458  1.94473274782845  2.02819533626411  1.96564996807198  1.95562187219243  1.92360340890303  1.88199787373245  1.83511049313344  1.79450030686921  1.73950263791295  1.67767111724462  1.61663649512294  1.55325623892111  1.48881299957469  1.42152869873626  1.35726403183681  1.29356961740183  1.23034390477629  1.16925098321385  1.11068631061828  0.486469142237098  0.486513827305326  0.486751613616436  0.486904076276647  0.486984465407115  0.487121530538124  0.487262202590969  0.487413482642494  0.487580941851076  0.487763637231106  0.487956862888688  0.488162597652453  0.48838577801037  0.488537153841409  0.488426945871904  0.488710930233  0.488764968227722  0.49000000011848  0.49000000000293  0.489999999755226  0.489999999316685  0.490000000408069  0.489999999923138  0.489999999974502  0.489999999868434  0.489999998718107  0.489999998741568  0.489999998771068  0.489999998802068  0.490000000745521  0.490000000806368  0.490000000744467  
0.490000000373825  0.490000000382172  0.490000000389366  0.490000000393766  0.490000000392169  0.490000000378241  0.490000000339314  0.490000000249216  0.490000000026347  0.489999999271345  0.501962053545499  0.516676662378562  0.535241594209607  0.553676299584163  0.56462789482115  0.57225920784712  0.563104244937385  0.577071158516289  0.586755542873194  0.604003447276113  0.592299527954142  0.587991111008868  0.581855021062048  0.571827832930746  0.556342434007757  0.550118370189255  0.589374960707633  0.573139182237513  0.583679730889132  0.548389397506441  0.535433290669892  0.503333016991304  0.508217688866787  0.491793516226137  0.485040538594847  0.48999999993165  0.489999999354196  0.490000000636333  0.500832665968635  0.614743214969539  0.78400490338304  0.971937478343651  1.13163969073566  1.24298554767119  1.37749789813384  1.47128888847001  1.01646709538018  1.65371909618812  1.73651977042281  1.77378644739718  1.80745363267517  1.83030641331924  1.80808671684659  1.78573427159631  1.75542214086136  1.71619111093104  1.67146118473837  1.62034781265034  1.57431338680234  1.52099695829741  1.46553718775444  1.40886194748867  1.34914441286495  1.29145933216429  1.23628805494827  1.17902361400618  1.12298031080182  1.06942534984883  0.922075550305673  0.486921812553947  0.487146757230648  0.487152950382424  0.48723177017844  0.487365064474498  0.487492237205393  0.487631247862451  0.487787650025488  0.487956154431944  0.488126755552582  0.488321170164117  0.488501087866619  0.488651251712222  0.488503430866956  0.488767845406585  0.488797507208171  0.489999999656292  0.489999999709677  0.489999999982836  0.489999999644871  0.489999998705998  0.489999999668271  0.490000001019518  0.490000000997592  0.490000000747359  0.490000000595014  0.490000000488461  0.490000000416921  0.490000000371394  0.490000000345048  0.489999999724804  
0.489999999897445  0.489999999927321  0.489999999961221  0.4900000000006  0.490000000047818  0.490000000106825  0.4900000001844  0.490000000293022  0.490000000457129  0.490000000245509  0.500416696395575  0.514217694278205  0.530623224698663  0.549888905221297  0.556843887523089  0.569468739157891  0.563867865003496  0.57255311095483  0.587843159447117  0.585755283530881  0.58331295356252  0.579156691968021  0.571405300032852  0.563025221965836  0.547132262705909  0.541748019860174  0.564830179831845  0.555324327762763  0.581617915697526  0.532501287915785  0.523412444558856  0.494828337849588  0.495788069465445  0.501369110235786  0.49322210152708  0.490000000198326  0.489999999254329  0.489999999723647  0.490031445550248  0.55214206195391  0.691633659102146  0.825388085681136  0.969123341942451  1.10434133859062  1.22758688698673  1.31356428271328  0.942003312806075  0.981420902000884  0.488520746786571  1.58782986566797  1.64089332368424  1.65135281570423  1.63854848044314  1.62643863792175  1.6058238255249  1.57632148641267  1.5391606411864  1.50023183724979  1.45747236220154  1.41188489886738  1.36466731869728  1.31382897378582  1.26419610574251  1.2144617855102  1.1632996007802  1.11272586966186  1.06379367782534  1.0159616925304  0.904745914209355  0.487364681276732  0.487386232697782  0.48739515223689  0.487471194772405  0.487592128245765  0.48771031429903  0.487847562217273  0.487980251609385  0.488135160998159  0.488283391307182  0.488444668990254  0.488624433103394  0.48876025705754  0.488600328799289  0.488824193187821  0.488849644491737  0.489999999015374  0.48999999937959  0.489999999791617  0.490000000019335  0.489999999507794  0.490000000245002  0.490000000011894  0.489999999695709  0.489999999564705  0.489999999656773  0.489999999723732  0.48999999977378  0.489999999811933  0.489999999841472  0.489999999809913  
0.48999999977808  0.489999999791705  0.48999999980898  0.489999999830726  0.489999999857927  0.489999999891786  0.477330530955676  0.479824250240669  0.483210317122324  0.487758701117069  0.496479420194416  0.510067745330667  0.526688554418145  0.538925130722369  0.554648710584875  0.554303098689358  0.560120046835186  0.577369439973179  0.57840873117635  0.577160997129927  0.574213583084439  0.569574608591196  0.561052988188921  0.553927370732448  0.537615299384714  0.532915484318992  0.527581472682672  0.538220793841138  0.557666174595223  0.550499284062754  0.531251183980428  0.514696454955271  0.514278387497047  0.49692969548142  0.483307874217974  0.490000000250318  0.489999999797779  0.489999999398081  0.480832029740485  0.511709060865492  0.595039870556431  0.709849387082721  0.837377667409888  0.962742390666662  1.07952076919953  1.1588691107285  0.857910874308215  0.896817223619311  0.488682791074139  0.488507465172871  1.49419630562255  1.49748582860926  1.50761022980163  1.50438506505877  1.49070107549259  1.47030141524206  1.44214505758642  1.41120676253527  1.37642802664937  1.33836226169978  1.29841383191206  1.25527985694865  1.2135319024999  1.16264995890846  1.11722686710296  1.07178419971902  1.0280694807758  0.987246532693963  0.88821201950992  0.487598133984288  0.487617009402042  0.48762094163319  0.487693002281326  0.487809918870588  0.487922544898594  0.488033737074368  0.48815656239752  0.488300957492448  0.488447478709366  0.488592194993585  0.488741140499129  0.488856777467794  0.488675850743924  0.488868553308847  0.488908142188955  0.489999999720213  0.489999999305699  0.489999999578717  0.49000000001055  0.490000000165727  0.489999999573726  0.489999999316103  0.489999999865147  0.48999999976412  0.48999999965735  0.489999999540174  0.489999999420035  0.489999999300957  0.489999999184997  0.48999999992502  
0.490000000133427  0.490000000132156  0.471771206469797  0.472380711524742  0.473221704155959  0.474375055670021  0.47595162816328  0.47810029313567  0.481012729328965  0.484951419505601  0.490978810994156  0.504434504012907  0.519310074391166  0.537076705449109  0.553528856213715  0.563450984579548  0.570154855832273  0.572516215795007  0.572106731703533  0.569731405285603  0.566260732509087  0.561592862929729  0.553823502246668  0.534506431255715  0.531040595008752  0.527247540105437  0.522722154474525  0.518215253436721  0.554919532496987  0.529884389830522  0.521070866027761  0.497459567362465  0.494936301210692  0.489797931685489  0.481086445048824  0.489999999868064  0.490000000670785  0.489999999450513  0.479728212215414  0.505797036677246  0.527720976279111  0.618997319520653  0.733732799111141  0.848397731545078  0.955305622013242  1.02602786481763  0.78773169736786  0.824868227952894  0.488850246938332  0.488678763079542  0.488434137645299  1.36491178916826  1.38125055698608  1.38832977545055  1.38307914132913  1.36886482080669  1.346636807574  1.3230706216411  1.29563105017602  1.26527071246581  1.23157580192651  1.19633172447191  1.15907043058878  1.12147253894108  1.08216217158309  1.03006572579334  0.992965774997971  1.33198782919828  0.858697638889963  0.487815937999339  0.487833595590342  0.487831464718588  0.487898696184753  0.488000557693485  0.488097505297731  0.488209963909874  0.488315080911019  0.488442099432967  0.488558114655989  0.488680884486094  0.488821427930449  0.488921769580151  0.488654270347408  0.488807683180117  0.488924603463646  0.49000000036699  0.489999999946753  0.489999999825052  0.490000000292472  0.489999999683843  0.490000001610189  0.490000000509188  0.489999999027005  0.489999999948486  0.489999999929256  0.489999999910855  0.489999999893744  0.489999999878014  0.489999999863596  0.489999999727782  
0.471524766235552  0.471619095418795  0.47182294946746  0.472174837465783  0.472726540026714  0.473547851594642  0.474732697459189  0.47640762341424  0.47875025337036  0.482047639851542  0.485772594255184  0.498019990590283  0.514021574431473  0.532407492819119  0.549855523232821  0.563432694781985  0.56749966840358  0.567092917482193  0.56475866410044  0.561328874730819  0.557172751096672  0.55142005272191  0.544951612849284  0.525952225419557  0.522885689869185  0.519491478252461  0.51552408552884  0.511828305985691  0.530279887247882  0.518101749950726  0.510685804779153  0.494589133043057  0.491525829754654  0.489692955316822  0.4900000008634  0.489999999841715  0.48999999957346  0.490000000994874  0.489999999990669  0.499271707332852  0.489736079838637  0.574516638329284  0.657551711929031  0.755376835825588  0.851722565410553  0.914821881109374  0.724074119688759  0.757245006627675  0.48900829822326  0.488843787095787  0.488597996695557  0.488490923646364  0.488525273764453  1.26289568505262  1.26397294111608  1.260870783967  1.25118923557114  1.23653426429009  1.21046454299379  1.18792139904146  1.16043270716815  1.13118896702275  1.10012021964695  1.06735985448146  1.03460615077617  1.00095327490581  1.27484718035739  1.26626299667183  0.898395054759118  0.779612324285201  0.488014001185303  0.488026970211156  0.488082946328615  0.488162884548416  0.488259964763278  0.488344084620684  0.488444397407811  0.488555244629701  0.488681792752314  0.488792979745961  0.488682285125099  0.488784287536937  0.488590415407631  0.488822471642075  0.488975827915791  0.490000000038685  0.490000000218784  0.489999999757383  0.489999999996424  0.489999999268277  0.489999999870177  0.490000000395878  0.489999999729515  0.489999999615748  0.489999999558727  0.489999999519132  0.489999999494423  0.489999999481077  0.489999999476083  0.490000000584087  
0.472066710583785  0.471953554828612  0.471925241440661  0.472015427487416  0.47226933131437  0.472748006466247  0.473534597764947  0.474745260974566  0.476554688118572  0.479299277656066  0.481223344254885  0.491049793567334  0.506377581209216  0.524942604021796  0.546631411574864  0.564910216463031  0.562700422961895  0.559904249533161  0.54010985314328  0.552234236515995  0.547475423021475  0.54161476876274  0.536309222800793  0.518479576723178  0.515268065083288  0.512158262135064  0.508614849442995  0.505369238178756  0.502059205538466  0.505183444547193  0.502598260755195  0.493803392122449  0.490448297836053  0.489999999947714  0.489999999813558  0.490000000213914  0.489999999997859  0.489999999658458  0.490000000008453  0.490000000721008  0.489509595741587  0.525478414508645  0.602708168175322  0.689745502675455  0.773937926026399  0.826921419738064  0.699816132824518  0.726203758485056  0.489109803572461  0.488951569989602  0.488771708989246  0.488617512544972  0.488638872454681  0.488506169802608  0.488375987600649  0.488248844801053  0.488124366739994  0.488005910683174  0.488127236460471  0.488062124169897  1.05476914663601  1.03036987528187  1.00410359675863  0.975768766135384  0.9470269185819  1.19472738901992  1.17087247918316  1.14817829222375  0.866109211949214  0.754525129764938  0.488185311349636  0.488198290190644  0.488245681815046  0.48832785187153  0.488414644545229  0.488263950653444  0.488359313476182  0.488441904442053  0.488554746276419  0.488675570063725  0.488800576549309  0.488892103594347  0.488692796705235  0.488913021311903  0.48906332261808  0.489999999950418  0.489999999939246  0.490000000055993  0.490000000544311  0.489999999311175  0.490000000253902  0.490000000928224  0.490000000913415  0.489999999704473  0.490000000115212  0.490000000299725  0.490000000315719  0.489999999001864  0.489999998989256  0.489999999133393  
0.48999999991563  0.490000000921577  0.490000000810467  0.490000000684529  0.490000000544582  0.490000000395751  0.490000000252687  0.490000000149451  0.490000000155198  0.476669525708343  0.476861589011329  0.484986433157256  0.496924840882732  0.514325450963222  0.533854777758202  0.548000201582192  0.549880950615342  0.548867258380876  0.534974045218851  0.528708515505051  0.537161105344136  0.531443284957674  0.526877264091286  0.52149801973925  0.515396731829805  0.510025772370855  0.504860200314883  0.500768084664653  0.49705125601799  0.498500856005836  0.494207933289076  0.491034951145169  0.487153463437838  0.490000000183241  0.489999998920373  0.490000000127605  0.489999999745979  0.490000001032087  0.489999999983906  0.489999999779427  0.486335088404183  0.509563135016084  0.557445781067369  0.624674861068554  0.689690643778764  0.732634126723135  0.64081368508502  0.661661068747188  0.489276882395016  0.489124247123971  0.488957220622885  0.488800871001983  0.488816160087083  0.488691424225984  0.488565171796642  0.488441923642734  0.488317351904712  0.488198276497885  0.488083526082715  0.48797693002006  0.488114500619422  0.488162117342144  0.963696857039309  0.929978987809634  1.15387332566798  1.13776580700589  1.11668582980169  1.14661648690504  0.833647103599046  0.725917423149812  0.48818433509639  0.488182877160486  0.488223542291556  0.488288327627342  0.488332568603738  0.488409542068911  0.488502276288103  0.488596888262125  0.488705783196494  0.488815054275095  0.488937447201888  0.489007081311421  0.488809022394704  0.489022205126302  0.489158809091303  0.489999999853043  0.490000000329355  0.489999999513397  0.489999998616462  0.490000000288028  0.490000000119488  0.490000000472824  0.490000000365927  0.490000000378496  0.490000000613921  0.490000000352381  0.49000000009771  0.489999999160716  0.490000000988576  0.490000001258305  
0.490000000330717  0.489999999634585  0.489999999657403  0.489999999995961  0.490000000004318  0.490000000014192  0.490000000025275  0.490000000036941  0.490000000048107  0.474449825842152  0.473092050347524  0.480090384466582  0.487995269239103  0.50154613008752  0.516860198766302  0.528149310526456  0.533573033203524  0.535420348926014  0.526957776884201  0.522214382925647  0.51712399872803  0.511512645704237  0.517175829921353  0.512125643173336  0.506880687585848  0.502182822783479  0.497263678023897  0.493777627059517  0.491055888142794  0.486098433192902  0.483235881443344  0.48937743218328  0.48999999922273  0.490000000239953  0.490000000139384  0.489999999853987  0.489999999794234  0.490000000126641  0.490000000048313  0.490000000009168  0.490000000017051  0.496433984288095  0.56495521929237  0.635129552788855  0.696806710073153  0.726661377049979  0.651027844287837  0.666461339327014  0.489345771417173  0.489204849756385  0.489051907251553  0.488892945376384  0.48890168388874  0.48878710871497  0.488670064417934  0.488550026332467  0.488435187930562  0.488325810621282  0.48848077366474  0.488413203026636  0.488359070334651  0.488312937890099  0.490000000582311  0.489999999899232  0.489999999029864  0.489999999480859  1.09400206449543  1.07682244350956  1.05742278940507  0.756604065580954  0.67945308524949  0.488337422916912  0.488378264001272  0.488439289695714  0.488509745455197  0.488581489469409  0.488666774077766  0.488755488741645  0.488851573552887  0.488953322512257  0.489061843066266  0.489127985215339  0.488928624290362  0.4891333693601  0.489245852570241  0.490000000486297  0.489999999899093  0.490000000208589  0.490000000208125  0.490000000133089  0.490000000199358  0.490000000390657  0.490000000361561  0.490000001600967  0.489999999562639  0.490000001192128  0.490000000036434  0.489999999952531  0.489999999959298  0.490000000663655  
0.489999999330538  0.48999999973804  0.489999999758468  0.490000000875818  0.49000000068692  0.490000000587713  0.489999999651718  0.489999999749843  0.489999999832347  0.489999999926775  0.470122369098662  0.477204211750213  0.482547563679692  0.490401066114607  0.501993490881948  0.511986560741439  0.516928488233761  0.518816830044414  0.517601760757673  0.514630696617805  0.510516087393306  0.50595015379042  0.501748853198189  0.49758813168423  0.494233092984097  0.493833904915557  0.491039933806668  0.489233780953342  0.488431299526039  0.489999999447408  0.490000000384292  0.489999997834306  0.490000000290533  0.489999997962585  0.489999996621398  0.490000000227877  0.489999999680439  0.490000000182693  0.489999999125726  0.489999999645866  0.490000000412957  0.487292571706771  0.520769597474645  0.561620667333156  0.608271690620085  0.630511677105368  0.589846179472446  0.602384343154196  0.48953962606767  0.489412593134321  0.48925345834331  0.489092200108481  0.489089637049699  0.48898786526135  0.488866078453482  0.488750212555013  0.488640403276359  0.48875130593136  0.488679851602241  0.48862578805577  0.489999999118177  0.489999999119939  0.490000000835329  0.489999999905832  0.489999999881161  0.489999999157752  0.490000001110608  0.489999999975266  0.490000000584835  0.488486857363213  0.488489190313523  0.488517388362521  0.48855582347935  0.488612831582766  0.488674386747477  0.488740704750503  0.488814800048842  0.488895915800108  0.488985207969823  0.489080711462927  0.489160418835936  0.489203439731141  0.489044655449743  0.489239766915768  0.48932501133579  0.490000000187227  0.490000000090624  0.490000002311541  0.490000000595617  0.489999999601677  0.490000000109628  0.490000000461157  0.489999999673862  0.489999999294211  0.489999999523657  0.49000000038715  0.490000000483152  0.490000000319778  0.490000000083222  0.49000000105327  
0.489999999970284  0.49000000033675  0.490000000373544  0.49000000026747  0.489999999306826  0.490000000143514  0.490000000944477  0.489999999879887  0.490000000084606  0.490000000405835  0.473408644401751  0.477230360515256  0.480229762420643  0.484678388478957  0.49102064964256  0.499275327751139  0.505142923158296  0.50812794039136  0.509049179884574  0.507409045660473  0.504277957314465  0.500359274298742  0.496042116459424  0.492519003134776  0.489990036896849  0.48916513528797  0.489999999077222  0.489999999909218  0.489999996734201  0.489999998928921  0.489999997612252  0.489999999275951  0.490000001299596  0.490000000519389  0.489999999910309  0.490000000642569  0.490000000694952  0.489999998699759  0.490000002198641  0.490000000912911  0.489999999394163  0.503016928006603  0.521491549298101  0.545838254652999  0.544863421952006  0.561066947073765  0.542375115063383  0.550095935443699  0.489718762912442  0.489594832741918  0.489440343446698  0.489275631279959  0.489253947614342  0.489163384278039  0.489046582235383  0.489080883646452  0.489008118749789  0.488944508176826  0.49000000164929  0.489999998995109  0.489999999081536  0.489999999576411  0.489999999569875  0.489999999639535  0.490000000873992  0.490000000762751  0.489999998673101  0.490000000083272  0.490000000276747  0.489999999899759  0.488644836741649  0.488645168984119  0.488712922770336  0.488763228278415  0.488818667536553  0.488879602043777  0.488935152099827  0.488988244515812  0.489015708312222  0.489116032782578  0.489220693862476  0.489213194138854  0.489145489848859  0.489330669481715  0.48951346498554  0.489999999893883  0.48999999919873  0.490000001076124  0.490000000105974  0.489999999752514  0.490000000687291  0.490000000446097  0.490000001420836  0.490000001530604  0.490000000144995  0.490000000364217  0.490000000291211  0.489999999339799  0.489999999314892  0.490000000160988  
0.490000000025761  0.490000000019928  0.489999999985666  0.489999999407781  0.49000000005119  0.490000000133473  0.490000000640008  0.490000000442523  0.490000000241147  0.490000000388918  0.490000000355185  0.476466655392485  0.478724792384257  0.48189073151935  0.485984850156002  0.491180583644071  0.49665124598409  0.500150128363665  0.501909069133775  0.501175370985493  0.498805346793586  0.495327944686603  0.491287265147988  0.489229929309949  0.490000000283934  0.489999999208724  0.489999998886068  0.489999999530253  0.48999999939149  0.489999997736874  0.489999999213487  0.489999999297507  0.49000000122674  0.489999999934632  0.489999999985444  0.490000000420795  0.489999999622579  0.489999996893219  0.490000000677678  0.489999997972744  0.489999999876784  0.490000000422878  0.485255668380661  0.486410801080694  0.501644504925098  0.534918159022265  0.519027302112431  0.513071594569058  0.489862480043155  0.489748509216409  0.489582894423667  0.489400966982169  0.489430446751973  0.489372668079158  0.489294928059451  0.489217821479794  0.490000000635929  0.489999999546002  0.489999999528755  0.489999999511585  0.489999999604059  0.489999999976364  0.489999999466233  0.490000000552694  0.48999999864337  0.490000000140712  0.49000000022974  0.489999999364197  0.489999999554362  0.490000000533178  0.489999999267154  0.490000000272132  0.488814709053336  0.488808104567908  0.48882162172994  0.48888922396828  0.488963969528505  0.489044777746801  0.489132906494267  0.489226681217704  0.489322038817957  0.489310428486368  0.489238912276525  0.489413987498049  0.48958429794554  0.489999999781303  0.489999999904222  0.490000001992675  0.490000000788421  0.489999998939473  0.490000000388982  0.490000000505999  0.4899999997367  0.489999999454296  0.489999999228471  0.489999999930921  0.490000001151111  0.489999998775485  0.490000000438756  0.490000000346281  
0.49000000020764  0.489999999551242  0.48999999988488  0.49000000070504  0.490000002182555  0.489999998647959  0.489999999934054  0.489999999934629  0.489999999949509  0.490000000264287  0.490000000128815  0.473863687582794  0.478071115862663  0.480655935280349  0.483893852391231  0.487504434709427  0.491524836091679  0.494924090516979  0.496482286420752  0.496720087871576  0.495041076872566  0.492347551072988  0.489533435265149  0.490000000434221  0.489999999356842  0.489999997926568  0.489999999690058  0.49000000032491  0.490000001071341  0.489999999502367  0.49000000016322  0.490000003144584  0.490000000475876  0.490000000044755  0.489999999316836  0.489999998450313  0.490000003214094  0.490000000259445  0.489999999532786  0.490000000618531  0.490000001758587  0.490000000508071  0.489999998923537  0.490000000372476  0.490000000116645  0.489999999487582  0.490000000415261  0.490000000329247  0.490002141169903  0.489942159040421  0.489830737974495  0.489714846615758  0.489601819388826  0.489552447278557  0.489999999955418  0.48999999995014  0.489999999948757  0.489999999782129  0.490000000281635  0.490000000356879  0.489999999038829  0.489999999976736  0.490000000111014  0.490000000115991  0.489999999332459  0.489999999364493  0.490000000485922  0.49000000038178  0.490000000284692  0.490000000188723  0.490000000554118  0.490000001005569  0.490000000089153  0.490000000237487  0.489999999313256  0.490000000276444  0.490000000832465  0.489999999617943  0.489999999591424  0.489376452059817  0.489340383443713  0.489404034948353  0.489330575782948  0.489493773217961  0.489650139150705  0.490000000195819  0.490000001807848  0.490000000674316  0.490000000494491  0.490000000092396  0.490000000900677  0.490000000437693  0.49000000020886  0.489999999583993  0.48999999958564  0.48999999959557  0.490000000002915  0.490000000015779  0.49000000001716  0.490000001286137  
0.490000000020208  0.490000000177659  0.490000000141807  0.490000001009603  0.490000000649211  0.490000000377036  0.490000000208561  0.489999997915597  0.489999998798026  0.490000001190046  0.489999999899423  0.490000000259552  0.475796388404464  0.479951304719023  0.482935675512931  0.486158500679299  0.489533553141347  0.491939921181298  0.49311118421457  0.493121633504289  0.492463545805898  0.490863071060695  0.490000002260177  0.489999999116641  0.490000000292691  0.490000000505989  0.489999999783602  0.489999999495723  0.490000000100387  0.489999998948548  0.490000000203042  0.489999998794828  0.489999999014929  0.490000000051048  0.4899999992905  0.489999999576384  0.48999999952659  0.490000000914731  0.489999999854494  0.489999999341766  0.489999999439196  0.490000000238273  0.489999999177626  0.489999999254166  0.490000002000486  0.490000000415029  0.489999999901921  0.489999999101486  0.490000000721236  0.489997383961743  0.489924280089634  0.489825947599811  0.490000001759154  0.490000002534221  0.489999999370947  0.490000000064268  0.490000001245434  0.490000000090064  0.489999999495828  0.49000000005455  0.490000000066493  0.49000000071994  0.490000000769027  0.490000000308487  0.489999999514459  0.489999998367974  0.490000000237605  0.490000000930201  0.490000000704259  0.490000000574876  0.490000000437482  0.490000000235066  0.49000000085616  0.489999999750284  0.489999999974363  0.48999999974403  0.489999999948595  0.490000000309097  0.490000000295794  0.490000000282138  0.490000000267546  0.489999999984474  0.489684674007389  0.489556393169208  0.489699675601924  0.490000000328719  0.490000000944267  0.490000000493359  0.4899999988557  0.490000000327549  0.490000000525512  0.489999999587925  0.490000000004864  0.489999999976583  0.489999999920915  0.489999999869001  0.48999999982114  0.489999999777254  0.489999999737135  0.49000000015079  
0.489999999622208  0.489999999781828  0.489999999796837  0.489999999785917  0.489999999763795  0.489999999917196  0.490000000035075  0.49000000062946  0.490000000009175  0.490000000412309  0.490000000301784  0.489999999854875  0.489999999884253  0.479298454145285  0.490000000456571  0.485325658661242  0.488526886907776  0.490000000526101  0.489999999918598  0.490000000298198  0.49000000022314  0.490041364626634  0.489999999773644  0.49000000061291  0.489999999671704  0.48999999992863  0.490000000523921  0.489999999624663  0.48999999834694  0.48999999883515  0.490000002236884  0.489999999889144  0.4900000007849  0.489999998152947  0.490000000607694  0.490000000890462  0.490000001067932  0.49000000110182  0.489999999128475  0.489999999906337  0.49000000076881  0.490000000587133  0.489999998172737  0.490000000604859  0.489999999804161  0.49000000033102  0.490000000241211  0.489999999278708  0.489999999749737  0.490000000923744  0.490000001126005  0.489999999903202  0.490000001754803  0.49000000014008  0.489999998671461  0.490000000465089  0.489999999926961  0.489999999925872  0.490000000166097  0.490000000102871  0.490000000700051  0.489999999718656  0.489999999868482  0.489999999934713  0.48999999985386  0.490000000187268  0.490000000198978  0.490000002299504  0.490000000062368  0.490000000134179  0.489999999760912  0.490000000038056  0.49000000089607  0.489999999220806  0.49000000031858  0.490000000094831  0.489999999045759  0.489999999361598  0.48999999937605  0.489999999396256  0.48999999942362  0.490000000206363  0.489999999980085  0.489800614147773  0.489739481979745  0.490000000100446  0.489999999785221  0.490000000390673  0.489999999809025  0.490000000093386  0.490000000491378  0.490000000618831  0.490000000067557  0.489999999750704  0.489999999717151  0.489999999683548  0.48999999965048  0.489999999618463  0.489999999587911  0.490000000962872  
0.489999999812751  0.490000000256447  0.490000000243174  0.490000000195515  0.490000000191857  0.490000000029001  0.490000000334722  0.490000000391002  0.490000000383148  0.490000000218183  0.490000000152581  0.489999999768616  0.490000000250757  0.49000000012032  0.489999999101548  0.484067638705009  0.487070689633738  0.489999999715044  0.489999999066347  0.490000000136872  0.489999999241469  0.490000000438384  0.489999999424075  0.489999999729315  0.48999999953097  0.490000000326069  0.490000000054517  0.489999999893517  0.49000000026952  0.490000000262524  0.49000000219041  0.48999999909372  0.490000000682653  0.489999999496025  0.489999998290679  0.490000000245696  0.490000002538909  0.489999998168831  0.489999999375523  0.489999999141332  0.489999999361803  0.490000000017008  0.48999999895175  0.490000000623167  0.489999998912326  0.489999999146189  0.490000000864056  0.490000001174744  0.4900000001795  0.489999999552301  0.490000000322778  0.489999999461599  0.489999999164984  0.490000000493113  0.489999999954787  0.489999999918677  0.490000000079133  0.489999998976263  0.490000001105841  0.490000000087939  0.490000000157745  0.489999999440521  0.489999999703276  0.490000000580635  0.489999999834421  0.489999999308194  0.489999998078373  0.489999999383535  0.490000000028657  0.489999999317396  0.489999999384187  0.489999999682356  0.490000000053456  0.489999999974535  0.489999999894112  0.490000000666052  0.489999999723863  0.489999999116885  0.490000000808328  0.490000000089729  0.490000000070209  0.489999999981519  0.489999999085904  0.489999999381381  0.490000000056672  0.489999999611455  0.490000000646167  0.489999999828671  0.489999999890443  0.49000000005848  0.489999999997633  0.490000000352803  0.490000000785978  0.490000000999871  0.490000001099261  0.490000001186322  0.490000001263172  0.490000001331371  0.490000001392075  0.49000000120049  
0.489999999763476  0.489999999842697  0.489999999907545  0.490000000248297  0.490000000139583  0.490000000194673  0.490000000408124  0.489999999842153  0.489999999588309  0.489999999843282  0.490000000099038  0.490000000148162  0.489999999906269  0.489999999923703  0.490000000025264  0.482532518281206  0.484982832193227  0.490000000049269  0.490000000497863  0.490000000029215  0.4900000015725  0.489999999663614  0.489999999892875  0.489999997700718  0.489999999977017  0.490000001490013  0.489999998775119  0.489999998939137  0.489999998067903  0.489999999300664  0.490000001137215  0.490000003363938  0.48999999942022  0.490000000009188  0.490000001767129  0.48999999988769  0.489999997697936  0.489999999270695  0.490000001238239  0.489999999480684  0.489999999406178  0.490000000842672  0.489999999518625  0.490000000659792  0.490000000259545  0.489999999800876  0.489999998718965  0.490000000127812  0.489999999486432  0.490000000710393  0.490000000263636  0.489999999327932  0.489999997842822  0.489999998904532  0.490000000044848  0.489999999518729  0.490000000745813  0.490000000465904  0.490000000112263  0.489999999358042  0.489999999225659  0.49000000004102  0.490000000376102  0.489999999897113  0.490000000013166  0.490000000364052  0.490000000700432  0.490000001145066  0.490000001163132  0.489999998522877  0.490000000567557  0.490000000536916  0.490000000332074  0.489999999673916  0.490000001149237  0.489999999720452  0.489999999828751  0.490000000336201  0.489999999869835  0.490000000817906  0.49000000059326  0.489999999582901  0.4899999997713  0.490000000455004  0.490000000099591  0.490000000496534  0.489999999630873  0.489999999541153  0.490000000447221  0.490000000028773  0.490000000776995  0.490000000003101  0.490000000290106  0.489999999919389  0.489999999898355  0.489999999881077  0.489999999866855  0.489999999855059  0.489999999845169  0.490000000043889  
0.48999999994285  0.489999999534953  0.490000000146617  0.490000000076744  0.490000000064199  0.489999999814692  0.489999999406935  0.489999999986717  0.489999998525248  0.489999999712412  0.490000000376818  0.489999999913763  0.490000000434397  0.490000000077718  0.489999999908454  0.4820040139008  0.48394817399014  0.489999999958013  0.490000001059586  0.489999999589802  0.489999999717627  0.489999999816648  0.489999999862822  0.489999999857839  0.489999999801931  0.489999997893302  0.489999998957961  0.489999999745489  0.490000001040863  0.489999999329223  0.489999999699529  0.489999997686524  0.489999998393614  0.490000000514595  0.48999999841236  0.490000001383911  0.490000003808208  0.489999998963877  0.489999999114912  0.49000000028367  0.490000000039682  0.490000001073922  0.49000000066926  0.490000000547907  0.49000000145768  0.490000003107844  0.489999999692992  0.489999998938947  0.489999999986388  0.490000000073412  0.489999999077848  0.490000000983541  0.490000000427757  0.490000000013809  0.490000000743965  0.490000000940781  0.489999999626283  0.490000001086116  0.489999999939736  0.489999999588934  0.489999999983134  0.490000000355276  0.490000000492379  0.490000000046336  0.489999999749689  0.489999999142011  0.489999999076127  0.489999999713942  0.489999999728429  0.490000001120639  0.490000001189182  0.489999999734152  0.489999999978648  0.490000000007335  0.4900000012779  0.489999999618168  0.490000000033498  0.490000000395522  0.490000000146947  0.4900000008967  0.490000000849004  0.489999999971903  0.489999999676835  0.490000000203187  0.49000000027157  0.490000000779491  0.490000001417671  0.489999999189548  0.489999999866256  0.489999999637846  0.489999999882969  0.489999999792342  0.489999999522633  0.489999999412917  0.48999999936276  0.489999999318849  0.489999999280128  0.489999999245864  0.489999999951737  0.489999997952946  
0.490000000111097  0.489999999942331  0.489999999757688  0.490000000501011  0.490000000246435  0.489999999314925  0.490000000529362  0.489999999113489  0.48999999982579  0.489999996981943  0.489999999792099  0.490000000140505  0.490000000202568  0.490000000068761  0.490000000173645  0.48161265591599  0.483080409785785  0.490000000359794  0.490000001279749  0.490000000306589  0.490000002152805  0.489999999334167  0.489999998857511  0.489999999599188  0.490000000146126  0.490000000570925  0.489999999849058  0.489999999849422  0.490000000717667  0.490000000762203  0.489999999612369  0.490000002390245  0.49000000035909  0.490000000180175  0.490000000272437  0.489999998886348  0.489999998862157  0.490000001010562  0.48999999861713  0.489999999503901  0.490000000478891  0.489999999452538  0.489999999492462  0.489999999394945  0.489999997912585  0.489999999759778  0.489999999836926  0.48999999922673  0.489999998028978  0.489999998995547  0.49000000009355  0.489999998904047  0.490000000037912  0.490000000056111  0.489999999909998  0.490000000892176  0.490000000552877  0.490000000997551  0.489999999753821  0.490000000262634  0.490000001062494  0.489999997697501  0.490000000025816  0.490000002656537  0.490000001114311  0.489999999319977  0.489999999338552  0.489999999358923  0.490000000247272  0.490000000101255  0.490000000123761  0.49000000058665  0.490000000479978  0.490000000415202  0.489999999939881  0.490000000094369  0.49000000117998  0.490000000111365  0.490000000552428  0.490000000160405  0.49000000022429  0.490000000947635  0.490000000126777  0.490000000466125  0.489999999597719  0.490000000204706  0.490000001659322  0.490000000316276  0.490000000065047  0.490000000482153  0.489999998760712  0.489999999822281  0.489999999529455  0.489999999613411  0.489999999608395  0.489999999604885  0.49000000013665  0.490000000148356  0.490000000158331  0.489999999937927  
0.489999999837716  0.48999999991212  0.490000000810675  0.489999999927024  0.490000000274191  0.489999994014155  0.490000000024655  0.489999999998298  0.489999999696786  0.489999995514238  0.490000000090902  0.489999999662691  0.490000000469556  0.489999999864495  0.489999999927521  0.481437736013248  0.482529180792434  0.489999999879721  0.490000000449529  0.490000000272843  0.489999999592512  0.490000000193332  0.490000000355322  0.489999999201695  0.490000000421991  0.489999999015564  0.489999999694935  0.4900000008678  0.489999999516193  0.489999999922952  0.490000000219177  0.489999999797984  0.489999999501881  0.489999998009167  0.490000000689588  0.490000004571929  0.490000003181473  0.490000000503702  0.490000000200527  0.489999999196128  0.489999999573993  0.489999999488584  0.490000000250137  0.490000000235359  0.490000000834081  0.490000001227226  0.490000000777064  0.489999999116169  0.490000001192021  0.490000001745966  0.490000000836938  0.489999999641419  0.489999999900607  0.489999998047442  0.489999999947319  0.489999999758981  0.490000000152859  0.490000000230657  0.490000000596713  0.490000001049116  0.490000000838207  0.490000002405149  0.490000000746945  0.490000000632429  0.490000000550424  0.490000000745953  0.490000000087747  0.490000000101657  0.49000000012707  0.48999999978079  0.489999999708308  0.490000000198359  0.490000000227878  0.490000001679612  0.489999999372304  0.490000000093338  0.490000000045238  0.489999999433862  0.489999999965039  0.489999999765059  0.489999999492013  0.490000000054112  0.490000000577145  0.489999999431934  0.489999999736661  0.489999999561322  0.489999999621045  0.489999999169097  0.489999999687908  0.489999999586005  0.48999999931302  0.490000000666631  0.490000000671852  0.490000000654437  0.49000000062706  0.49000000059864  0.48999999993643  0.489999999964676  0.489999999940925  0.489999999465675  
0.489999999815859  0.490000000112679  0.490000000329279  0.489999999891129  0.49000000145487  0.489999998659117  0.490000000244803  0.490000000236026  0.489999998147558  0.490000000381687  0.489999999854579  0.490000000523482  0.490000000485362  0.489999999879469  0.48999999967685  0.48128982575358  0.482057870760463  0.490000000667071  0.490000001754032  0.48999999968297  0.490000001827815  0.490000000166014  0.489999999093165  0.490000001584638  0.490000000593996  0.490000001496355  0.490000001197933  0.489999999922211  0.489999999502036  0.489999999652475  0.489999999387377  0.489999999737213  0.489999999597905  0.490000000248349  0.489999999843877  0.489999996976386  0.489999999185955  0.490000001214245  0.489999999954531  0.489999999635239  0.489999996723788  0.490000001167746  0.489999998599523  0.490000000900677  0.49000000286609  0.49000000218658  0.490000000359544  0.48999999831172  0.489999998962592  0.490000001025165  0.489999999905271  0.48999999941673  0.489999998909404  0.489999999616425  0.489999999450962  0.490000000655789  0.490000000227915  0.4900000002122  0.490000000283904  0.489999999254446  0.489999999272376  0.489999999295106  0.489999999321362  0.489999999777471  0.489999999824973  0.490000000482148  0.489999999525584  0.489999999557299  0.489999999589342  0.490000000056486  0.490000000062518  0.489999999656439  0.489999999041874  0.48999999907141  0.489999999704223  0.490000000197772  0.489999999037783  0.489999999905631  0.489999999076367  0.490000000251954  0.489999999679731  0.489999999963523  0.490000001059444  0.490000000197776  0.490000000816672  0.489999999835651  0.489999999971455  0.489999999964948  0.490000000001147  0.489999999677849  0.490000000446955  0.490000000933005  0.48999999966777  0.490000000350188  0.490000001854339  0.489999999803698  0.489999999833913  0.490000000246671  0.490000000276886  0.490000000287227  
0.4900000003355  0.489999999873246  0.490000000019644  0.489999999887438  0.49000000071354  0.489999999755088  0.49000000009154  0.489999999920946  0.489999999914616  0.489999999821168  0.489999998154765  0.48999999936041  0.489999999954171  0.489999999947509  0.48999999981605  0.481438317345815  0.481953722729297  0.49000000046174  0.490000000745145  0.490000000689352  0.490000000297182  0.489999998822746  0.489999999635755  0.489999999573388  0.490000000424675  0.490000000395211  0.489999999434432  0.490000001519328  0.490000000027982  0.489999999030103  0.489999998539204  0.490000000656246  0.490000000535249  0.489999999514786  0.489999999337165  0.489999999968719  0.489999999190848  0.489999997846107  0.490000000038118  0.490000001816903  0.490000000812205  0.490000002093037  0.490000000197948  0.490000000049381  0.490000001760427  0.490000001431759  0.489999999604577  0.489999998618026  0.490000000802719  0.489999997264346  0.490000000255634  0.489999999192742  0.489999998932238  0.489999998932341  0.490000001585454  0.490000001893575  0.49000000035963  0.490000001806692  0.49000000169987  0.490000001598862  0.48999999970074  0.489999999721651  0.490000001015546  0.490000000066684  0.490000000078484  0.49000000008551  0.489999999272249  0.490000001191212  0.490000001098276  0.490000000745558  0.490000000690432  0.489999998926654  0.489999999117871  0.490000001312072  0.490000001180695  0.490000000075674  0.490000000835778  0.490000000167183  0.489999998648746  0.490000000027118  0.490000000447619  0.490000000045693  0.490000000264243  0.489999998552177  0.4900000000121  0.490000000085518  0.490000000237221  0.490000000073779  0.490000000696155  0.490000000376749  0.490000004038617  0.490000000097172  0.489999999785374  0.489999999834675  0.49000000002831  0.489999999923409  0.489999999656025  0.489999999853538  0.489999998437379  0.489999999027753  
0.490000000002235  0.490000000045984  0.490000000007958  0.49000000045625  0.490000000081894  0.490000000028065  0.490000000147866  0.490000000039237  0.490000000063451  0.490000000194268  0.489999999989148  0.489999998242013  0.489999999912595  0.489999997892115  0.490000000208929  0.481493395164473  0.481773568714233  0.490000000596232  0.490000001661753  0.490000000686909  0.489999999999594  0.490000000712838  0.489999999537946  0.489999999491743  0.489999999925526  0.49000000017894  0.489999998296921  0.489999999780213  0.489999999756223  0.48999999935786  0.490000000567179  0.489999998591761  0.490000000665502  0.489999999818963  0.490000000270509  0.489999999441127  0.490000000662322  0.490000000810443  0.489999999880327  0.489999999322557  0.490000000268035  0.490000000203307  0.490000000356974  0.489999998754324  0.49000000054905  0.490000000669459  0.489999999751571  0.490000001283456  0.490000001676058  0.490000000048821  0.489999999812385  0.489999999331434  0.489999999775565  0.490000000989183  0.490000000362555  0.49000000021214  0.489999998508677  0.489999998537255  0.489999998586947  0.489999998648447  0.489999998717092  0.489999998790304  0.489999998866544  0.489999998944829  0.489999999024489  0.489999999105042  0.489999999186116  0.489999999267401  0.48999999934862  0.489999999429506  0.489999999509774  0.490000000441193  0.490000000438385  0.490000000261991  0.490000001190721  0.490000001423175  0.48999999946929  0.489999999610254  0.490000001984742  0.490000000145355  0.490000000374126  0.490000000155211  0.489999999388472  0.489999999912525  0.490000000279453  0.490000000223265  0.489999999820746  0.489999999993438  0.490000000302663  0.489999999603396  0.490000000275162  0.490000000031639  0.490000000630237  0.49000000095766  0.490000000579389  0.490000000585969  0.490000000307868  0.490000000211567  0.490000000125716  0.490000000219963  
0.489999999874054  0.48999999524162  0.490000001435263  0.490000008766052  0.489999998776971  0.489999998832266  0.489999997862227  0.489999999657966  0.489999999688551  0.490000000018952  0.489999999961396  0.489999999593487  0.490000000185068  0.490000000987898  0.490000000254337  0.481568700908353  0.481634054452263  0.489999999510908  0.48999999985798  0.489999998927886  0.490000000514071  0.489999999838545  0.489999999498989  0.490000000159497  0.490000000356497  0.489999999749567  0.49000000051641  0.489999999533267  0.490000000643557  0.490000000787312  0.489999999827884  0.489999999934139  0.489999999811856  0.490000000317522  0.489999999170395  0.490000000023636  0.490000001531313  0.489999999921572  0.489999998150703  0.490000000681055  0.489999996678764  0.490000001428505  0.490000000629847  0.49000000109563  0.489999999939707  0.490000000401805  0.490000000167358  0.489999999678316  0.489999999566358  0.489999999574957  0.489999999676339  0.490000000678488  0.489999999273214  0.489999999868117  0.489999999974897  0.489999999792314  0.489999999799283  0.489999999811829  0.489999999828035  0.489999999846664  0.489999999866909  0.489999999888224  0.48999999991022  0.489999999932606  0.489999999955148  0.489999999977642  0.489999999999907  0.490000000021756  0.490000000042996  0.490000000063409  0.490000000082736  0.490000000100662  0.490000000116784  0.49000000013058  0.490000000141352  0.489999999409396  0.490000000455097  0.489999998769089  0.489999998833125  0.48999999894949  0.489999999155154  0.489999998670226  0.490000001116413  0.489999999724342  0.490000000336277  0.490000000488681  0.489999999896305  0.490000000140098  0.490000000110499  0.489999999957003  0.489999999997998  0.49000000032158  0.490000000275407  0.490000000252146  0.49000000046618  0.49000000000785  0.490000000257381  0.489999999983594  0.489999999985586  0.490000000046517  
0.490000000001982  0.490000000118778  0.489999999679601  0.489999999751486  0.4899999998003  0.489999999976325  0.489999999778332  0.48999999982066  0.489999999525758  0.489999999938248  0.489999999716585  0.489999997967277  0.490000000555337  0.490000000041382  0.489999999755016  0.481738530528164  0.481662197685984  0.490000000611586  0.490000002205514  0.490000001366674  0.489999999755303  0.48999999960747  0.490000001305262  0.490000000115595  0.490000000241461  0.489999999620973  0.489999997212307  0.490000000178123  0.48999999915524  0.48999999900533  0.490000000252591  0.490000000979348  0.490000000056025  0.490000000493675  0.490000000562687  0.490000000564857  0.490000000348716  0.490000000347727  0.490000001231607  0.489999999468812  0.490000000099135  0.489999999880254  0.489999998567695  0.49000000024906  0.489999999604992  0.489999998912596  0.489999999088885  0.489999999461488  0.490000000238839  0.490000000698013  0.489999999968496  0.489999999744303  0.490000000772652  0.489999999656543  0.490000000370517  0.489999999850117  0.489999999742399  0.489999999672194  0.489999999620625  0.490000000265326  0.490000000235873  0.490000000203605  0.49000000016922  0.490000000133218  0.490000000095964  0.490000000057732  0.490000000018731  0.489999999979122  0.489999999939024  0.48999999989852  0.489999999857652  0.489999999816403  0.489999999774664  0.489999999732145  0.489999999688202  0.489999999641407  0.489999999588482  0.489999999521316  0.489999999417758  0.489999999212171  0.489999998764262  0.490000001301056  0.489999999520792  0.48999999925464  0.489999999786573  0.489999999637947  0.490000000978772  0.490000000393342  0.490000000287956  0.490000000087526  0.490000000691315  0.489999999437049  0.489999999561749  0.489999999044572  0.489999995247688  0.489999994733401  0.489999999779848  0.490000003584035  0.48999999969  0.489999996689117  
0.49000001169181  0.490000004400705  0.490000004188143  0.49000000396462  0.489999999765217  0.490000000097125  0.490000000097525  0.48999999965028  0.489999999655791  0.490000000125076  0.490000000024628  0.489999999748062  0.490000001858911  0.490000000253038  0.489999999578752  0.481897616437664  0.481644413619926  0.490000000492716  0.490000001237187  0.490000000614972  0.49000000101204  0.489999999630649  0.489999999574673  0.490000000093037  0.490000001171686  0.49000000016932  0.489999999136528  0.490000000362314  0.489999999289082  0.490000000052828  0.490000001092132  0.489999999546197  0.49000000021787  0.490000000318308  0.489999999031571  0.490000000728173  0.490000000392937  0.489999998020228  0.489999998795708  0.490000000534271  0.48999999921442  0.490000000321408  0.490000000508751  0.490000002291194  0.490000000072329  0.490000000359069  0.490000000508304  0.490000000085183  0.490000000298945  0.490000001193334  0.490000000494092  0.489999998017633  0.489999999480962  0.490000000145815  0.490000000551836  0.489999999260411  0.489999999121528  0.489999999084824  0.490000000169183  0.490000000230432  0.49000000029322  0.490000000357162  0.490000000421899  0.490000000487106  0.490000000552482  0.49000000015702  0.490000000141086  0.490000000124561  0.490000000107669  0.490000000090617  0.490000000073612  0.490000000056876  0.490000000040665  0.489999999949358  0.489999999925165  0.489999999902803  0.489999999883107  0.489999999867396  0.48999999985799  0.489999999859305  0.489999999863089  0.490000000087315  0.489999999500062  0.490000000322792  0.490000001727941  0.489999999581744  0.490000000436938  0.490000000086501  0.4900000007667  0.489999999958119  0.490000001097152  0.490000000926235  0.490000000981906  0.49000000108814  0.490000000866049  0.4900000000885  0.490000000458524  0.490000000247618  0.490000000012128  0.489999999933214  
0.489999999997897  0.49000000000744  0.489999999994061  0.489999999992528  0.489999999991461  0.489999999992851  0.490000000011339  0.490000000014395  0.489999994814046  0.489999995203961  0.48999999993881  0.490000000092539  0.49000000026797  0.490000000204806  0.490000001455124  0.481846582671205  0.48999999815633  0.489999999522806  0.490000001767261  0.490000000678561  0.490000001338968  0.490000000181123  0.489999999718979  0.490000001005878  0.490000000269079  0.490000000072554  0.489999999419043  0.489999999782923  0.490000000120473  0.490000000681843  0.489999998864246  0.489999999489824  0.48999999937022  0.489999999341067  0.490000000006773  0.490000001922056  0.490000003412736  0.489999999775397  0.489999999967491  0.490000000484037  0.490000001409679  0.489999999784867  0.489999999877026  0.489999999427013  0.490000000084284  0.489999999571261  0.489999999346098  0.489999999909627  0.489999999572376  0.490000000869849  0.490000000321007  0.490000000445478  0.489999998422885  0.490000001583572  0.49000000135572  0.490000003624843  0.49000000067766  0.490000000791064  0.490000002296724  0.490000000132088  0.490000000159149  0.49000000014893  0.489999999706199  0.489999999696576  0.489999999687544  0.489999999679075  0.489999999671174  0.489999999663879  0.489999999657252  0.489999999651387  0.489999999646411  0.490000000051194  0.490000000039742  0.490000000025955  0.490000000009835  0.489999999991432  0.489999999971032  0.489999999949661  0.489999999930406  0.489999999921749  0.489999999946153  0.489999999836195  0.489999999719777  0.490000000419458  0.48999999782148  0.489999999751864  0.490000000869076  0.489999999399706  0.489999999880647  0.489999999332506  0.490000000183426  0.490000000127561  0.490000000010934  0.490000000080582  0.490000000246222  0.489999996902012  0.490000000023744  0.490000000019656  0.489999999910504  0.489999999853291  
