DSAA
100   100
-99.25   -98.85
19.2   19.6
0.248067355526775   4.58707070895108
0.49  0.49  0.489999999978419  0.489999999975228  0.489999999615895  0.490000000131018  0.490000000735259  0.489999999198994  0.489999999691231  0.489999998991965  0.4900000001259  0.490000000011323  0.490000000538218  0.490000000332244  0.489999997944198  0.490000000274266  0.490000002063577  0.489999999387506  0.489999999295176  0.489999999656141  0.489999999864229  0.489999999896145  0.489999999743773  0.489999999961872  0.490000000923591  0.489999999320925  0.489999999973642  0.490000000327104  0.48999999878105  0.489999999491561  0.489999999934653  0.489999998959989  0.49000000009837  0.490000000905959  0.490000000626442  0.489999999014796  0.490000000207761  0.490000000507499  0.490000000836469  0.489999998099052  0.490000000063587  0.489999998996969  0.489999999841338  0.490000001394587  0.490000001001539  0.489999999604284  0.489999999378316  0.489999999574911  0.490000000471089  0.490000001435944  0.490000002452854  0.489999998720198  0.489999999565916  0.490000003375708  0.490000001062138  0.489999999526763  0.489999997003361  0.489999998814828  0.490000000442521  0.489999999319958  0.489999999242287  0.489999999188426  0.490000000012074  0.489999999129999  0.490000001354806  0.490000000456714  0.490000000851472  0.490000000347397  0.489999999388228  0.490000000075003  0.489999999577876  0.490000000656119  0.490000000520211  0.48999999892831  0.490000000458863  0.489999999568428  0.489999999996968  0.490000000142316  0.489999999849807  0.490000000597105  0.490000000120237  0.489999999642849  0.490000000041378  0.489999998235219  0.489999999325044  0.489999999994965  0.490000001288314  0.489999999563947  0.489999999967981  0.490000000177687  0.490000000470815  0.490000000654889  0.49000000044428  0.490000000395848  0.49000000018911  0.489999999186263  0.490000000108947  0.490000000072793  0.490000000078915  0.489999998918478  
0.490000000043762  0.490000000104087  0.490000000169665  0.490000000240272  0.48999999974651  0.489999999732998  0.490000000019816  0.489999998708784  0.489999999828338  0.490000000137996  0.490000000260157  0.489999999519601  0.490000001458888  0.489999998570985  0.490000000377738  0.490000000155104  0.49000000004678  0.489999999521568  0.490000000322823  0.489999997966944  0.489999999781183  0.490000000391919  0.490000000241387  0.490000000127865  0.489999999855082  0.489999999638185  0.490000000090779  0.489999999976153  0.490000001388249  0.489999998880994  0.490000000276252  0.490000000955665  0.489999998041331  0.490000001000485  0.489999998854802  0.490000001474695  0.489999999942078  0.490000000059494  0.489999999947566  0.489999999991804  0.489999999848015  0.489999999765199  0.490000000441949  0.490000000387677  0.49000000014162  0.489999999927924  0.490000000479905  0.490000000072301  0.489999999671278  0.489999998568357  0.490000001314809  0.49000000093454  0.489999998896177  0.490000000400582  0.490000000324777  0.490000000159721  0.48999999883361  0.489999999318031  0.489999999671162  0.48999999998556  0.489999999905738  0.489999999727112  0.489999999273528  0.489999999176205  0.489999999713039  0.49000000073758  0.48999999977095  0.489999999938703  0.490000000247421  0.48999999914979  0.489999999762879  0.490000000876842  0.489999999971413  0.490000000344097  0.49000000121736  0.48999999947114  0.489999999615207  0.489999998425735  0.490000000653612  0.490000000440532  0.489999999932843  0.489999999228526  0.490000000837499  0.48999999927935  0.489999999185049  0.490000000623441  0.489999999741137  0.49000000032242  0.489999999433161  0.489999999488245  0.490000001104114  0.48999999944899  0.490000000320169  0.490000000095197  0.489999995245837  0.490000001032336  0.490000000060165  0.489999999795349  0.490000000601302  0.490000000751608  
0.4900000003505  0.489999999969215  0.489999999310788  0.489999999544866  0.490000000080145  0.489999999396455  0.489999999949875  0.490000001253404  0.490000001116437  0.490000001029717  0.489999999582269  0.490000000013414  0.490000000025791  0.490000000650549  0.489999998119938  0.490000000008907  0.489999999878818  0.490000000803409  0.490000000033068  0.490000000735606  0.489999999069623  0.490000001998596  0.490000000132418  0.489999999693194  0.489999999044686  0.490000001519923  0.489999999362328  0.490000000218121  0.489999998855714  0.489999999643242  0.489999999952095  0.489999998406978  0.490000000306963  0.489999998104978  0.489999999911257  0.490000000731324  0.489999999974183  0.490000000235317  0.490000000851307  0.490000000299448  0.489999999956621  0.489999999206985  0.490000000286131  0.490000000462862  0.489999997794337  0.489999998709128  0.490000000226111  0.489999999101585  0.489999998635148  0.489999999502947  0.490000000232033  0.489999999513698  0.490000001773017  0.489999999492062  0.489999999617072  0.489999999175532  0.48999999811546  0.490000000835826  0.489999999841726  0.490000000645371  0.490000000260777  0.489999999486753  0.490000000878046  0.490000000038817  0.489999999922248  0.489999999426602  0.490000001263201  0.490000000105281  0.489999999294919  0.490000001262877  0.489999998167403  0.489999999411837  0.489999998746725  0.490000001089528  0.490000001344441  0.49000000114979  0.489999998962324  0.489999999327805  0.489999999217748  0.490000000555164  0.489999999895338  0.490000000008412  0.490000000117422  0.489999999080604  0.490000000775214  0.490000000548338  0.490000000354865  0.490000001477292  0.489999998865213  0.490000000882025  0.490000000573699  0.490000000352903  0.489999999231398  0.489999999752062  0.489999999959859  0.49000000036917  0.489999998954501  0.490000000084069  0.490000000266467  0.49000000215461  
0.489999999728367  0.49000000045311  0.490000000303673  0.490000000087021  0.490000000847598  0.490000000849732  0.489999999833438  0.489999999802732  0.489999999531686  0.490000001172241  0.489999999281898  0.490000000157197  0.489999998739579  0.489999999472844  0.490000001776826  0.489999999682837  0.48999999958774  0.489999999742701  0.489999999655931  0.489999999530386  0.489999999926475  0.490000000607257  0.490000000923866  0.490000000888394  0.490000000654696  0.490000001881019  0.490000000531236  0.490000000414024  0.490000000604623  0.490000000035126  0.489999999896152  0.489999999764575  0.490000002025862  0.49000000075186  0.489999999822266  0.49000000095559  0.489999999420205  0.490000000333149  0.490000001201773  0.490000000838998  0.489999999999163  0.490000000160583  0.490000001246937  0.490000000466357  0.489999999815099  0.490000000444678  0.490000000591183  0.489999999636404  0.489999999869315  0.490000000914597  0.490000000806191  0.490000000014257  0.490000000383362  0.490000000660143  0.490000001466437  0.4899999989126  0.490000001024936  0.489999999916653  0.490000000337252  0.490000000516723  0.48999999943062  0.489999999228098  0.490000000712989  0.489999999126297  0.489999999171197  0.490206716096427  0.490114395265895  0.49003250240015  0.496116474884354  0.489999998031303  0.48999999846054  0.490000000250854  0.490000001194445  0.490000000382166  0.489999999730713  0.49000000023065  0.489999999280101  0.489999999869021  0.48999999955621  0.490000000063658  0.490000000138717  0.490000000618927  0.48999999977438  0.489999999974619  0.489999999841997  0.48999999923448  0.490000000288148  0.490000000404819  0.489999999391843  0.489999998564657  0.490000000283572  0.489999999995526  0.490000000275269  0.489999998859501  0.489999999850505  0.489999999402128  0.489999999608881  0.489999998993307  0.490000000894165  0.4900000008646  
0.489999996632774  0.489999999685147  0.489999998655999  0.489999998642382  0.489999999946325  0.489999999880372  0.489999999810463  0.489999998593913  0.489999998546952  0.489999998715989  0.490000000188054  0.49000000047172  0.489999999796651  0.490000000662469  0.489999999351839  0.489999995200018  0.490000001333436  0.490000000567934  0.490000000322643  0.490000000039715  0.48999999867213  0.490000000184602  0.490000003157575  0.490000001137081  0.490000000275294  0.489999999090117  0.489999999568572  0.490000000746991  0.489999999746493  0.490000000215474  0.490000000288523  0.489999999742702  0.48999999998486  0.489999999801067  0.489999999922403  0.490000001364439  0.489999999904751  0.489999999906905  0.490000000054784  0.49000000019982  0.490000000201649  0.49000000082285  0.489999998803326  0.490000001507286  0.489999999212331  0.49000000031584  0.489999999522188  0.489999999017634  0.489999998864922  0.489999999345825  0.490000001422821  0.490000001220189  0.489999999974799  0.490000000389409  0.489999999364881  0.489999999585718  0.489999998679037  0.48999999962103  0.489999999428853  0.489999999799269  0.490000000667135  0.489999999513948  0.490000001050422  0.490000001780422  0.490275356159755  0.490088690361774  0.490036198839922  0.489964613484956  0.510681136138556  0.521670327149275  0.490000000114634  0.489999999481177  0.49000000086276  0.489999999128162  0.489999999366815  0.489999999895142  0.489999999941183  0.490000000111483  0.489999999902769  0.490000000025653  0.490000000116534  0.49000000017221  0.490000000151442  0.489999999216624  0.490000000968004  0.489999999696231  0.489999999989821  0.489999999500794  0.490000000545569  0.489999999909004  0.490000000449741  0.490000000535763  0.489999998814906  0.489999998862466  0.489999998898714  0.490000000231724  0.489999998811681  0.490000000135464  0.490000000223186  0.490000000211934  
0.490000000186509  0.489999997884735  0.490000000185111  0.490000000158014  0.490000000128624  0.490000000182854  0.490000000215348  0.490000000249568  0.48999999893361  0.489999998056004  0.489999998359247  0.48999999979002  0.489999999071212  0.489999999040949  0.490000001992744  0.489999998798466  0.490000001012204  0.489999999667178  0.490000002300271  0.489999999825002  0.490000000226359  0.489999999206957  0.489999999636042  0.490000000469671  0.489999999704073  0.489999999637268  0.489999998649531  0.490000000322988  0.48999999981362  0.489999999350589  0.489999999419945  0.490000000049475  0.490000000030427  0.490000000596114  0.490000000114295  0.490000000569302  0.490000000307893  0.490000000540503  0.489999999964258  0.48999999977435  0.489999999448435  0.489999999745261  0.49000000132616  0.490000000795365  0.490000000262753  0.489999999664204  0.489999999760262  0.490000000916815  0.490000000451656  0.48999999929553  0.490000000503975  0.490000000299131  0.490000000301472  0.490000000289842  0.489999999483329  0.489999999603811  0.490000000675677  0.490000000127842  0.49000000001671  0.489999999439436  0.489999999687077  0.49075999829005  0.490586850060713  0.490397415820192  0.490187544963174  0.489987134088296  0.489921890841487  0.489851369834334  0.529648573580472  0.544026168438885  0.563760420754467  0.570990199317797  0.490000000962521  0.490000000475769  0.490000000117203  0.490000000231215  0.490000000172125  0.489999999507758  0.489999999448423  0.48999999990767  0.490000000226261  0.490000000691604  0.48999999968913  0.490000000180969  0.490000001126649  0.490000000189467  0.48999999959201  0.489999999191584  0.490000000234469  0.490000000899999  0.490000000324289  0.490000000071514  0.490000001211469  0.489999999582469  0.489999999406711  0.48999999936761  0.490000000412374  0.49000000071543  0.490000000708568  0.489999999773179  
0.490000000173119  0.489999998512015  0.489999998557897  0.489999998606933  0.490000000765017  0.490000000798149  0.490000000391658  0.490000000358826  0.490000000322385  0.489999999834101  0.490000000975784  0.489999999667542  0.489999998552285  0.489999999038118  0.489999999919406  0.490000000252259  0.490000000631678  0.490000000228492  0.489999999661979  0.489999997655013  0.490000000295137  0.490000000097378  0.489999999112527  0.489999999960305  0.489999999249168  0.490000000409449  0.490000000482261  0.490000001231685  0.490000000920579  0.489999999015081  0.490000000052327  0.490000000946234  0.490000001021903  0.490000000649145  0.490000000034134  0.490000000664112  0.490000000903579  0.489999999995176  0.489999999306817  0.48999999976915  0.490000001177646  0.489999999245151  0.489999999819407  0.490000000955777  0.489999999538501  0.489999998967204  0.489999999521194  0.489999999531785  0.489999999938826  0.490000000095191  0.490000001833389  0.490000000448696  0.490000000363094  0.490000001364552  0.490000000763926  0.489999999979646  0.489999998722366  0.489999999526466  0.489999999708224  0.489999999203092  0.490834443872276  0.490698121682081  0.490517946482327  0.490330481967605  0.490141742132513  0.489972508793716  0.48980840747062  0.489676293052563  0.552468142448033  0.570093043401755  0.614455445576542  0.606274796548679  0.490000000050324  0.490000000789195  0.490000000657472  0.490000000789554  0.490000000078359  0.490000000065135  0.490000000192983  0.48999999989077  0.489999999868906  0.490000000304076  0.489999999218265  0.49000000093797  0.490000000916673  0.490000000282782  0.489999999753385  0.489999999861615  0.49000000117017  0.490000000110856  0.489999999968555  0.489999998727688  0.490000000598709  0.490000000454071  0.49000000038418  0.490000000213595  0.490000000161864  0.490000000110286  0.490000001023717  0.489999999539913  
0.490000000400425  0.490000001909041  0.490000001891393  0.490000001872207  0.490000001850871  0.490000000417216  0.490000000421379  0.490000001818747  0.490000001812755  0.489999999923168  0.490000000449878  0.490000000227487  0.49000000054697  0.489999999605641  0.48999999830405  0.489999999880609  0.489999999903841  0.489999999977215  0.489999999276114  0.489999998199038  0.490000005316891  0.48999999995043  0.490000000027807  0.490000001559676  0.490000000170201  0.48999999984039  0.49000000224694  0.48999999958241  0.490000000725333  0.490000000309963  0.490000000111912  0.489999999140383  0.490000001069165  0.49000000000195  0.489999999967114  0.490000000352405  0.490000000403283  0.490000000200167  0.490000000272164  0.490000000303008  0.490000000018482  0.490000002435191  0.49000000166729  0.489999998907906  0.489999999934579  0.490000000535675  0.489999999870755  0.489999999001905  0.490000000250079  0.489999999640178  0.489999999054087  0.489999999342013  0.489999999989151  0.489999999628801  0.490000001449777  0.490000000258455  0.489999999984193  0.490000000513488  0.490000000447188  0.490893174012905  0.490767631482868  0.490615612038666  0.490425856755077  0.490230906106862  0.490045296193727  0.489837033681402  0.489643527781989  0.489482830709174  0.596051228474563  0.6206557262195  0.660074727379394  0.645827984590216  0.490000000808277  0.49000000123584  0.489999999266922  0.490000000435346  0.490000000964082  0.489999999982928  0.661887559023189  0.653556386151394  0.642655602770351  0.489999999616231  0.490000001016073  0.489999999914035  0.489999999621236  0.489999999216054  0.489999999365728  0.490000000540187  0.490000000912045  0.489999999756616  0.489999997428435  0.489999998930136  0.489999999616697  0.490000001044251  0.490000001146972  0.490000001257181  0.490000001353926  0.490000001430889  0.490000001488434  0.490000001529561  
0.490000000120567  0.489999999894382  0.489999999933768  0.490000000087388  0.490000000107592  0.490000000129155  0.490000000152146  0.490000000138291  0.490000000134505  0.489999999206845  0.490000000192367  0.490000001237541  0.490000000493199  0.49000000025151  0.490000001211711  0.489999999535654  0.48999999940632  0.490000000306073  0.489999999815844  0.489999998248142  0.489999997133419  0.489999999423598  0.490000000556731  0.49000000039867  0.489999999467514  0.489999999854423  0.489999998931576  0.490000001894799  0.489999999766113  0.490000000752352  0.489999999932568  0.489999999724033  0.489999999451752  0.489999999167486  0.490000000234062  0.49000000115179  0.489999999679435  0.489999999991166  0.490000001211941  0.48999999994972  0.489999999467298  0.48999999914244  0.489999999339846  0.490000000675417  0.489999999798133  0.489999999492909  0.490000000152736  0.489999999275236  0.48999999956513  0.490000000570129  0.490000001030284  0.490000000159893  0.490000000288103  0.490000000462458  0.489999999269511  0.490000000151237  0.49000000011711  0.490968661937732  0.490901451315168  0.490815726442078  0.490683013538334  0.490502704697844  0.490290387878588  0.490068592340396  0.489834364285292  0.489606796705436  0.489413914306932  0.489250531624146  0.628341252114332  0.656035356790699  0.725276315362597  0.685826907604631  0.489999999621394  0.490000000955281  0.490000001290177  0.711212299874217  0.657512075805533  0.656845507820885  0.653752943018176  0.648505251910206  0.615883541946913  0.49000000023183  0.490000000260957  0.490000000211983  0.489999999951193  0.490000000464538  0.489999998426142  0.490000001247269  0.490000000602484  0.490000000988524  0.490000000190521  0.490000000812887  0.49000000098502  0.490000001151638  0.49000000127806  0.490000001366913  0.490000001414894  0.490000001427217  0.489999998641711  0.489999998617714  
0.490000000844882  0.489999999742774  0.489999999079785  0.490000000023064  0.489999999740485  0.489999999755494  0.489999999772234  0.489999999790956  0.490000000050854  0.49000000025554  0.490000000551989  0.489999999680857  0.490000000117325  0.489999999013141  0.490000001092947  0.489999998327376  0.490000001356862  0.489999999387786  0.490000000730401  0.490000000280618  0.48999999830664  0.490000000269871  0.490000000628192  0.490000001147891  0.490000000005118  0.490000000484476  0.48999999969244  0.489999999416555  0.490000000271331  0.489999998488167  0.4899999999659  0.489999999310736  0.490000001198786  0.490000000213212  0.490000000199472  0.490000000127533  0.489999999626855  0.48999999961481  0.489999999415124  0.490000000246695  0.489999999783054  0.489999999034686  0.490000000917333  0.489999998709087  0.489999999992117  0.490000000063261  0.489999999638651  0.489999999871484  0.489999999688519  0.489999999044271  0.49000000051504  0.489999999243062  0.490000000365876  0.489999999889535  0.490000000635884  0.4900000001801  0.490926588930489  0.490887738067046  0.490816227380413  0.490740680313909  0.490573602527414  0.490358582055605  0.490109027813651  0.489851403679262  0.48956001959103  0.489317965225275  0.489134991099878  0.488971748259145  0.662629150532082  0.694971260115809  0.778435209189608  0.695904340591582  0.488858857299853  0.488491458522091  0.488505198471646  0.686291191433926  0.689574002556289  0.688404770610225  0.684779422965077  0.731396145822306  0.640375827370812  0.490000000901855  0.490000000122046  0.489999998985145  0.490000000755632  0.490000000152805  0.489999999819189  0.490000000012109  0.489999999107726  0.490000000341359  0.489999999497398  0.489999999645153  0.4899999991864  0.490000000046234  0.49000000013506  0.490000000176652  0.490000000196235  0.490000000203184  0.490000000202236  0.490000000196279  
0.489999998454087  0.490000000100483  0.490000000101605  0.490000000102628  0.490000000407949  0.489999999307556  0.489999999984072  0.489999999943882  0.489999999903201  0.489999999498357  0.489999998054388  0.489999999434868  0.490000000264081  0.490000000980568  0.489999999749789  0.490000002356687  0.489999998702231  0.489999999419311  0.489999999631146  0.489999999209729  0.490000001572817  0.490000000608679  0.490000000149971  0.49000000189728  0.489999999273872  0.489999999530256  0.490000000631442  0.490000000358311  0.489999999455412  0.490000000739752  0.490000000667005  0.490000000171006  0.490000000321902  0.489999999949124  0.490000000540931  0.490000000272031  0.489999999561456  0.489999999921238  0.489999999902362  0.490000000593036  0.490000000261112  0.490000001548514  0.489999999436801  0.489999999960421  0.489999996252431  0.489999999698805  0.489999999260056  0.490000000087668  0.490000000351629  0.48999999973244  0.490000000352477  0.490000000175857  0.490000000812493  0.489999998820867  0.489999999671239  0.490000000551467  0.490853836751522  0.490808130807427  0.490714451924845  0.490613372804682  0.490412325287308  0.490162203188752  0.48987714165143  0.489546935276061  0.48922259265667  0.488975540880707  0.488807604507434  0.488645774035462  0.700940774180888  0.727523315865531  0.784736775065774  0.631072630945219  0.488636889953331  0.488666548345722  0.48872921719102  0.720693972265308  0.724677345666408  0.722528228953101  0.783429109995668  0.721686580022016  0.667049047350365  0.489999999835325  0.489999999788499  0.489999999166494  0.489999999125559  0.489999999389673  0.49000000032404  0.490000000162745  0.490000000824521  0.490000000295127  0.489999999713095  0.490000000465071  0.489999999864463  0.490000000334491  0.490000000439073  0.490000000518031  0.490000000552958  0.490000000557951  0.490000000546833  0.49000000052768  
0.490000003721804  0.489999999966692  0.490000000131185  0.490000000137284  0.490000000143726  0.490000000150532  0.489999999482166  0.490000000762856  0.490000001883386  0.490000001922917  0.489999999981613  0.489999999789184  0.490000000451482  0.489999999354773  0.489999999611903  0.490000001584056  0.489999999222519  0.490000000561572  0.490000000998929  0.490000000231648  0.490000000804612  0.48999999977907  0.489999998390213  0.49000000302923  0.489999999412747  0.490000000140145  0.490000000755279  0.489999999510256  0.49000000028663  0.489999999361565  0.489999998805301  0.490000000124705  0.490000000047205  0.490000000788088  0.49000000025672  0.489999999280862  0.48999999989721  0.489999999963451  0.490000000137985  0.489999998505325  0.49000000025039  0.49000000005352  0.489999999882576  0.490000000844962  0.489999999828379  0.489999998697539  0.490000000233824  0.489999999673691  0.490000000774393  0.489999999949201  0.489999999927742  0.489999999873666  0.490000000055163  0.489999999181251  0.489999999872976  0.490705551949955  0.490705604371752  0.490649388886401  0.490543938387988  0.49039731473085  0.490192702156715  0.489887648585536  0.489521343246157  0.489165813148009  0.488826497804937  0.488577759724101  0.488425663599383  0.488292150678383  0.730636356318474  0.769048160787765  0.837715167538065  0.657591317292844  0.488429032412735  0.48849440243193  0.682258820810274  0.681577376495982  0.679342640231547  0.749207061065546  0.752137117219375  0.766831671527154  0.736055654357386  0.489999999775659  0.489999999922742  0.490000000585941  0.489999999222702  0.490000000538066  0.489999999649293  0.48999999815038  0.489999999530895  0.489999999628377  0.490000000755606  0.489999999172614  0.490000000165233  0.489999999706587  0.489999999805014  0.489999999839745  0.489999999860641  0.489999999876079  0.489999999888546  0.489999999899093  
0.490000000319702  0.490000000248849  0.490000000259643  0.490000000457867  0.489999999725724  0.489999999693357  0.489999999658075  0.489999999619539  0.490000000467193  0.489999999817222  0.489999999754429  0.489999999648995  0.490000001792362  0.490000000549983  0.489999999076623  0.490000000275156  0.489999999883797  0.490000000999587  0.490000002320939  0.489999999800271  0.490000001210711  0.490000000007061  0.490000001792556  0.489999998141213  0.490000000461434  0.490000001380004  0.490000001780482  0.490000000283378  0.490000001110108  0.49000000007595  0.489999998996143  0.489999998865508  0.489999999254879  0.490000000213215  0.489999999095946  0.490000000633201  0.490000001059448  0.489999998663886  0.490000000341093  0.489999999885987  0.489999999460002  0.490000000382948  0.489999999281575  0.48999999975111  0.490000001773059  0.490000000584889  0.49000000018669  0.489999999961045  0.48992989342902  0.489957872995761  0.49000000064406  0.489999999894525  0.490000000773006  0.489999999923724  0.490000000303655  0.490508029112478  0.490498650134264  0.490426341998433  0.490299249630631  0.490099576781288  0.489813846171191  0.489462348907527  0.489072504168162  0.488704064500144  0.488365612937184  0.488125493308203  0.487780668572998  0.487550922103617  0.768951152204115  0.813319865594518  0.892671778593676  0.689051149640319  0.488170545995483  0.488255714239818  0.712429709163479  0.713689752633841  0.70988780232375  0.813033243260824  0.79605530335728  0.798578946747055  0.759505550339187  0.489999999685835  0.490000000243599  0.489999999636175  0.489999999287345  0.490000000293711  0.490000000033246  0.490000002013517  0.490000000121573  0.489999998890608  0.489999999541421  0.489999999553745  0.489999998203264  0.48999999794684  0.489999997993664  0.489999998080682  0.489999998153377  0.489999998209323  0.489999998249864  0.48999999827714  
0.489999999871218  0.490000000349167  0.490000001618935  0.490000000794039  0.490000000828007  0.490000000863272  0.489999999499818  0.490000000921894  0.49000000099951  0.490000001592318  0.4900000005731  0.490000000107169  0.490000000136109  0.490000000750523  0.490000001231975  0.490000000405184  0.489999998413711  0.489999999990391  0.490000000996659  0.489999996494088  0.490000000133288  0.490000000363501  0.490000001655337  0.48999999998005  0.490000001553577  0.490000001355316  0.490000001713666  0.489999999581017  0.489999997190553  0.490000001498663  0.489999999055818  0.489999998872274  0.48420788780378  0.488309301375264  0.490494819144125  0.497071103478668  0.489693022911138  0.48957370228742  0.489468575583141  0.489380651945174  0.489307050673368  0.489205331024554  0.489388481746204  0.490000000246886  0.489999999903873  0.48999999957366  0.489999999318173  0.489793263286284  0.489665684801777  0.489661535189329  0.489764184677681  0.489909066002891  0.49001013351312  0.490055347997128  0.490201555689758  0.490312956685774  0.490224261360514  0.490089290423603  0.489908966054594  0.489624561516048  0.489263949147634  0.488914817029453  0.488530405234658  0.488167195525908  0.487820524562924  0.487523176599818  0.48727074924603  0.487049483320757  0.807550734146511  0.862048951425245  0.954562167788331  0.722795213761358  0.487945569886353  0.743743301883112  0.746750896691331  0.746001791941676  0.870475718210086  0.853241861639569  0.837847076621667  0.829290410096177  0.786134984103943  0.490000000349512  0.489999999647295  0.490000000334315  0.490000000469791  0.489999999791818  0.489999999551578  0.489999999933098  0.490000001324176  0.489999999927362  0.490000000046631  0.489999998893759  0.489999999601688  0.489999999642868  0.489999999390491  0.489999999395873  0.489999999446747  0.489999999502197  0.48999999955397  0.489999999600636  
0.489999999457844  0.489999999454995  0.489999999732243  0.489999999731536  0.489999999426476  0.489999999421748  0.489999998168546  0.489999998039976  0.489999999656866  0.48999999753535  0.490000000452477  0.489999998487819  0.489999999838201  0.489999998108478  0.490000000898714  0.490000001099868  0.490000001665111  0.48999999985677  0.490000000461375  0.489999998230212  0.490000001939464  0.490000000706933  0.489999999941884  0.489999999662004  0.489999999771522  0.490000002851996  0.49000000090315  0.489999999110985  0.490000001462731  0.48999999947856  0.48999999950788  0.490000000591127  0.489104786431005  0.495576926628027  0.505712567065653  0.508941278326295  0.489491859135795  0.489294868891659  0.489105152962328  0.488954970277877  0.488810011536761  0.489064236895557  0.489129309708018  0.489128422030566  0.489155957163016  0.489205161889222  0.489239885351141  0.489175688774061  0.489137929464139  0.489128795386929  0.489219997188185  0.489308966903172  0.48944745404652  0.489627430798406  0.489912317994668  0.489893664348538  0.489722244976665  0.489507388589547  0.489254103809691  0.488969727295567  0.488571749479544  0.488221356204309  0.48787648132953  0.487571563994487  0.48725604603575  0.487024956714805  0.48680639840732  0.486614579112108  0.849130197768243  0.904017747349267  1.01086789347928  0.760342672472436  0.487644725326787  0.783155937766643  0.786707493208744  0.886569678553209  0.907444936873205  0.89686513133689  0.875581855298401  0.859018574108406  0.811464372520309  0.490000000412065  0.490000000362592  0.489999999654847  0.489999999927768  0.490000001245297  0.489999999680378  0.489999998526924  0.489999998838918  0.489999999301179  0.489999999000227  0.48999999958174  0.489999998701513  0.490000000782694  0.490000000970171  0.490000001091733  0.490000001168097  0.490000001206596  0.490000001213761  0.490000001196168  
0.489999999976196  0.490000000054892  0.490000000066378  0.490000000078508  0.49000000009131  0.490000000104813  0.489999999984804  0.489999999919755  0.489999999844694  0.490000000849723  0.490000000549349  0.489999999548341  0.4899999997848  0.489999999508527  0.489999999373229  0.489999998944472  0.490000001831045  0.490000000079922  0.490000000947569  0.489999999593391  0.490000000176031  0.490000000226789  0.490000000333752  0.48999999803869  0.489999999153223  0.490000002949775  0.490000000657661  0.48999999796991  0.490000001224503  0.490000000569147  0.489999999793616  0.489322758725566  0.492639690444463  0.508762119329078  0.528454748403712  0.541194663423217  0.489204444372244  0.488963085011472  0.488723809883545  0.488557837133606  0.488361274714283  0.488727980457891  0.488661877684923  0.488601140200651  0.4885675359777  0.488513451705292  0.488514591368353  0.488440955756877  0.488465901624719  0.488448729623544  0.48852668169141  0.488640991681629  0.488735741102842  0.488964617066273  0.489070836955789  0.489070883851704  0.488933098323664  0.488721625643892  0.488470363738407  0.488218779954699  0.487814520537279  0.487487145891034  0.487167597278409  0.486892923609545  0.486584376403677  0.486368928108176  0.486184393578868  0.486019948090493  0.881058605160916  0.944398403977198  1.06616673798373  0.802054998597209  0.48732161305326  0.828508851741467  0.830185000585162  0.965760038809386  0.946101273935092  0.946174835512514  0.914365492584125  0.884714514283298  0.490000000099689  0.490000000412632  0.489999999076304  0.49000000076123  0.489999998614175  0.489999999762648  0.490000001023115  0.489999999531527  0.490000001498846  0.489999999692976  0.489999999043041  0.489999998503197  0.490000000081333  0.489999999065556  0.49000000003494  0.490000000611463  0.49000000093775  0.49000000111545  0.49000000120706  0.490000001249835  
0.489999999701936  0.489999999940706  0.489999999940432  0.489999999940133  0.489999999939806  0.489999999939446  0.48999999993905  0.489999999938614  0.489999999938132  0.490000002168046  0.49000000066491  0.48999999993945  0.490000000075071  0.490000002916332  0.489999999597373  0.490000000530537  0.490000000016291  0.489999999988502  0.489999998222072  0.490000002820326  0.490000001686287  0.490000001647728  0.489999998158586  0.490000001473968  0.490000000638221  0.489999999845606  0.490000000150309  0.490000000027688  0.490000000174171  0.454196683064193  0.4793736751832  0.490463813939077  0.498548583340489  0.531221459958709  0.634645228096837  0.659803758729811  0.633870431897545  0.634505655194576  0.631132253772405  0.620602148903064  0.607588089701349  0.595655214736255  0.585747884714151  0.55451311702361  0.538640240641045  0.521908901007971  0.487706623118922  0.487634762605924  0.487687694286795  0.487663174892211  0.487739951183485  0.487843212939224  0.487982765320307  0.488127963009455  0.488120167696115  0.488108545559407  0.488007245757227  0.48782460821196  0.48759761549402  0.487392956154499  0.487005716967317  0.486692384741846  0.486400418290004  0.486162759600958  0.485874011035364  0.485678838071969  0.485526301495665  0.485394334445978  0.91036019107074  0.982817794085149  1.12359375672728  0.97917594073285  0.869093274243142  0.879462245372803  1.02728962779076  1.01790617215159  0.999205307836165  0.972880552026478  0.951198582176953  0.908174262681291  0.490000000696779  0.489999999621317  0.490000000757311  0.489999999841425  0.490000000815084  0.490000001296558  0.490000000242247  0.490000000469493  0.49000000043846  0.489999999646467  0.489999999546896  0.489999999965788  0.489999998764265  0.490000001139342  0.490000000844669  0.490000000646872  0.490000000508596  0.490000000420362  0.490000000372331  0.490000000354613  
0.489999998282948  0.490000000216227  0.490000000242094  0.490000000268918  0.490000000296661  0.490000000325277  0.490000000354699  0.490000000384849  0.490000000415626  0.490000000677502  0.490000000178412  0.489999999479888  0.490000000142897  0.490000001050512  0.489999999019254  0.490000000294201  0.490000000444013  0.490000000845749  0.489999999663252  0.490000001500459  0.489999999248948  0.490000001212387  0.490000000209138  0.489999998388486  0.490000001462586  0.490000000325584  0.489999999000901  0.489999999272947  0.438008990352815  0.480059120972496  0.500867153851066  0.56037934296458  0.629182185082925  0.702653520629083  0.753436644152885  0.785548832043223  0.703973765436012  0.709073112058314  0.696073566386356  0.697895091681513  0.72086657561166  0.694853352589681  0.662500949824861  0.618663981578346  0.558663839493573  0.547066074827163  0.486687872665727  0.48681325964123  0.48684415217565  0.486796750334037  0.486907997400327  0.486966885944232  0.487078236726645  0.487216310226497  0.487125897009203  0.487104444378623  0.487020753563731  0.48686448050676  0.486670603041607  0.486518139818313  0.48625805490082  0.485856699295677  0.485591919547487  0.485383004047714  0.48512639904556  0.484963650095539  0.48483792525597  0.484737415599548  0.936751454713684  1.01957069253618  1.18082232405637  1.07300366266727  0.925281780002544  1.04843940090895  1.08288209634327  1.06738615547263  1.0493148578201  1.01596163700534  0.988207699269866  0.92921625609718  0.489999999896983  0.490000001191917  0.489999998847948  0.490000000363826  0.489999999552121  0.490000000248963  0.489999999996938  0.489999999961141  0.490000000091781  0.490000001007131  0.490000000995184  0.490000001430128  0.48999999894815  0.490000000535969  0.490000000685061  0.490000000845127  0.490000000958179  0.490000001031992  0.490000001079751  0.490000001110584  
0.489999998455031  0.490000000448496  0.489999999866642  0.489999999870758  0.489999999875059  0.489999999879548  0.489999999884233  0.489999999889123  0.489999999894229  0.490000001114172  0.490000001519645  0.490000003117936  0.490000002347822  0.490000000088079  0.489999999838774  0.489999999852054  0.490000001191979  0.48999999997135  0.490000000135444  0.490000000305648  0.489999999435205  0.489999999289808  0.490000000114574  0.48999999957543  0.490000000423793  0.490000000898482  0.404480910245189  0.415654029791074  0.453356322468298  0.500480968885714  0.594384436259805  0.710861142466085  0.801527756426781  0.854002770030487  0.885158693273957  0.898816196574073  0.777618193720565  0.842058519127557  0.818027276978634  0.796672960687317  0.770417284817205  0.734096668795483  0.669710273906813  0.633695600794487  0.566460958891528  0.485845453318231  0.485852237135999  0.485956626842743  0.485959841422392  0.485942912497169  0.486010780743186  0.486029020534534  0.486129333374266  0.486267075494219  0.486126488322941  0.486096689617552  0.486005926038872  0.485884934259269  0.4856976673901  0.485619786054936  0.485381368162032  0.484991233216183  0.484752111152372  0.484581850542629  0.484348363802603  0.484237648875356  0.484140841084337  0.48407818834033  0.958510276265391  1.05366386688641  1.23903643040247  1.13547831706912  1.0312153393037  1.15135755222833  1.14838719193375  1.13609644896792  1.10131094860517  1.06009275150643  0.978642572757014  0.946000736793778  0.490000000752507  0.489999999693265  0.490000000279492  0.490000001187376  0.489999999402361  0.49000000042161  0.489999999474405  0.490000001061882  0.490000000796633  0.490000000219785  0.490000000665171  0.490000000576512  0.489999998283138  0.489999998527639  0.489999999619216  0.490000000376698  0.490000000869238  0.490000001183396  0.490000001385201  0.490000001518238  
0.489999999901358  0.489999999862158  0.490000002636217  0.490000002646813  0.490000000120289  0.490000000138273  0.490000000157009  0.490000000176538  0.490000000196921  0.490000000196396  0.489999999686221  0.490000000257379  0.490000000830602  0.490000001761972  0.489999999773304  0.490000001558087  0.490000001036569  0.489999999867275  0.490000002713473  0.490000001635278  0.489999999160443  0.489999995986549  0.489999999136713  0.490000000099316  0.490000001258826  0.489999998235827  0.43332328556529  0.435916922001695  0.452768704350364  0.541558884278618  0.747662545204526  0.912908527277557  0.993067583386096  1.01723451039516  1.01336707546599  1.00908762179123  0.992158858722596  0.924421710126061  0.888038118256318  0.866902159998741  0.800389741569488  0.764243988889115  0.691179625645654  0.633664606794304  0.485224173092763  0.485024895820128  0.485041063213906  0.485070525160558  0.485055842041125  0.485008254604275  0.485079035370673  0.485083254087714  0.4851403259333  0.485296357018105  0.485106617640015  0.485073061208599  0.4849930722565  0.484893456631498  0.484743009807257  0.484687301035907  0.484478787770138  0.484107936008426  0.483886780743065  0.48375746896602  0.483550650729599  0.483477015525608  0.483444033394827  0.483413761548289  0.975291587544169  1.08531678346096  1.29926508660759  1.20665135015353  1.26057746789973  1.22411894728548  1.21818634235031  1.19974258623876  1.15489674338454  1.10380052386499  0.998767647464006  0.489999999932757  0.490000000266204  0.490000000388958  0.490000000317193  0.490000000338258  0.490000000536332  0.489999996482378  0.490000000164586  0.489999999526968  0.48999999909951  0.489999998715126  0.490000000084777  0.489999999595139  0.490000001161397  0.490000000400037  0.489999999978158  0.489999999526112  0.489999999119293  0.489999998779337  0.489999998502992  0.489999998279593  
0.489999999974014  0.489999999434544  0.489999999949435  0.490000000105014  0.490000000527524  0.49000000047082  0.489999999177802  0.490000000048015  0.490000000045854  0.490000000341292  0.490000001779867  0.489999999562806  0.489999999103742  0.489999999600945  0.489999999054526  0.489999995575719  0.48999999872856  0.490000000973719  0.489999999482029  0.490000001155944  0.490000000243686  0.490000000240268  0.490000001990567  0.490000000705158  0.49000000188523  0.4900000003589  0.463296687425228  0.476783799090051  0.519278483488276  0.676031236895672  0.953305565297371  1.16998480188472  1.19795958607723  1.17163527201461  1.13087034591013  1.10078570213192  1.06955880826332  1.02309834592143  0.962893876571933  0.851184486699803  0.796896307808459  0.74638725884627  0.686418900984449  0.484605551074904  0.48444872456253  0.484211993637402  0.484207373413827  0.484181363641369  0.484134492325482  0.484041303055345  0.484091347254366  0.484085785827676  0.484144026078158  0.484312542163838  0.484098204386313  0.48405242397503  0.483979220099354  0.483904337716801  0.483773273927852  0.483751024375861  0.483553257525284  0.483237557551706  0.483014800287599  0.482913410363713  0.482738247998739  0.48272518368202  0.482729727777462  0.482745340147712  0.482715161583386  1.11214552637487  1.3638513076956  1.272301147702  1.33862633392005  1.3257571352499  1.30247618153521  1.26616713882977  1.22101795031817  1.16501309114952  1.0098371734384  0.490000001789779  0.489999999400903  0.490000000164006  0.489999998702506  0.490000001763965  0.49000000023424  0.490000000680876  0.489999998878356  0.489999999544414  0.489999999417474  0.490000000780744  0.490000000592732  0.489999999739521  0.489999998455957  0.489999998249318  0.489999998674194  0.489999998884531  0.489999999033693  0.489999999168836  0.489999999301919  0.489999999434715  
0.490000002313024  0.490000002197759  0.490000001257866  0.48999999981878  0.489999999825013  0.490000000858211  0.490000000047953  0.490000000659419  0.489999999770941  0.489999999778852  0.490000000740567  0.490000000007524  0.490000001675363  0.489999999405825  0.489999999892815  0.490000000059335  0.489999999443618  0.490000000198047  0.489999999961886  0.49000000020129  0.490000002751219  0.490000003565759  0.489999999980682  0.4900000014147  0.490000000882253  0.490000001392062  0.490230129373555  0.542128703962877  0.634486913202367  0.822510324465206  1.09093917483444  1.32926843228676  1.32939838891819  1.28828297114256  1.24766624167927  1.20685328705372  1.15078891648908  1.10215709252377  0.978843670861873  0.901672623825537  0.839795810797072  0.758162160562031  0.698857908280419  0.483913483880981  0.483700973794482  0.483429836225274  0.483347940053642  0.483285455418075  0.483287186362043  0.483059097855791  0.483098006578491  0.483084725652035  0.483149698951118  0.483320836303243  0.483100978406861  0.483061970572901  0.48299148382877  0.482929294435439  0.482853574022347  0.482814067581978  0.48262021468002  0.482390033623742  0.482145812666655  0.482061340477537  0.481917500744687  0.481967972381728  0.482035361437758  0.482085703990715  0.482112301238857  1.13313783730837  1.4304729231441  1.44363483713915  1.42948609872121  1.45636400627882  1.38385777503215  1.33422563663229  1.2872968209572  1.11159722721564  1.0160520709878  0.489999999445075  0.48999999893125  0.49000000001513  0.490000000666286  0.489999999986758  0.490000001024664  0.490000000723443  0.489999999529593  0.490000000349136  0.490000000634052  0.490000000686187  0.490000000198384  0.489999998581488  0.489999998501262  0.489999999173104  0.48999999905436  0.489999999036797  0.489999999082826  0.48999999916578  0.489999999269079  0.489999999383039  
0.489999997017078  0.489999999218824  0.489999999285064  0.490000000189228  0.490000000194419  0.490000000199998  0.490000000206067  0.489999998856621  0.489999999685586  0.490000000956665  0.490000000045708  0.49000000094147  0.490000000313888  0.490000000665213  0.48999999888716  0.490000000142379  0.489999998085927  0.489999999720963  0.489999997922926  0.490000000808748  0.490000001154793  0.490000001242601  0.490000001866433  0.489999999890751  0.490000001521243  0.489999999434778  0.501132509408316  0.590161100588499  0.715849953035176  0.896893358136052  1.10443692685386  1.2810992861069  1.34925635071162  1.34644597715678  1.31518673290663  1.25164266278346  1.2414709961365  1.16218484833062  1.04449169073502  0.956862806468762  0.874036244336088  0.780383424757437  0.593160152786576  0.483213414949769  0.48298104061089  0.482675712873483  0.482516175819833  0.482392954731145  0.482340958467971  0.482092817128118  0.482121335114399  0.482070971018726  0.482180332014157  0.482325629520687  0.482135773236102  0.482098761975829  0.482042714409674  0.481989177454115  0.481918228095906  0.481868924455292  0.481693934687637  0.481514147832395  0.481290584636561  0.481208526099034  0.481102505708351  0.481238648640071  0.481345997612012  0.481454402221648  0.481538479974678  1.14530135558364  1.43358840583814  1.52712017282471  1.52892641875868  1.54981878118075  1.51817788968094  1.4218979868381  1.33736669905998  1.12373488200967  1.01409048656121  0.490000001061235  0.490000000301007  0.490000000390545  0.489999999239968  0.489999998450273  0.490000001044694  0.489999999332761  0.490000000163566  0.489999999998457  0.489999999896593  0.490000001182322  0.489999998215792  0.48999999932865  0.4900000002129  0.490000002571472  0.490000002216376  0.490000001941859  0.490000001752222  0.490000001627691  0.490000001553153  0.490000001517354  
0.490000000777343  0.48999999994397  0.489999999903714  0.490000001307302  0.489999999887178  0.489999999911102  0.489999999688288  0.490000000904084  0.49000000016745  0.489999999866408  0.490000000059325  0.489999999171596  0.489999999117345  0.490000001573352  0.489999999304906  0.490000001985312  0.489999999526055  0.490000000064255  0.489999999958905  0.490000000086311  0.490000001653167  0.490000001445553  0.490000000248088  0.489999999590024  0.489999997798446  0.489951468311932  0.528552273386017  0.615725079177662  0.748122741043049  0.91502327651546  1.08904902131345  1.24854419656404  1.34062165468235  1.37709844312556  1.33720569166208  1.3080139601577  1.26594079011798  1.21766656337154  1.13132685298749  0.99199371306406  0.906820573363631  0.796401763760676  0.59347339553495  0.590447128160371  0.482305256168027  0.482035722065993  0.481740343992023  0.48152026881058  0.481391156385536  0.481169130608668  0.481142255568145  0.481182457147109  0.481236262584371  0.481354453163682  0.481230399792014  0.48120914281544  0.481186719841035  0.48113570508395  0.481030957585457  0.480961972212277  0.480805325161354  0.480668199831  0.480506783583121  0.480391630981093  0.480350486847107  0.480526991314206  0.48072219231858  0.480909160959377  0.481041877687419  1.13769106310713  1.48624377073247  1.62532377563782  1.65124401295048  1.65167657575829  1.61522986251323  1.48643511586967  1.37736082713483  1.11789986495842  0.490000000616259  0.489999998218079  0.490000000195864  0.490000000879755  0.490000000486635  0.490000000608373  0.490000001096954  0.490000000800392  0.490000000694667  0.489999999368427  0.490000000884594  0.489999999509951  0.490000002128375  0.490000000460314  0.490000002156761  0.489999999705657  0.489999999165581  0.489999998927054  0.489999998820917  0.489999998775411  0.489999998758158  0.48999999875404  
0.490000000619537  0.489999999874234  0.489999999866766  0.489999999319191  0.489999999294567  0.489999999813714  0.490000000365097  0.49000000037839  0.490000001078926  0.489999999673932  0.489999999951326  0.490000000204377  0.490000000832329  0.490000001092282  0.489999999665677  0.489999999113965  0.489999999976112  0.490000000673937  0.490000000357634  0.489999999755717  0.489999999196929  0.489999999004926  0.490000000586153  0.490000002839879  0.489999999961838  0.490472722253772  0.520464698262  0.603590154792233  0.747503650656601  0.910604850486547  1.07236211835766  1.23020949590916  1.30586464730536  1.36605188213667  1.37686219767868  1.35046058288017  1.30464830691551  1.25768920912598  1.1703677577072  1.06582779651732  0.950426944622427  0.806611986843403  0.586346466022419  0.563986835929919  0.554752108207631  0.481407202007293  0.481061596206088  0.4807601633916  0.480482105761499  0.480339764119055  0.480344570362862  0.480392027421237  0.480397031249964  0.480338331079624  0.480382845237421  0.480446350408081  0.480477446087467  0.480403633659579  0.480287658106302  0.480189105268278  0.480073334216381  0.480011002639281  0.479975510114112  0.480000000140452  0.47999999901224  0.479990610999086  0.480186540940887  0.480406635254752  0.480518312981857  0.480859241365737  1.50012984950233  1.73162361381929  1.77563953296325  1.7623553905024  1.69658771380863  1.58182454579835  1.41099921306076  0.487776939994147  0.488154857811973  0.48842016158884  0.48869156560179  0.489032579169785  0.489258450963255  0.489411630133833  0.489524622577637  0.489406496109235  0.489518196507208  0.489717671102981  0.489999999805388  0.489999999391817  0.489999999647947  0.489999998681443  0.48999999890113  0.49000000068893  0.490000001087184  0.490000001173857  0.490000001197895  0.490000001205651  0.490000001208715  0.490000001211231  
0.48999999646993  0.490000000637154  0.490000000641623  0.490000000646894  0.490000000653109  0.490000001433489  0.489999999875269  0.490000000955549  0.490000002655259  0.490000000002026  0.48999999992299  0.49000000034047  0.489999999677126  0.489999998725976  0.489999998599088  0.489999998318027  0.490000001695181  0.489999999459106  0.490000000914545  0.489999999102372  0.490000001146011  0.490000001030064  0.48999999902959  0.490000000779611  0.489999999920221  0.473042340428808  0.486178918555152  0.56905748944155  0.724296531272012  0.902252089082562  1.05230437872286  1.19002381975498  1.30019817737318  1.37635385537547  1.39814636142788  1.39365257866106  1.33416331679217  1.27995451657178  1.18278044721325  1.06729539844634  0.95206138696583  0.826373483582869  0.5748276599683  0.555469538721079  0.541710686833843  0.520112645838099  0.480544849555102  0.480252019597494  0.48000147295801  0.480000000185741  0.480000000597137  0.480000000517877  0.479999999949125  0.479999999404495  0.480000000838915  0.479999999819438  0.479999999259296  0.480000002091099  0.479999999983163  0.480000000037585  0.480000000331572  0.480000000234959  0.48000000025182  0.47999999976986  0.47999999910344  0.479999999616563  0.480009913493432  0.480235004975398  0.48032597731053  0.480519035383559  1.51031955425837  1.88372391389247  1.95004107619578  1.85429199063064  1.7202148795383  1.56613069889636  1.34420925843822  0.487960118730367  0.488361398333762  0.488629857810493  0.488916452025152  0.489253899030071  0.489468871517666  0.489595483283552  0.489663118360196  0.489553984449308  0.489644135312675  0.489781850783564  0.489687533263003  0.489696218267697  0.48999999976306  0.490000001028855  0.489999999539395  0.489999999099972  0.48999999872735  0.489999998582733  0.489999998539825  0.489999998542535  0.489999998565655  0.489999998597153  
0.489999999900053  0.490000000125655  0.490000000254256  0.490000000608864  0.490000000690137  0.490000000774965  0.490000000574308  0.489999999349942  0.490000000010709  0.489999999802267  0.489999999664765  0.490000000140362  0.489999999320166  0.48999999869424  0.489999999022526  0.490000000686437  0.489999999922674  0.48999999959749  0.490000000190392  0.49000000141125  0.490000000487792  0.490000000419246  0.489999999960945  0.489999999965289  0.445619689154104  0.448823065485684  0.480149010795029  0.558480671474249  0.712829928684095  0.888864465691276  1.04865137306825  1.18281465755368  1.29984405044261  1.36928813152205  1.41902854942296  1.44547720715849  1.38839256310874  1.30891206073623  1.18661982944913  1.0593386439733  0.935132633939659  0.796783182249712  0.584510018480545  0.542222742100713  0.527563654385663  0.508179632246486  0.480211729364266  0.479991830276493  0.479983006995761  0.480000000583394  0.479999999936928  0.4799999996583  0.480000001454365  0.4800000008319  0.480000000278272  0.479999999318288  0.48000000004496  0.480000000834753  0.48000000008066  0.479999998080059  0.480000000747253  0.480000000499056  0.479999999991684  0.480000000449928  0.479999999740875  0.479999998645383  0.480000001054117  0.480011284933838  0.480183679157371  0.480228926440196  1.38447956190564  2.13175894890679  2.05494551485174  1.85106836521157  1.62503704478583  1.45694356138099  1.29805001849824  0.488168974386989  0.488590918343867  0.488872914134207  0.489181609761981  0.489513722949595  0.489705331355823  0.489777857400296  0.489685916637129  0.489727059104285  0.489801341744884  0.489889682639586  0.489791712259387  0.489789513455773  0.489936566201388  0.490000001372809  0.48999999981693  0.490000000042869  0.489999999896928  0.489999999765109  0.489999999662266  0.489999999581199  0.489999999515174  0.48999999946028  
0.490000000379236  0.490000000574659  0.490000000575828  0.489999999722157  0.489999999680003  0.48999999968209  0.489999999686832  0.490000000721219  0.489999999496356  0.490000000512253  0.490000000051158  0.490000000137658  0.489999999527044  0.489999999180385  0.490000000686107  0.490000000007641  0.489999999561192  0.489999999802639  0.490000000207729  0.489999999672899  0.489999999558286  0.490000000196758  0.489999999992739  0.490000001255547  0.410148503457827  0.44017052910998  0.484594112762456  0.574106437084323  0.716351461282509  0.884000277935399  1.04321186316039  1.17972510398196  1.29256020080323  1.38072428535225  1.44531268140478  1.4881520897452  1.42962796866612  1.32082837277821  1.16441269195047  1.01136094880638  0.878778915198402  0.579178048530766  0.560125648575714  0.541720553737698  0.509645342056997  0.49759455330868  0.483815573186401  0.479919648755881  0.47991067242945  0.480000000183899  0.480000000109958  0.480000001005125  0.479999999730685  0.480000000730084  0.480000001203361  0.480000001256646  0.479999999769472  0.480000000055108  0.480000000247482  0.480000000234771  0.479999997695986  0.479999999549379  0.480000000587447  0.479999999472743  0.479999999647146  0.479999999755404  0.480000001210354  0.480000000364585  0.480000000119853  0.479999998908411  0.898446480117501  1.69882709420756  1.75336107202286  1.62781141317268  1.47770974563999  1.3286758600974  1.19250846391062  1.01822045214392  0.853142470381293  0.74152527570258  0.63968906803278  0.555615542874774  0.522512064386556  0.523606759714089  0.535008573585685  0.521923235066602  0.511359326257812  0.521889917163437  0.522461679862165  0.514045746955256  0.483701415150399  0.462679470741085  0.490000000033046  0.489999998641948  0.489999998392288  0.489999998163243  0.489999997998487  0.4899999978914  0.489999997825871  0.489999999441959  
0.490000000966386  0.49000000051197  0.489999999533882  0.48999999952718  0.489999999521012  0.490000000847082  0.490000000840638  0.490000000831295  0.489999999858801  0.489999998940561  0.490000000367575  0.489999998801057  0.49000000011958  0.489999999643515  0.489999999852656  0.489999999371373  0.489999999970748  0.490000000130135  0.489999999427372  0.490000001745727  0.490000001413762  0.490000002136131  0.490000000589964  0.40562070231718  0.398649896232741  0.435337778650727  0.492073973790783  0.575948656758636  0.720328938412661  0.89108784914052  1.05445992568869  1.18674120148526  1.29111052777069  1.37500372648714  1.44804557671147  1.51383068378522  1.46665287454669  1.28575854263011  1.10304482682666  0.926615256261291  0.601233758094324  0.570394976084201  0.547929190338516  0.532209436055691  0.499977050483938  0.490659679542901  0.482044695508532  0.479999999297075  0.479999999962135  0.479999999892422  0.47999999988601  0.479999999207001  0.479999999906805  0.480000000354501  0.479999999465407  0.480000000607279  0.480000000046708  0.479999999904433  0.480000000150393  0.480000001470951  0.480000000431383  0.479999999405832  0.48000000079976  0.480000000171697  0.480000000973108  0.480000000012646  0.47999999899941  0.479999998761333  0.480000000084888  0.479999999999754  0.511687357563845  1.00468887201662  1.22235131275782  1.24655187972684  1.17812497520043  1.07081810300497  0.952777373415577  0.838923441590562  0.7346813866708  0.634857575719135  0.530097790141228  0.472134331187826  0.489999999896243  0.489999999492734  0.490000001234169  0.490000002238085  0.489999999887107  0.489999998885393  0.489999999610127  0.490000001452804  0.489999996452716  0.489999999437882  0.490000000462768  0.49000000313321  0.490000003012077  0.490000001741288  0.490000001735242  0.490000002472809  0.490000002462417  0.490000002720963  
0.490000000965105  0.490000001820607  0.49000000174587  0.490000000418006  0.490000001083726  0.49000000109684  0.490000001110471  0.490000001140775  0.490000001136601  0.490000000373007  0.489999999981554  0.490000000656614  0.490000001449284  0.490000000468612  0.489999999867867  0.489999999969315  0.489999999381419  0.490000000256521  0.489999999619562  0.489999999903772  0.384741531579267  0.388142083763165  0.39526465362978  0.40263954634908  0.395942875320072  0.424099260928586  0.468960457048279  0.555374622916219  0.724652011914148  0.91008241795863  1.07364427744773  1.19694822577492  1.27811771567458  1.32163961188023  1.36867823604403  1.43399600322047  1.3822957074431  1.1357026505679  0.948675239994555  0.800713103879641  0.700560020824411  0.620153909050047  0.557482456259437  0.534295686735156  0.508370420458325  0.490796028817064  0.479769973909609  0.480000001372184  0.480000000261802  0.479999999870304  0.480000000696464  0.48000000025156  0.480000001034465  0.480000000350084  0.480000000753746  0.479999999362798  0.479999999709782  0.480000000157102  0.480000000555055  0.480000000711148  0.479999999480164  0.48000000046176  0.480000000599673  0.479999999426528  0.479999999476525  0.479999999479094  0.480000000817023  0.480000000144522  0.479999999673964  0.480000000600219  0.479999998261558  0.669340300339611  0.482288773417767  0.483589376637381  0.485226133620206  0.83492565624992  0.746067019410099  0.668440092947469  0.595520876027243  0.532055355039295  0.487418500795019  0.489999999970553  0.489999998974525  0.489999999933428  0.489999998659308  0.490000001229011  0.49000000048498  0.489999999412636  0.490000000581222  0.489999999738641  0.490000001903004  0.490000000280725  0.489999998868573  0.49000000086769  0.4900000008536  0.48999999974778  0.489999999749046  0.489999998349924  0.489999998326449  0.490000000626659  
0.489999999498199  0.489999999602814  0.490000000478647  0.490000000491748  0.490000000502915  0.490000000511728  0.490000001084382  0.490000001086334  0.490000000096829  0.489999999605305  0.489999997544037  0.490000000133806  0.490000000887164  0.49000000136141  0.489999998957009  0.489999999415395  0.490000000449422  0.489999999745736  0.384607608030387  0.362190979882195  0.34926029572858  0.368534913698729  0.378794575956095  0.398657604138977  0.40932898084321  0.418761713818989  0.460716620664935  0.551357910068988  0.75911602145996  0.955862621875211  1.11758381787643  1.22810776692599  1.26753775120365  1.24963016677716  1.21603616018566  1.16084356031263  1.01922643844139  0.855769727168797  0.725851949476358  0.625390816978527  0.574667788367006  0.532632880868244  0.494719709424741  0.495468502756157  0.518251859050653  0.530293434057682  0.472754420196008  0.479999999506401  0.479999999532207  0.479999999639373  0.479999996880315  0.480000000227679  0.495154070404035  0.45207834608695  0.480000000117193  0.479999999133227  0.479999999667738  0.48000000025903  0.479999999878007  0.479999999370493  0.480000000222582  0.479999999237116  0.479999999815453  0.479999999346174  0.479999999920495  0.480000000207074  0.480000000159169  0.479999999258171  0.480000000450911  0.480000000466565  0.480000000352296  0.592635731842306  0.481370709391266  0.483659761197299  0.485527758792365  0.487388121869237  0.489166376612668  0.514993427300325  0.505593967015298  0.489999999613229  0.489999999509127  0.489999999040005  0.490000000427056  0.490000000840026  0.490000001564851  0.490000000097567  0.49000000045079  0.490000000969304  0.489999999574066  0.489999999451312  0.490000003795144  0.489999999921466  0.489999999602401  0.490000000450223  0.49000000264482  0.490000000319928  0.490000000277632  0.490000000304896  0.490000000327494  0.490000003019799  
0.490000000086749  0.489999998635875  0.489999998647781  0.489999997158023  0.489999997275905  0.490000000905675  0.490000002054003  0.490000000085394  0.490000000662499  0.490000001253085  0.489999999419091  0.490000000823429  0.489999999727399  0.490000000937999  0.489999999833323  0.490000000217152  0.489999999986129  0.489999999717612  0.347199093959076  0.354706066938222  0.371754851003697  0.371948297930142  0.377033012654098  0.388827849762811  0.415969264985737  0.439887539934828  0.513855546038647  0.6557168855508  0.842347147376859  1.03074437743236  1.1932965169442  1.28421989938902  1.25880029718209  1.1761764956044  1.05710359875465  0.897676928540759  0.685162618624378  0.539904244531126  0.512148031625232  0.460488342769119  0.473623434245185  0.480924644258916  0.478014413722305  0.496852520986226  0.540884317449982  0.591224397988957  0.638132364753787  0.667158089388952  0.677076563704525  0.686663672643288  0.695480883901218  0.479999999944053  0.60975938053515  0.489456067407556  0.391904815538376  0.479999999967685  0.480000000909703  0.479999999687445  0.479999999526641  0.480000000018843  0.479999999856258  0.480000000262805  0.479999999878952  0.480000000258262  0.479999999774181  0.479999999488387  0.480000000645776  0.480000000465296  0.479999999983994  0.479999999342678  0.47999999968075  0.488850324712207  0.481294191771882  0.483731757672027  0.486083429892231  0.488418893609501  0.489692596882918  0.489999999451002  0.490000001085134  0.489999999721842  0.489999999518433  0.489999999531247  0.490000000485703  0.489999999551838  0.490000000075256  0.48999999932009  0.489999999605102  0.48999999930576  0.490000000350333  0.489999999706499  0.489999999791204  0.489999999818831  0.489999999637511  0.490000001899729  0.490000001816323  0.490000001739409  0.489999998863487  0.49000000119797  0.489999998034381  0.489999998311623  
0.489999999671051  0.489999999530896  0.489999999556065  0.489999999830312  0.489999999836614  0.489999999646011  0.490000001891999  0.490000001805284  0.490000001715091  0.490000000144349  0.489999999434859  0.489999999686416  0.489999999450763  0.490000000161427  0.489999999692502  0.489999999303816  0.489999999306129  0.391344655646237  0.365943206161687  0.370960712622617  0.38959554027727  0.390619458620019  0.395829036715528  0.408396922058438  0.439496054865457  0.49324436687443  0.606926364042344  0.764039007739247  0.941946999467648  1.12097971055836  1.28107879766088  1.36820286891687  1.23840031857147  1.07470250776001  0.889935248236435  0.689810163854528  0.495923029183676  0.430334164667109  0.419332566097937  0.480000000175706  0.47999999996852  0.479999999735658  0.474380376458977  0.518206315477156  0.597378543687353  0.688497692977181  0.779145176595598  0.856445181052677  0.922254763551857  0.969062143509697  0.99492214665252  0.95870848913483  0.84159895611189  0.646968401216855  0.473969255600674  0.366935764871923  0.290265478825717  0.248067355526775  0.479999999373379  0.48000000107789  0.480000000376558  0.479999999469149  0.479999998748068  0.480000000553617  0.479999999362213  0.480000000863265  0.479999999644938  0.480000000096271  0.480000001833557  0.480000000190709  0.480000001944609  0.480000000712128  0.480647930054736  0.483506024484318  0.486463425499124  0.488995421409307  0.490257004749624  0.489999999994867  0.489999996464398  0.489999999405235  0.490000000398152  0.48999999965474  0.490000000857553  0.489999999774857  0.490000001486964  0.490000001223966  0.490000000827294  0.490000001681824  0.489999997360265  0.490000000547228  0.49000000021484  0.489999998470692  0.490000001855639  0.490000000431863  0.4900000046658  0.490000004614349  0.490000004573197  0.489999998067034  0.489999998137768  0.489999999351137  
0.490000000445448  0.490000000562323  0.490000000581632  0.489999999959181  0.490000000366023  0.490000000399503  0.490000000434761  0.489999999365965  0.489999999371785  0.489999999357393  0.489999999354428  0.489999999123967  0.490000000616401  0.489999999781582  0.489999999411867  0.489999999331799  0.490000000587969  0.378409604956057  0.407445592641157  0.418623780404351  0.428623367519244  0.433760244198341  0.439221981071737  0.452509431074589  0.482863934956738  0.586113297113096  0.718544079709877  0.869410956632629  1.03405377009481  1.18800195761568  1.29746229209623  1.31448957238071  1.16428657479959  0.955522259065249  0.743383178340633  0.564060729598134  0.43607882643931  0.388278535172214  0.47999999961612  0.479999999750467  0.480000000083113  0.479999999442116  0.462369968118293  0.534609375792375  0.653984231010544  0.78591237185306  0.916420904847363  1.05272338088613  1.17528381331969  1.2746464914778  1.31793663562683  1.28444344943563  1.14354880536805  0.905403429350349  0.649260288363474  0.431297756164323  0.316103436263183  0.264450659746706  0.480000000166095  0.480000000116932  0.480000000417066  0.479999999667797  0.479999999626571  0.479999999943689  0.480000000669006  0.480000000503964  0.480000000310435  0.479999999702824  0.480000001184656  0.479999999767689  0.479999999628617  0.479999999925586  0.480072122654725  0.483238792648927  0.486971699661771  0.489956026760108  0.489999999520954  0.489999999022816  0.489999999473034  0.48999999831657  0.489999999114821  0.490000000510029  0.489999999660562  0.490000001357611  0.490000001029432  0.489999999567396  0.489999999295243  0.48999999885332  0.489999998865145  0.489999999670837  0.489999998933441  0.48999999941254  0.489999998769822  0.490000001150356  0.489999999890975  0.490000000139838  0.489999999690505  0.490000001810149  0.490000000636651  0.489999998249798  
0.490000000928235  0.489999999229282  0.490000000386921  0.489999999327852  0.489999999296  0.48999999926593  0.489999999371704  0.48999999936652  0.490000000198751  0.489999999897128  0.48999999976029  0.490000000899392  0.490000000509125  0.4899999998876  0.489999999687326  0.489999999645998  0.489999999959873  0.406732124910353  0.427311874141361  0.44897093508294  0.467117069999442  0.474984160994908  0.484671973792116  0.513524475481639  0.581262242656925  0.68818508128103  0.821337980538854  0.971280903255222  1.11621810546551  1.2529621009041  1.31397592102837  1.27256341861998  1.12817570185627  0.926997800632636  0.708685828472473  0.535839211591209  0.421390179190787  0.479999999849377  0.479999999826661  0.480000000183506  0.479999999538547  0.422284695135569  0.45525380700398  0.55754936999396  0.713589681600231  0.88469734457133  1.05705215368061  1.24150735449851  1.42068003174118  1.58251824083501  1.67852399010688  1.67811886158143  1.51033688449794  1.22214881758005  0.854575930038839  0.511343361246343  0.366954990151537  0.306393499642154  0.480000000607353  0.479999999669458  0.480000000546337  0.480000001135972  0.479999999926214  0.48000000004453  0.480000000205305  0.479999999808072  0.480000000785066  0.480000000065353  0.480000001296625  0.47999999940992  0.479999999676376  0.479999998701086  0.479337634865024  0.482575733157946  0.48796119872035  0.490910139842629  0.489999999996523  0.489999999628603  0.489999997743953  0.49000000010804  0.489999998380201  0.490000000135954  0.490000002284131  0.490000000347863  0.49000000018102  0.490000001101408  0.489999999169718  0.489999999666378  0.490000000907364  0.490000000403454  0.48999999882023  0.490000001872061  0.490000001020318  0.490000000963038  0.490000001629005  0.490000000797195  0.490000003709881  0.489999999927553  0.48999999952088  0.489999997960986  
0.490000000526523  0.490000000630569  0.489999999435134  0.489999999448135  0.489999999752943  0.489999999745893  0.489999999758631  0.489999999768506  0.490000000460447  0.49000000041969  0.489999999924863  0.490000000086661  0.490000000878826  0.49000000033975  0.490000000087978  0.490000000267468  0.490000000378739  0.422518156559645  0.449809358645919  0.48227776181599  0.507909902872022  0.529115843700798  0.556192246675889  0.604245581345511  0.685397025900509  0.790004811523175  0.924252841242574  1.05831464554141  1.19566226708704  1.31050140968076  1.35376476416642  1.28093792439652  1.11477847495651  0.919207341198632  0.680760636098486  0.486104435210784  0.414769104212531  0.415850248658878  0.479999999643213  0.479999999894545  0.34587622077256  0.422012427846574  0.475692783011909  0.59847974911605  0.778223729741674  0.969824648503527  1.17838874840074  1.39535260703721  1.63185525474341  1.8518873614216  2.05427220601795  2.12649779903505  1.91540151457299  1.53198486765448  1.10154535317425  0.72830947179759  0.498559452191628  0.382862755038973  0.331057093489804  0.479999998812046  0.48000000174539  0.480000000748712  0.47999999969995  0.479999999809081  0.480000000349029  0.480000000477259  0.479999999822857  0.479999999422421  0.479999998860049  0.479999999647422  0.480000000746269  0.480000000358329  0.479324826414978  0.483662930277823  0.489635647401132  0.489999999480319  0.490000000530974  0.490000001292172  0.490000001573034  0.489999999725975  0.490000000070009  0.490000000796649  0.489999997668807  0.490000000177302  0.490000000279661  0.489999999491229  0.490000000442997  0.489999999497167  0.49000000057635  0.489999999631923  0.490000001242665  0.490000000441072  0.489999998518055  0.489999996817791  0.490000000212235  0.490000002943672  0.489999998992966  0.490000000773825  0.49000000147145  0.489999998302277  
0.490000000210631  0.489999999939874  0.489999999987645  0.490000000037277  0.490000000088906  0.490000000884911  0.490000000904417  0.490000000919945  0.490000000929709  0.490000000898742  0.489999999272345  0.490000000021932  0.490000000726971  0.489999999980578  0.489999999581182  0.490000001044258  0.489999999657691  0.452931792111641  0.47600333640139  0.502643955129883  0.528589060175772  0.583124272008377  0.630475073497856  0.691512708554131  0.777034870610434  0.885313858357166  1.01269301812874  1.14099148369083  1.27415099398255  1.38064921738447  1.42400415660282  1.31903622579256  1.163594672306  0.960351817226118  0.722301492187677  0.506216627944373  0.467631851532443  0.439262712986298  0.412624683486082  0.34262489484724  0.347808155228835  0.43750607522691  0.505816836663273  0.645293511887854  0.826590761575128  1.03352675112937  1.25817590505648  1.49960098550754  1.75980108224475  2.0443938948072  2.33256749248262  2.6084426769787  2.25036494784271  1.76967989905218  1.31325351475215  0.935777908181388  0.657496303810534  0.488644751654797  0.389935024278023  0.480000000060301  0.479999999468327  0.479999999545285  0.480000000921752  0.479999999224578  0.480000001053963  0.480000000492014  0.480000001192813  0.480000000512233  0.480000000458945  0.480000000109514  0.479999999689523  0.479999999317706  0.481265735043756  0.486527054620937  0.490830313724803  0.489999999374544  0.490000000174754  0.4900000019378  0.489999998313485  0.490000001964628  0.48999999998526  0.490000000290596  0.49000000081456  0.489999999603693  0.490000000782226  0.490000000744395  0.490000000713279  0.490000000762835  0.489999998676705  0.489999999799203  0.489999998307043  0.490000000102002  0.489999998817255  0.489999998867882  0.489999998178605  0.49000000009777  0.48999999908289  0.490000001693876  0.489999999758028  0.490000002043151  
0.490000000643467  0.490000000309931  0.490000000333673  0.490000000359127  0.489999999854919  0.489999999856225  0.489999999857357  0.489999999858426  0.48999999928904  0.48999999933821  0.490000000640002  0.489999999997871  0.490000000129941  0.490000000288576  0.489999999444311  0.489999999843417  0.489999999980114  0.464775625041102  0.489568547444841  0.522243696862927  0.574974142054026  0.627190783832611  0.685506449013654  0.748079501954313  0.830179833404434  0.944470175165918  1.07059740869654  1.1966924022491  1.30897873277343  1.39555019431492  1.42037094064671  1.35001968902854  1.22545310492852  1.05906860485313  0.86702445276927  0.696467107143606  0.542432030043212  0.472445418847767  0.37466021049946  0.321909353881551  0.34212587550991  0.423223050588806  0.480000000629486  0.674760775599361  0.864218629460499  1.0742495106485  1.30087557687948  1.54102931721516  1.79596508249327  2.09851327390984  2.34953512898948  2.48109553369072  2.25578099143099  1.84939864353821  1.42957533810299  1.06666981164875  0.774328689974379  0.556974919561954  0.480000000026385  0.480000000150539  0.480000002534658  0.480000000830852  0.480000001011496  0.479999999740097  0.480000001773452  0.47999999941178  0.480000000662618  0.480000001044734  0.479999999652547  0.480000000622646  0.479372447892971  0.480512408152455  0.484269376805862  0.488762815003684  0.490936479593081  0.491697170425985  0.492041863158339  0.492176153279879  0.490000001973198  0.490000000923809  0.49000000073984  0.490000000476077  0.48999999813614  0.490000001626216  0.489999999297092  0.49000000147754  0.490000001320759  0.489999999288883  0.489999999564866  0.490000000179385  0.490000001111606  0.489999999402878  0.49000000076545  0.490000000755727  0.490000000229154  0.489999996969012  0.490000001404443  0.490000002075671  0.489999999510677  0.489999999361983  
0.490000000437359  0.490000000096272  0.490000000047717  0.489999997027089  0.489999997082953  0.489999997146055  0.489999997218202  0.489999997301894  0.489999997400681  0.49000000071591  0.490000000018244  0.490000000502061  0.489999999935943  0.490000000117177  0.489999999409471  0.490000000700184  0.490000000065239  0.476763159324167  0.513243498505338  0.555949332433186  0.606279920226838  0.672519670831532  0.731336670008566  0.807829432073437  0.9042096449302  1.00909465182774  1.13171242808153  1.24676843179058  1.34726749104364  1.4270928697231  1.44619455118488  1.40601568661341  1.31521734979768  1.18793251230978  1.0388318760294  0.891088944395973  0.729400301530159  0.569781978767025  0.410162095114197  0.342165119680539  0.34636703454847  0.438647821307195  0.563162699607079  0.878000405369237  1.13225751971644  1.37497795026817  1.60637554903284  1.82760972097792  2.08063213807518  2.30260394272748  2.44378022881955  2.44799580973781  2.27487169098375  1.9684753344058  1.61453831710332  1.2462436431436  0.917901582847139  0.630359342906809  0.464450894086828  0.479999999967653  0.479999999587151  0.479999999724683  0.479999999045227  0.479999999523762  0.480000000811859  0.479999999816788  0.480000000331869  0.480000000345499  0.479967642432854  0.479727663903688  0.48073563442983  0.483070512717577  0.486663485466433  0.490217796221906  0.490000000136903  0.489999999596154  0.490000000059747  0.490000001057531  0.489999998880032  0.490000000245371  0.48999999983488  0.489999999692708  0.490000000152778  0.489999999945518  0.489999999120871  0.490000000447255  0.490000000731648  0.489999999307063  0.489999999372652  0.490000000120766  0.490000000726102  0.489999998459917  0.48999999993097  0.489999999863958  0.490000000471763  0.490000000214201  0.489999999541595  0.489999999560976  0.490000000096014  0.489999999280594  
0.489999998406423  0.489999998441946  0.489999998472477  0.489999998506108  0.489999998543578  0.489999998585868  0.489999998634303  0.489999998690696  0.48999999875756  0.489999998870507  0.490000000313568  0.490000000799443  0.489999999191918  0.490000000919546  0.48999999837746  0.489999999786632  0.490000000365241  0.493578299662665  0.535259976408136  0.586951366019725  0.644168721546099  0.701209767599379  0.770613385905224  0.856362997544325  0.955426588216901  1.06149398726419  1.18738774502329  1.29330917338272  1.39044128042622  1.45981881514788  1.49865709046743  1.50287574424432  1.45712065534278  1.37815379925645  1.26785904851615  1.14697356090977  0.9941233692001  0.827595214330388  0.640912913338058  0.48526608952854  0.435357117193411  0.590877528909196  0.752916876003906  1.1044930712726  1.35058073068463  1.51758620425074  1.72301853307935  1.91192368305893  2.20969252014933  2.34738442792004  2.41615851607712  2.4108000014939  2.24981847215029  1.99959327688099  1.69880824385029  1.37741388718433  1.05422211313275  0.746773437537608  0.479753596517567  0.444030289253744  0.461846773596309  0.47999999908079  0.479999999714158  0.48000000104628  0.480000001192951  0.479999999630179  0.480000001418264  0.479904944546339  0.48005130271942  0.480743217773991  0.48255313598409  0.485266829450108  0.488341492415749  0.490725507289729  0.490000000231381  0.489999999428112  0.490000000589474  0.48999999920322  0.490000000904624  0.489999999348278  0.489999999628053  0.489999999785208  0.489999998586731  0.490000001977066  0.490000000619106  0.490000000475185  0.489999998902036  0.490000000443658  0.489999999705073  0.489999999788109  0.490000000236745  0.48999999954545  0.489999997089683  0.490000000771559  0.490000001368536  0.489999998648012  0.489999998946713  0.490000000370352  0.489999998778762  0.489999999761729  
0.48999999914787  0.490000000660655  0.490000000617922  0.490000000571698  0.490000000521373  0.490000000466168  0.49000000040509  0.490000000336847  0.49000000025975  0.48999999910961  0.489999999563427  0.489999998139317  0.490000000140371  0.48999999977477  0.489999999947711  0.490000000233959  0.489999999987483  0.509996821531174  0.556392339611203  0.609860316790046  0.669722885483794  0.729500847697871  0.801082350592327  0.886893807414166  1.00086179283224  1.11086327575739  1.23044099713838  1.33964928756069  1.43600707879508  1.51768352243858  1.59337871122475  1.60728027697953  1.59916060976956  1.54599784170511  1.4678460828239  1.42119109998469  1.3423692705003  1.23250886673236  1.08905410748321  0.934438117279705  0.871915540657852  0.955973953776811  1.06452452917834  1.40213143447029  1.61331804592641  1.81411722722984  2.0013558137376  2.20295501091633  2.27866818794377  2.34740973751187  2.36604409590037  2.33613513948815  2.3572921021184  2.12124432255319  1.82458087319739  1.50624806630128  1.19436156594579  0.910839864129589  0.605928262641098  0.53977798229762  0.52649471679156  0.555491948951106  0.553413918349223  0.541185094377616  0.544872864620894  0.513552668066683  0.479183847025479  0.471384416995779  0.480432297524352  0.481888263576734  0.483983233428606  0.486532024648523  0.48924441454025  0.491008649027959  0.490000000238425  0.489999999031271  0.489999999273597  0.490000000849895  0.490000000367438  0.490000000479439  0.490000000997655  0.490000000781023  0.490000001234105  0.489999999352607  0.490000000154658  0.489999999920993  0.490000000088465  0.489999999191798  0.489999999463948  0.490000000274711  0.489999999262427  0.490000000133183  0.490000000862618  0.490000000329646  0.489999999864629  0.490000001955589  0.49000000157721  0.489999999205863  0.489999999180462  0.49000000004307  
0.489999999676448  0.489999999853638  0.489999999836859  0.48999999981989  0.489999999802727  0.48999999978536  0.489999999767756  0.489999999749855  0.489999999731544  0.489999999716001  0.489999999472115  0.489999999034222  0.490000000280593  0.489999999304303  0.489999999347647  0.490000000648461  0.48999999649371  0.525261773513589  0.575690501247585  0.63396739720876  0.701107818272626  0.766706203959662  0.845596548198701  0.939491966544383  1.05141737372079  1.16375494225331  1.28693926981306  1.39409697810293  1.50621522912908  1.62249462536304  1.70455541103309  1.75055357337771  1.79002236348871  1.77913032425837  1.74229832719242  1.73170654082724  1.72156185317639  1.69654541097921  1.63664269035644  1.52156880745099  1.4339536814268  1.4221944789868  1.59937646973274  1.7465635854071  1.90647218256586  2.06949939074233  2.21622523598894  2.29029150983632  2.35614439087769  2.39507758671714  2.3760928259934  2.27195718251667  2.2201403337959  2.17815469574394  1.9141516867319  1.63146714433408  1.3487774616421  1.09236925322611  0.745885407871167  0.671041250383586  0.626479159914382  0.600750286339473  0.578116615212661  0.550417726300057  0.637146519523775  0.595002955977246  0.576911881146735  0.541303280838902  0.48133448227619  0.482913281627687  0.484858196441401  0.487151602938009  0.489447803985789  0.490983420604603  0.489999999203118  0.490000000714625  0.489999999532284  0.489999998868633  0.490000000379193  0.489999999843339  0.489999999157709  0.489999999878249  0.489999999524801  0.490000000436338  0.490000001037516  0.489999999590445  0.489999999840382  0.489999997372385  0.489999999566608  0.490000000427791  0.489999999745557  0.490000000798311  0.489999999211107  0.489999999627351  0.490000001283128  0.489999999955526  0.489999998072338  0.490000000780979  0.489999999406303  0.489999999870028  
0.489999999204031  0.489999997155847  0.489999997151165  0.489999997148537  0.489999997148607  0.489999997152249  0.489999997160657  0.48999999717551  0.489999997199219  0.489999998583887  0.489999998900422  0.489999999255516  0.489999999316679  0.489999998936655  0.490000000448486  0.490000000156912  0.489999999768142  0.536030531945834  0.593520253342808  0.659505820896134  0.733915816944698  0.807768602639737  0.89363218980341  1.0037419737064  1.10444421516946  1.21128377193903  1.3352911526516  1.46008018926191  1.60111541936301  1.71647718401234  1.82273429144282  1.89727739827275  1.95607088607148  1.98732878503836  2.00949912263341  2.05075047087227  2.10810777750903  2.17256228855348  2.22463655845003  2.09999785469751  1.9657483440996  1.8906276096926  2.01810047828676  2.10898700364397  2.20575878364987  2.321228680451  2.37055783232552  2.42827434806982  2.46161503447075  2.46239592179675  2.38094802339191  2.30710221640175  2.24802351680825  2.1015918500863  2.00314759161251  1.74849615264832  1.49270883634718  1.26262955794825  0.896866755901297  0.808138301024254  0.736755272845773  0.685002585211293  0.648307656035054  0.605244854027264  0.623766424062145  0.580126403972286  0.650385062369627  0.594375572630918  0.482081434253346  0.483460249324267  0.485207870777014  0.487165053741561  0.488909393455709  0.490273343606119  0.489999999353477  0.489999999701206  0.489999999642478  0.489999996354355  0.490000000643172  0.490000002318933  0.489999998577738  0.489999997893058  0.490000000761132  0.48999999970914  0.489999998933325  0.490000000130329  0.490000000035968  0.490000000602897  0.490000001309414  0.490000000681617  0.490000002107776  0.490000001266028  0.489999999016312  0.490000000232026  0.489999999976109  0.490000002360404  0.490000000110189  0.490000000486782  0.489999999940121  0.490000000013349  
0.489999999421165  0.489999999705082  0.489999999692826  0.489999999681336  0.489999999670775  0.489999999661334  0.48999999965323  0.489999999646718  0.48999999964209  0.489999999661725  0.490000000035999  0.49000000111422  0.490000000297508  0.489999999213823  0.489999999253145  0.489999998246406  0.489999999007353  0.542556848192238  0.612223348882532  0.6898238606127  0.775169613215828  0.857531743543309  0.950562373262675  1.0601410466855  1.1572567718266  1.2609225885931  1.39003267797423  1.5415917186099  1.68273901455585  1.82044354962942  1.94557189675286  2.04341205723431  2.1212602330428  2.18773472514175  2.25066416814877  2.32703522945709  2.43119473966007  2.54429949127383  2.65487501057139  2.54661402916892  2.40784422184357  2.31526010082099  2.40868362842988  2.45384364227688  2.50282554583628  2.57425186971414  2.55043425365203  2.52767741103361  2.54141248879608  2.48450781090246  2.43725582271293  2.35334938082654  2.23377975383789  2.16170884317245  2.11365310593407  1.87680436144683  1.64243421311603  1.42593268018402  1.04326205877686  0.941814840383923  0.850524752316734  0.785303615693599  0.721807098119937  0.666002408165618  0.687572085957091  0.628437863829776  0.616262894509621  0.559814755884315  0.481553626029959  0.48263946661939  0.484094449034573  0.485964723302385  0.488048941065418  0.48991827078331  0.491108103520668  0.490000000292555  0.490000000540019  0.490000000412568  0.489999999521627  0.490000000801647  0.489999998265154  0.490000000843041  0.489999999906973  0.490000000379338  0.489999998887064  0.49000000102464  0.489999999950742  0.489999999848098  0.490000000616204  0.490000000675339  0.490000001107733  0.489999999571996  0.489999998891972  0.48999999867309  0.489999999244469  0.490000000821369  0.489999998696066  0.489999998649662  0.489999997631425  0.489999998910729  
0.489999999934246  0.489999999531513  0.489999999548063  0.489999999562601  0.489999999574531  0.489999999583067  0.489999999587153  0.489999999585349  0.489999999575642  0.489999997050912  0.489999997290151  0.489999998127101  0.489999999439935  0.489999999486709  0.489999999325585  0.489999999070466  0.487063474267151  0.54932149054559  0.628315733570191  0.717595206107942  0.813164262093167  0.907902600931861  1.00838113988826  1.11867317274889  1.22231560936977  1.33091521840674  1.46583599082372  1.61786808151961  1.77007119256659  1.91915155108895  2.0664391156235  2.19193775656498  2.28399558796297  2.36765584180643  2.45388352002212  2.55292210155793  2.67362848695094  2.7833724370771  2.85670056123138  2.83794993504482  2.76162286213508  2.68381723521508  2.75447102736057  2.76934184542647  2.79121402412444  2.73057121798019  2.74129045289454  2.68931691584518  2.66181038303454  2.59213597503382  2.52790680552643  2.43423403882033  2.31363739923235  2.24348779982253  2.21087559230404  1.99459029837174  1.77452806711786  1.57161773702666  1.17957846178692  1.07839471401142  0.96974513489247  0.878473793850397  0.805399167467389  0.729144341512636  0.741737570994506  0.669151864904703  0.650264132787361  0.58147478227791  0.481455051899725  0.482240089365544  0.483273717051337  0.484481532882005  0.486211235453448  0.488403251996835  0.490540523058734  0.491490174581727  0.489999999521077  0.489999999872075  0.489999998857929  0.489999999786602  0.490000001535711  0.490000000888735  0.490000001534626  0.489999999688448  0.489999999557988  0.489999999576487  0.490000000605368  0.490000000428458  0.489999999963378  0.489999999653273  0.489999998486299  0.490000000957184  0.489999999872464  0.489999999036905  0.490000002693075  0.490000002757938  0.490000001019081  0.49000000104902  0.490000000306708  0.489999999121688  
0.489999999682217  0.489999999779283  0.490000001951521  0.489999998422349  0.489999998507134  0.489999998593382  0.489999998681134  0.489999998770484  0.48999999886164  0.489999999018299  0.490000000462812  0.490000000508344  0.490000000808984  0.490000000085878  0.489999999779113  0.489999998271632  0.489999999519567  0.554018151928769  0.643479699258571  0.744214549473733  0.851672724539488  0.959615386434597  1.07092166467659  1.18543082893692  1.30020706706467  1.42064825772319  1.55370588515166  1.69860900917062  1.84895861280655  2.0022195253469  2.16513474752859  2.32263645769485  2.41631896619999  2.51354376594466  2.61615677862918  2.72983330742342  2.85922681963278  2.96785293739333  3.04876699677946  3.08116315806525  3.05856203349001  3.00272110138381  3.0631377711234  3.0682374642436  3.00426727428849  2.97354119600163  2.9011969248115  2.86661650893658  2.81708091573444  2.75526489593469  2.66976511514988  2.55434335883296  2.42535647548147  2.35601546771414  2.21016225254794  2.11167810827431  1.90353810324409  1.72157342225369  1.32810359397537  1.20287479142667  1.08132600968282  0.974916654012881  0.884635977112645  0.794660624331305  0.779192828581525  0.708386870387833  0.678913298995121  0.606267653847963  0.481003450594512  0.481827887649141  0.4822727213827  0.482817724101579  0.483657830347567  0.484606201247061  0.486072789290089  0.489602899616294  0.490000001384342  0.490000000460586  0.49000000002339  0.490000004157106  0.490000000429366  0.490000001554057  0.490000000520811  0.490000000870205  0.489999999378764  0.490000000383519  0.489999997339447  0.489999999655857  0.489999999078919  0.490000000856538  0.489999998998311  0.490000000753167  0.490000001278144  0.489999998931115  0.489999999969487  0.489999999061566  0.490000000171033  0.489999999384161  0.489999999391095  0.48999999889406  
0.49000000121705  0.490000000706917  0.490000000707918  0.490000000734194  0.490000000747709  0.48999999889671  0.490000001149613  0.490000001115686  0.490000001070887  0.489999999186364  0.489999999018881  0.48999999761587  0.490000000203981  0.490000000023638  0.489999999051776  0.489999997672851  0.48999999959034  0.556273459108829  0.657949753767494  0.770698926673487  0.890193487803428  1.0074482568775  1.13001550645072  1.25639186717172  1.3809569931894  1.50835390290891  1.64221161448849  1.78205345279908  1.92183831299875  2.06443231739791  2.22408973452972  2.38078376886862  2.51010106696539  2.62751190274719  2.74429947867359  2.86814105871819  3.00565978164517  3.11427479049247  3.21752056703566  3.29815723179333  3.32556212409226  3.29174248605318  3.32785187842221  3.26065667416849  3.21238058072893  3.14145327820571  3.08560451572309  3.03218526154042  2.97010335443377  2.89100442150093  2.79575653558328  2.67877659170337  2.53935304246669  2.39010060328965  2.3211673336805  2.24669498565922  2.04386510051275  1.84981722774386  1.4593212089831  1.32390846440961  1.18825315222402  1.0681082809422  0.96374142337449  0.860376154734428  0.829283486938681  0.738580194580728  0.699018228132703  0.61672157415207  0.480690771354217  0.480899229931929  0.481064827401037  0.481057749072341  0.480856525139672  0.480812416097997  0.479624485489103  0.483622137858855  0.490312882159202  0.491394963614814  0.489999999592323  0.490000001247209  0.49000000163289  0.490000000554143  0.489999999984872  0.490000000098709  0.490000001133991  0.489999999330103  0.489999999378191  0.490000000062247  0.49000000019771  0.490000000036986  0.490000000818931  0.490000000156827  0.490000000349613  0.489999998256846  0.490000001720474  0.489999999978591  0.490000000024062  0.489999999738481  0.489999999805409  0.490000001267251  
0.489999999634228  0.489999996481802  0.489999996446025  0.489999996409309  0.48999999637187  0.489999996334118  0.489999996296799  0.48999999626124  0.489999996229811  0.489999996320631  0.489999999965014  0.49000000023729  0.4900000007937  0.489999999764744  0.490000000892952  0.490000000188479  0.460770186691314  0.555572596698589  0.673338937704428  0.801255170848856  0.934283224943339  1.06442692019409  1.19838869857438  1.33173567202126  1.46521716851532  1.59879887546165  1.73528838885332  1.87291874248499  2.00271664249799  2.12085431534642  2.28073759095408  2.44163417673067  2.58510307970299  2.71499798636016  2.84267405777688  2.97462751493812  3.11764860507476  3.235542004879  3.35874793549901  3.48287371876203  3.57298990144139  3.54826434279589  3.54362265612159  3.46759998231395  3.39240683632235  3.32856109890937  3.26941658903108  3.19756279272966  3.12377080367959  3.03591582919821  2.92738540313772  2.80614653767417  2.66530347569206  2.51170060211387  2.4552234017779  2.36224369431283  2.16521133760653  1.97044848725976  1.58537836506496  1.43956480860176  1.29436076402108  1.16840232848711  1.04355476148008  0.925033369949153  0.876278466197838  0.767994006618663  0.707527279772291  0.613564947685799  0.480337606089501  0.479999999251036  0.480000000864486  0.480000000256575  0.480000000020304  0.479520883091656  0.478575224093399  0.479143874888056  0.487001705346293  0.489899339005996  0.490628821384971  0.490000000241403  0.48999999969555  0.48999999968171  0.49000000017169  0.490000000533038  0.489999997727058  0.489999999718393  0.489999999170467  0.490000000463642  0.489999999657093  0.490000000473453  0.490000000024345  0.48999999966324  0.489999996949589  0.489999998727563  0.489999999613765  0.490000001182427  0.490000000877531  0.490000000753549  0.489999998831442  0.490000000092583  
0.489999997135169  0.489999998994028  0.490000001631736  0.490000001356625  0.490000001428161  0.490000003601526  0.489999997923378  0.489999997921987  0.489999997925077  0.489999997915857  0.489999999089212  0.489999998098278  0.489999999999549  0.490000000066685  0.489999999027743  0.48999999855654  0.441800750104595  0.554401808840851  0.690355700258469  0.835370103097108  0.983698250568926  1.13070105198542  1.27585547243044  1.41842653789779  1.56019291467846  1.6978947110736  1.83875219748707  1.97694919831781  2.10339437551792  2.22633294354981  2.36570080775178  2.51203695706831  2.65028039094202  2.78285928330737  2.91414886856492  3.05155500195398  3.19707942065807  3.32978599668519  3.45974244777782  3.59482171708184  3.70459484694246  3.69977760446524  3.69228575262389  3.60914062007748  3.55909752034643  3.50460757460283  3.44392650028435  3.36668035104821  3.2874897193175  3.19003109455832  3.07267324620446  2.94073386375155  2.79867438828737  2.63996972073693  2.57363812022218  2.46179441850677  2.264844718004  2.03928791949134  1.62858389874147  1.49036499504272  1.34779737248365  1.21865266701821  1.08987400482273  0.966462609726961  0.882496018843651  0.776037985077958  0.672211760054013  0.596939999791757  0.479999999218939  0.479999999246615  0.479999999807514  0.47999999976395  0.480000001757739  0.479540609553142  0.478771779856654  0.479834444663957  0.483423667368353  0.487221417182552  0.489405444232364  0.490031519351066  0.49034993627091  0.490000000232225  0.490000000106056  0.490000001152957  0.49000000119685  0.490000000083221  0.49000000034293  0.490000000494074  0.489999999641506  0.489999999667995  0.490000000266012  0.490000000114191  0.490000000110709  0.49000000108897  0.490000001306574  0.49000000131649  0.490000000519143  0.490000000512309  0.490000000142605  0.489999998972205  
0.489999997710132  0.490000000315144  0.489999998017963  0.489999998801538  0.489999997508326  0.489999999212756  0.49000000043601  0.489999998794892  0.489999999771383  0.489999999763718  0.490000000408616  0.489999999552073  0.490000000459843  0.489999999938686  0.489999999753735  0.362304384146996  0.438310253020751  0.560847596863436  0.7132851871873  0.87596536500194  1.03978535063858  1.20176088700087  1.35480831767224  1.50554141611795  1.6601121950589  1.81229380330316  1.95967427788981  2.09332163882986  2.21365449801685  2.33071993954227  2.45401189986934  2.58235118114118  2.71128914559604  2.84005353188575  2.96691238532518  3.1018301549116  3.2473294890923  3.38099749598149  3.51098360210899  3.64212519767828  3.72511008335135  3.7494253227292  3.78427584219654  3.73829453187002  3.7013573340741  3.65093970865367  3.59590997844347  3.5215865508493  3.43678614440726  3.33181938931978  3.21232002167403  3.08213424587519  2.93786501616811  2.7705041545667  2.68827696673717  2.52843627164993  2.3761960447257  2.1809419584597  1.90959908722251  1.60161255330104  1.45127145763511  1.30606229513037  1.16676349043535  1.02100430487579  0.925120989591484  0.801852899540955  0.68078372439812  0.583383197037883  0.480000000600509  0.480000000196493  0.479999999920426  0.480000000298424  0.480000000555485  0.479529984548163  0.479616328843021  0.479585344483149  0.481692439088155  0.484850903554355  0.487328531864976  0.488901929297445  0.489688495149771  0.489889341859128  0.49007548583758  0.490268622450436  0.489999999991236  0.490000000090953  0.490000000463684  0.489999999376133  0.489999998953665  0.490000001137326  0.489999998193938  0.48999999797223  0.489999999454599  0.490000002340514  0.490000002327694  0.489999999239491  0.489999999884723  0.489999999886728  0.48999999917027  0.489999999864471  
0.490000000299715  0.490000000600044  0.489999999654377  0.490000001368395  0.490000001018901  0.490000000442565  0.489999999819951  0.490000001136236  0.490000001107465  0.489999999593604  0.489999999514606  0.489999999195249  0.49000000039462  0.490000000432896  0.489999999995707  0.347003729717793  0.436666012451893  0.573079395962065  0.744079751989364  0.92626327534772  1.10621122643939  1.27778159147786  1.43341696027884  1.58837895115764  1.75838031238302  1.93178070756342  2.08878118070565  2.21482877175102  2.32043116344369  2.42237704368863  2.52959337330966  2.64263744668401  2.75790130704187  2.87752362738956  3.00130965511647  3.13045775233088  3.27148916986402  3.40292061005091  3.52942599631083  3.64247001542743  3.74166647322949  3.77925129581012  3.85180188525629  3.82971289940085  3.81455316626556  3.78131593052909  3.73735446042064  3.66812558086539  3.57965197294073  3.47576433485645  3.35773032869887  3.22024049903127  3.06573842682033  2.90327926831524  2.80773235730467  2.6392376592762  2.47896627794942  2.27948287896516  2.00427933680438  1.70355441181004  1.54408217987932  1.38857910018344  1.22254524552829  1.07613660375124  0.962420091042255  0.827155229386587  0.691544688529577  0.575639903515449  0.478285323288796  0.479999999316673  0.47999999991802  0.479999998235973  0.480000000615505  0.479654224137709  0.480000000051993  0.479939018465109  0.480774912867738  0.483527187543937  0.485758081664457  0.487474580886101  0.488613407499215  0.489278190044581  0.489681936337282  0.490034179384429  0.490385020771628  0.489999999634287  0.49000000006695  0.490000000616275  0.49000000022694  0.490000001663664  0.490000000564601  0.490000001927407  0.490000000717011  0.490000001928327  0.490000000359539  0.490000001134479  0.490000001141828  0.490000000616556  0.490000000655575  0.490000000903129  
0.489999999732789  0.48999999980235  0.489999999156975  0.48999999885822  0.489999999318769  0.489999999544895  0.489999999966409  0.490000000043027  0.490000000063913  0.490000000082069  0.490000000362746  0.490000000216257  0.489999999899564  0.489999999842574  0.291053060710799  0.349536095512254  0.439387245090065  0.589951436271841  0.787054718974021  0.992498269792662  1.19150488275117  1.36888148951761  1.51819015234352  1.66083011295625  1.8510863385738  2.05446493938967  2.22656769627642  2.33165877072657  2.41186282898346  2.49403423217393  2.58507887323361  2.6844925398278  2.7857125238506  2.895767432174  3.01309044413895  3.13977825860742  3.27363964020716  3.40049829679045  3.52562452090022  3.63908172530485  3.74789578050109  3.81382211464707  3.8740050104748  3.90361696559354  3.91018718120271  3.90037331455689  3.86312617336759  3.80965169091794  3.72976902743016  3.62294936242825  3.49884300291538  3.36336727247999  3.20205374429511  3.02940498151118  2.84409542079331  2.73540507117889  2.57203439010358  2.37539604916109  2.10082000029558  1.80074094955311  1.63274816269952  1.44929615906006  1.2853256821076  1.13148833059644  1.00628357296282  0.858218188225775  0.707580365412912  0.572290837560308  0.473595711746834  0.480000000557051  0.47999999919294  0.479999999928528  0.479999999766832  0.480000000630556  0.47998823477225  0.480136072757197  0.48093738294938  0.482867299920217  0.48490694216302  0.486457224166311  0.488279103091639  0.488908243051812  0.48937192880291  0.489740512931648  0.490162659314929  0.489999999800328  0.490000000270273  0.490000000499699  0.489999999262276  0.49000000286257  0.489999998923813  0.489999999374159  0.4899999995186  0.490000001137941  0.490000000017367  0.490000000068517  0.489999997534729  0.490000000502834  0.490000000517914  0.490000001519732  
0.490000000236046  0.490000001105096  0.490000000961001  0.490000000436415  0.489999999859287  0.489999998747844  0.489999999971321  0.490000000630659  0.490000000572513  0.489999999769912  0.489999999695088  0.49000000011633  0.490000000470422  0.489999999975731  0.299466973770175  0.356305859266581  0.450656245255031  0.620927257630125  0.836705304392014  1.06613742856765  1.290923969488  1.48683007616239  1.63338026178278  1.73251760307723  1.95104886429166  2.16509189763617  2.36001984229666  2.41633022856896  2.47209319610684  2.5373054598468  2.6135873859349  2.69860836672456  2.7930669278832  2.89347612217644  3.00532534955384  3.12768429225303  3.25566760517447  3.38204895705761  3.50708802675002  3.62477027326932  3.74293424236317  3.8300097205397  3.9112822635874  3.96300269601062  3.99762990381766  4.00543103935243  3.99169139001336  3.95592633457757  3.88607050530566  3.77476059376543  3.64642293061407  3.49480956213122  3.32953331595167  3.14354881247531  2.94625147706281  2.84290625628486  2.79180561210619  2.5747721469366  2.19073781990094  1.9010793445324  1.72501014735669  1.55226956814915  1.38163094852225  1.21726815717136  1.0541792674416  0.915175864101768  0.749800320284899  0.595812826204914  0.467743652152122  0.418617682206289  0.404592559223892  0.480000000038863  0.479999999535169  0.480000000985996  0.479996856339495  0.480422341497311  0.481162057293857  0.482788861937463  0.484466435505979  0.485911901148564  0.487731222042648  0.488461314285623  0.489039136307431  0.489505914400669  0.490012606890803  0.49000000020803  0.489999999965087  0.490000000348846  0.489999999778637  0.490000001080243  0.49000000012224  0.490000003987216  0.489999999034916  0.489999999093184  0.490000001472265  0.490000001448311  0.490000000224696  0.490000000223087  0.490000000838188  0.490000000838855  
0.490000000008458  0.490000000392972  0.490000000627953  0.489999999973135  0.490000000340871  0.489999999846902  0.489999999681466  0.489999999762858  0.490000000454133  0.490000001136422  0.489999999358259  0.489999999817936  0.489999999853629  0.265170955737852  0.311283910134672  0.374789518476699  0.474660729221036  0.658715260230287  0.888805842717658  1.14045346789512  1.40025650654231  1.63370240757838  1.79836331134634  1.9280018332684  2.0780281608045  2.23615935097279  2.36402869985487  2.43746983761368  2.48990369879621  2.54797270684986  2.61566391473452  2.69078826232026  2.77645586239867  2.87395435599988  2.97948623767018  3.09890728732491  3.22465000339299  3.34924794652989  3.47573631398778  3.59949289175528  3.71812597487957  3.83792025839202  3.94076309722169  4.01659707319133  4.07317784894673  4.10946529489204  4.12212291432497  4.09368340136741  4.02862490806879  3.92612103496322  3.78631269788653  3.53406925573301  3.44127775770035  3.2497136978699  3.2976465365623  3.08517346622658  2.85750310424776  2.64276440654933  2.27797003412781  1.99923265389018  1.8167732845056  1.63756887576006  1.46034264502184  1.28897174159197  1.11793049439003  0.968816339398443  0.802505249726498  0.6457977680251  0.508777300987326  0.43921235065181  0.419511370469638  0.419995861519056  0.480000000455394  0.479816318742582  0.48012264009828  0.480682985149705  0.4824884532944  0.482783264047116  0.4841111251578  0.485538076029724  0.486632108127292  0.488145645234211  0.488831346720879  0.489354081148354  0.489892749709938  0.490000000018561  0.490000000219874  0.490000000617965  0.490000000723491  0.489999999343247  0.489999999943868  0.489999999817522  0.489999999394513  0.489999999414247  0.489999999414996  0.489999999810012  0.489999999811926  0.489999999815516  0.489999998411856  0.489999999746357  
0.490000000264803  0.489999999312359  0.489999999301622  0.490000000161719  0.490000001230589  0.490000002176913  0.490000000399519  0.489999999614797  0.490000000088328  0.490000000721806  0.489999999969872  0.490000000285597  0.490000000053895  0.296419543103865  0.342086348170771  0.401090522447805  0.505353504866084  0.697804335494823  0.929777953320633  1.19018018255334  1.47873808255782  1.78418888632319  1.94616754844355  2.07487484207568  2.17329891349171  2.27645224849045  2.35905047617367  2.41694439242732  2.46981554842523  2.52751678300034  2.59382806788018  2.66492871671928  2.74071280448026  2.83293591795593  2.94146280925174  3.06074846361755  3.18131253015586  3.30472211148162  3.4330010458926  3.56528655589751  3.69562770418315  3.84667726268022  3.96169818240907  4.06206434779923  4.14600820085123  4.21206076319942  4.2429997144378  4.23253909756213  4.17382522678364  4.06324358312495  3.90905139567893  3.67318708444829  3.54855656016772  3.54014206123509  3.35921517482755  3.15153127487634  2.92465643304375  2.71251456042215  2.35795922311207  2.08908680692784  1.90157627059833  1.71780934839256  1.53630737217711  1.36199527608493  1.18832865752816  1.03413774366952  0.869913658167485  0.716162479588435  0.568243992907923  0.471942074152978  0.450473003975317  0.452410079521992  0.47986706296057  0.479927571753293  0.480321341110298  0.480987484224599  0.482531030735946  0.483762096979504  0.484127680042419  0.485419423763593  0.486442663378589  0.487985266126651  0.488687590716863  0.489247730520347  0.489795969194706  0.489999999431948  0.490000000149878  0.490000000081998  0.490000000871481  0.49000000062186  0.489999998591799  0.49000000344462  0.490000004130423  0.49000000401459  0.49000000398092  0.490000003945669  0.490000003909602  0.490000003873211  0.490000003836824  0.490000004355186  
0.490000002026754  0.490000001209072  0.490000000465125  0.489999999757826  0.489999999773326  0.489999999374463  0.490000000108795  0.490000000029913  0.490000000280112  0.489999999237929  0.49000000015407  0.490000000091355  0.37600371469005  0.371257544208096  0.385398072872805  0.447261795118407  0.558386625573519  0.736429139800301  0.949687542592673  1.19174463674009  1.45936122849683  1.72880099724606  1.96303281750937  2.11150593311895  2.18639640851157  2.27666357275202  2.32296889514231  2.35728083819811  2.41203404277196  2.48279649593039  2.55764979913523  2.62479620773133  2.69023235776473  2.77726916548941  2.89205130596996  3.01320433637562  3.13135688184081  3.25092779371506  3.37894750181637  3.52018267926267  3.66658854464344  3.80624158739044  3.96085625479585  4.08622592307765  4.20144876279513  4.29093887681247  4.36049640038359  4.3899669682378  4.35595942040086  4.19016586751655  3.98607835894961  3.80200360191882  3.78184712410393  3.59988214819763  3.41233377812121  3.2066985627183  2.98010434117343  2.76427268094291  2.42785783957361  2.17428179151821  1.98319660523902  1.79769222494348  1.61246050708873  1.43572057014678  1.26164166751866  1.10818571165805  0.947517033546128  0.800728249161046  0.660057499384204  0.557076457528042  0.508792705293702  0.488703556489756  0.481495848036523  0.473724212900628  0.466812502849179  0.463209101631214  0.450030423234018  0.446159346282424  0.455738498773182  0.460245718306076  0.451619560969585  0.63829902008474  0.604186304261843  0.5689022912559  0.518567524749451  0.490000001322687  0.490000000171082  0.490000000285061  0.490000000388185  0.489999999836347  0.490000000601702  0.490000000948235  0.490000000716334  0.490000000067711  0.490000000071003  0.490000000072972  0.490000001151364  0.490000000138722  0.490000000830295  0.490000000159274  
0.489999999962766  0.490000000784201  0.49000000076042  0.489999999587654  0.490000000819165  0.489999999662477  0.489999999693102  0.489999999002861  0.489999999273645  0.490000001371661  0.490000000443026  0.490000000273588  0.381689989817579  0.407060742675014  0.451479040535572  0.510217527619747  0.618992387862374  0.766479543337169  0.944942224742335  1.14742670301603  1.36528802736616  1.58975724548641  1.80407974026068  1.96911660505542  2.08641151130983  2.19597845767735  2.21390213722345  2.23897535640167  2.31509370759897  2.41630093885765  2.51265844405873  2.5898441853973  2.64510032735521  2.72512269412915  2.84945036258423  2.9693949262237  3.08159801160383  3.19136450729286  3.31464029711125  3.46690384409764  3.63163728186656  3.78573905251239  3.96403981409081  4.10572973029156  4.23933788948034  4.35355516027166  4.45017723601397  4.51636613069521  4.4582449196788  4.28135083894907  4.09448183543411  3.9290763560738  3.83461187138437  3.64617918802382  3.4527027966314  3.25511222988095  3.03190885523008  2.81713117771494  2.48733158507474  2.25152079051429  2.05987257938872  1.87332349276402  1.68864469204482  1.51155790862118  1.34083104104208  1.18893260493703  1.03486603303368  0.896021495118011  0.756083973175218  0.651921854576693  0.578038823948496  0.537281591447483  0.501603522554245  0.488657701825205  0.491051557711271  0.480538290517555  0.463610849174828  0.465565738384181  0.468878570101934  0.468320426892607  0.471138665335455  0.474820137241635  0.619185933389367  0.578258459575947  0.523117406334913  0.490000000065519  0.490000000136166  0.490000000570243  0.490000000456794  0.490000000368102  0.489999999907447  0.490000001626656  0.490000001990042  0.490000001895998  0.490000001872849  0.489999998829831  0.489999998864965  0.48999999986984  0.48999999923096  0.48999999982597  
0.490000000613528  0.490000001670722  0.490000001660261  0.490000001327124  0.490000001307158  0.490000001903048  0.490000000585536  0.490000000552541  0.490000000505206  0.490000000365075  0.489999999487788  0.385097918910245  0.4001756196141  0.43392458536005  0.486535130157328  0.559061124874431  0.657903280096955  0.782141949434644  0.922747589864666  1.08017818954931  1.24061762033909  1.41082379716979  1.61089762871835  1.7845276541862  1.9111509311952  1.98897921129339  2.00850770180842  2.05556221699164  2.19098626221749  2.34331412963587  2.47509239269064  2.56673010134058  2.63547451089755  2.71841584806681  2.82390422680221  2.9360102085926  3.04100163616663  3.13927420842778  3.23890994432778  3.41789643158453  3.60032156261041  3.76550753544977  3.95973295437106  4.11355171255644  4.25621051229972  4.38284437680239  4.5032913282134  4.58707070895108  4.52708021291588  4.35942446785192  4.17756938394763  3.99082376286028  3.86401212959641  3.67832642546057  3.48349242810797  3.29243611321123  3.07461518719809  2.86230967765204  2.52718642212211  2.32348580891674  2.1311857148164  1.94498647822893  1.76323554712498  1.58747703082808  1.42016760317866  1.27232806483633  0.98278196272614  0.88676952376422  0.760030465316228  0.669213787196068  0.614611537878029  0.568711805017851  0.530504238298296  0.521851580267322  0.522293140545871  0.508557636533058  0.489920579372357  0.484722303770808  0.484026154942892  0.485491476657305  0.487210369120765  0.480203918397581  0.617344931196476  0.575862641367265  0.522684316873854  0.489999999973792  0.489999999839763  0.489999999895714  0.490000000103673  0.490000001398159  0.490000000169698  0.490000000332263  0.490000000537196  0.490000000934772  0.489999998475863  0.490000000590383  0.490000000253958  0.490000000390917  0.489999999467379  0.489999999634795  
0.490000001405931  0.489999999997435  0.489999999976854  0.490000000091385  0.490000000117016  0.490000000145471  0.490000000175272  0.490000000203366  0.49000000022409  0.490000001162469  0.489999999678062  0.403184958591722  0.430931355572337  0.467185217606012  0.513698288675605  0.590793575814207  0.682502199513583  0.78496787421925  0.90206663690128  1.02255068332987  1.13401528541869  1.2432025636858  1.44664703465356  1.61356320355391  1.73506404729172  1.80778389825558  1.80307352041944  1.83039072396986  2.07856816446081  2.27516239561056  2.45318166924906  2.54719852654438  2.61773741179059  2.70188913334685  2.80277634181979  2.91114576818458  3.01628942107738  3.11982610024963  3.23790174552915  3.40014428145074  3.57906829724973  3.74497377722602  3.94722000158483  4.10721594337648  4.25185960590089  4.39184222590398  4.48708418961572  4.53551646024843  4.48728100818499  4.35894812675283  4.19699446815624  4.01987992892636  3.87683533585241  3.68821590878475  3.49529066024503  3.31458777436091  3.10278216741169  2.89642851513221  2.57886185918399  2.38369687547339  2.17325100265262  1.99022870904066  1.81164877103163  1.63816681633148  1.47781879832011  1.32790666094988  1.18865101181736  0.931951302187178  0.80771810521747  0.7303503019718  0.648823700963963  0.602091080640699  0.552784625415632  0.544568261038566  0.540588662161134  0.525044143380064  0.493862164739999  0.486968614235316  0.482440582330963  0.48275837032287  0.483282375952301  0.487555586079499  0.513557587544659  0.586198752665242  0.490000000064411  0.489999999805734  0.490000000105037  0.490000000510706  0.489999999183576  0.489999999612337  0.489999999430725  0.489999999788743  0.490000000248997  0.490000001209397  0.490000000328366  0.490000000466387  0.489999998892389  0.490000001170475  0.49000000033946  0.490000000286275  
0.490000000793343  0.490000000668486  0.490000001737815  0.490000001737666  0.49000000018229  0.490000000166333  0.490000000146872  0.490000000123478  0.490000000095962  0.490000000084363  0.490000000274555  0.423422091722435  0.452586237960434  0.489941387276177  0.54388913631027  0.615707130151961  0.698633426821651  0.780154849118109  0.878544395993284  0.979944668307966  1.08237020844176  1.19665605048252  1.34174675746554  1.48170498662201  1.59207851045631  1.67129038787476  1.71198597435576  1.85294066950991  2.02135501842996  2.18901591639135  2.36329199294248  2.47933489678335  2.57026394658439  2.66581710197244  2.76862746408485  2.88588451475752  2.99727436239216  3.11312405986652  3.24690515102396  3.39532759760953  3.56442897320618  3.72250065572354  3.92800600436401  4.10599403449793  4.25019659901712  4.36609703766905  4.4512713169243  4.47266197674372  4.43042607129923  4.32349043682444  4.18241127500171  4.01992570253239  3.8664157689767  3.68108021146068  3.49005300609473  3.29639632041419  3.11911707614296  2.91840404073577  2.61997096766941  2.42439047355747  2.22441265415219  2.04490402944162  1.86990148791501  1.70108408216374  1.54518167236099  1.39729289310114  1.22891142376187  1.09240804148035  0.836823847487667  0.756483879818737  0.693947299356048  0.64174301437012  0.586830222761417  0.578598082673047  0.569546010983176  0.550239907641563  0.515525421280151  0.500749067807034  0.49467209427828  0.490369915871879  0.488700737335438  0.492730597864883  0.523934915707476  0.59802932008209  0.489999999668398  0.490000000414586  0.489999999670822  0.490000000017489  0.489999998368232  0.490000000485285  0.490000000259589  0.490000001388064  0.49000000077728  0.489999999855361  0.489999999990898  0.489999998878514  0.490000000424676  0.490000000570609  0.490000000640577  0.490000001343148  
0.489999998728213  0.489999999176347  0.489999999919192  0.489999999922497  0.489999999926196  0.489999999929553  0.489999999931265  0.489999999929438  0.489999999922108  0.490000001093648  0.490000000229457  0.449146255120829  0.475228267295923  0.506759664130526  0.570223233534165  0.635123829577556  0.707513857092839  0.776251713878105  0.862308096493961  0.952833492421908  1.04874998898223  1.15043816659817  1.26807098081746  1.38204807336949  1.48418340351047  1.57168175274414  1.65695359675948  1.78283706311933  1.91850464175217  2.06396249302183  2.22492472954641  2.37103715568604  2.49622121557503  2.61166903238128  2.72529833023323  2.85558961027895  2.97537437633694  3.09931111828005  3.23844326597845  3.37943208568863  3.54056400066156  3.69123664209514  3.89154839694212  4.073816078183  4.2160821316622  4.33010144727428  4.39848194782799  4.41465607469565  4.37177443199126  4.27727950093668  4.15037392144251  3.99383354063593  3.84045110243927  3.66071956275181  3.47424473798711  3.28406933311547  3.12227973048579  2.93026144067113  2.64848125341279  2.45837395738587  2.29086052033745  2.09034068019419  1.92111489579473  1.75597663837228  1.60379123406386  1.41544193725937  1.2719955103728  1.08890177068226  0.883078669924686  0.800576622369594  0.735517641222697  0.679385357413696  0.620434537600592  0.606651391383614  0.592474742633736  0.568041473130715  0.536959751543866  0.519679783704402  0.507849774842571  0.500891449738058  0.49648462344431  0.499433004566847  0.531362741374807  0.488768112650675  0.489999999636001  0.489999999138525  0.490000000151535  0.490000000077501  0.490000000533501  0.48999999991456  0.489999999851603  0.490000002415107  0.489999999959934  0.489999999614259  0.490000001116927  0.490000000157054  0.490000000259589  0.490000000876324  0.490000002097864  0.490000002069551  
0.490000001509074  0.490000001327377  0.490000001233956  0.490000001127875  0.49000000100835  0.490000000875442  0.490000000730711  0.490000000577923  0.490000000422865  0.490000000222501  0.464220327477326  0.461862494036192  0.489178912635555  0.534405786484891  0.587643428161998  0.649573916984143  0.715469706704238  0.7695589487973  0.846649772983055  0.928613117571085  1.01738164692236  1.1059554323411  1.20576960091033  1.30205642761555  1.3951897874311  1.48373891877027  1.57030519674128  1.67223808717036  1.77934573619651  1.91121643993769  2.0870630393261  2.2604048767718  2.4120934420838  2.54543794293825  2.67284888983746  2.78928512054018  2.94215216216733  3.07049863588749  3.21053446525444  3.3447873637794  3.50003952980654  3.64517261548157  3.86473021687767  4.02529278644332  4.17599610312088  4.28681277890535  4.35166058720209  4.36134054630076  4.31480142836327  4.22129826549955  4.10124361026173  3.95581087536611  3.79451044857916  3.62539737110686  3.44432883790312  3.26015112421669  3.11089509956284  2.92841782324262  2.66498081126704  2.4812806594367  2.32319959665427  2.15338912750253  1.96352792264525  1.78855989263414  1.59647607771637  1.3710936832301  1.24657057109582  1.12907209710872  0.922526588925681  0.839062591656285  0.772294700538007  0.712982133304599  0.651071743575441  0.635817817631597  0.608460398875279  0.578905420009469  0.558064670629737  0.536244365126948  0.521073755547125  0.510357663191087  0.503829629838682  0.506607538600143  0.541971728757442  0.488684712639292  0.489999999991223  0.4900000003734  0.490000000160624  0.490000000098948  0.48999999997309  0.49000000048505  0.490000002308949  0.490000001028638  0.48999999963285  0.489999999515102  0.490000000046576  0.490000000047049  0.489999999775292  0.489999999779331  0.489999999165552  0.489999999171629  
0.48999999933603  0.490000000005399  0.490000000012876  0.490000000021895  0.490000000032141  0.49000000004291  0.490000000052833  0.490000000059445  0.490000000059776  0.490000000361282  0.468977188634702  0.47501630923446  0.503863093643791  0.552970196560352  0.60417064646702  0.65804625105562  0.726571597858646  0.765388720259543  0.834591811011499  0.907683526032566  0.985780862854606  1.06124139465105  1.14746313033886  1.23168640835352  1.31718121661506  1.40071467615065  1.47823942322873  1.56614336537401  1.65201492732703  1.75999763240137  1.96504886882417  2.15994325821368  2.3279385836586  2.470946614703  2.60457687349235  2.73338433017864  2.84236869604314  3.02376958053149  3.16021377349864  3.28676889612546  3.4364033498639  3.58301006086919  3.79616044779016  3.9630381532777  4.12456651297361  4.24394372927303  4.31060470035084  4.31364456390577  4.25766773567073  4.15747455136645  4.04099915529789  3.89802995228563  3.73908779759753  3.57653672566619  3.40331636395972  3.22647812346678  3.09253048620754  2.9177991982461  2.67147089422007  2.49163251410863  2.34452318126608  2.16477523328661  1.97878566006525  1.75406114204165  1.52813815265275  1.40096499586483  1.27740215734668  1.16158012181134  0.956004090255632  0.871742502661333  0.803846856665544  0.742420105944986  0.678074636559234  0.659318923354824  0.635543515443268  0.592678302668201  0.575165850567267  0.553399548708069  0.535441393612813  0.521086020547262  0.511526540482995  0.514913226304795  0.556625723195297  0.488583725829447  0.490000000507405  0.490000000557397  0.490000000463524  0.490000000245453  0.490000000147002  0.490000000243409  0.490000000192674  0.490000001004971  0.49000000035072  0.489999999556615  0.490000000743196  0.489999999355167  0.489999999303959  0.490000000230302  0.490000000245412  0.490000000259802  
0.490000000395304  0.490000000356573  0.490000000325383  0.490000000289584  0.490000000248725  0.490000000202508  0.490000000150872  0.490000000094088  0.49000000003308  0.49000000004626  0.474031491572402  0.490080354708328  0.510376088487225  0.569047989095114  0.615591411274123  0.663042422838573  0.725029687081831  0.763675362949936  0.825711196106637  0.890262062221419  0.957871703792822  1.01997843137545  1.09437287232485  1.17136537853399  1.24462887118606  1.32181804859071  1.39375675495089  1.47685242351923  1.569813256177  1.69436869817843  1.8669271372486  2.05952210828657  2.23195154724724  2.3762589200764  2.52235945887445  2.66755224963736  2.78098870663237  2.86440244054355  3.08396071808224  3.20129293205676  3.34428562923782  3.48908910429224  3.70894061234205  3.8782591583744  4.04628189841533  4.18625997429703  4.27196550276278  4.26457055304233  4.17912979254541  4.07944014269797  3.96063441282783  3.82348434261109  3.67367243078817  3.51067189340801  3.34437738219015  3.175181607771  3.05421963136924  2.89000083837867  2.66265695321192  2.47345623572016  2.3105625416365  2.11056213039721  1.91001130641146  1.67743611942173  1.54588571365917  1.42207232536592  1.2990356437387  1.18807921440275  0.983379562322092  0.899383750796778  0.830655008664127  0.76753250760093  0.701945232241101  0.681851976888482  0.652860065558255  0.612738151426742  0.589558435555449  0.569655043829435  0.5483635534419  0.53272171512408  0.52012666504506  0.522733700520975  0.488205992361509  0.488490674461513  0.489999999882073  0.489999999990328  0.489999998382645  0.490000000274127  0.490000000184515  0.49000000016817  0.489999999945258  0.490000000695824  0.49000000043619  0.49000000037904  0.489999999896176  0.489999999878574  0.489999999866469  0.489999999781385  0.489999999782951  0.490000000239076  
0.489999999646085  0.489999999665134  0.48999999961182  0.489999999539864  0.489999999444085  0.489999999318167  0.489999999155638  0.489999998953756  0.489999998720743  0.489999999822063  0.479207689488863  0.498341448720713  0.52179967692372  0.58056282567513  0.62171013156823  0.667005137823657  0.725265331177153  0.759652513364999  0.815021312006277  0.871704859612471  0.930724106853956  0.98186767762658  1.0451903079689  1.11058546005083  1.17607148763691  1.24708930637795  1.31168597245698  1.39446220060556  1.49055914339258  1.61233138483819  1.76129521951862  1.92842402116716  2.0938386136041  2.25169649349396  2.41644168185176  2.58790110923187  2.71179338777115  2.77810413162667  2.96394737958447  3.07941135587838  3.21505893541071  3.41033737055162  3.57805482177219  3.75788949204653  3.94559846966019  4.12232199592014  4.23444342417013  4.20206530566257  4.08837136489552  3.97610665269139  3.86050810008803  3.72704438270722  3.58898882997038  3.4265811881237  3.27157371732148  3.11200790166586  3.00272224903207  2.8315942534688  2.61807413600397  2.45638047486151  2.26083801085685  2.05783746844481  1.91327082557348  1.68136806407884  1.55450696863009  1.43529919259122  1.31399868860724  1.20537343933423  1.00703382284257  0.922833901483553  0.853900558562082  0.790704627310781  0.724656679245557  0.703376420511493  0.672113829468655  0.626018729470566  0.6009611199496  0.584454377250432  0.563948070836737  0.54626114017877  0.532062649475637  0.532148052368672  0.488267982051484  0.488421877377768  0.490000000038199  0.489999999329476  0.490000000525848  0.4900000003869  0.48999999994047  0.489999999935482  0.490000000849222  0.49000000064418  0.489999999352083  0.489999999823992  0.489999999826435  0.489999999872838  0.489999999873075  0.490000001042502  0.490000001040331  0.490000001091122  
0.489999999115328  0.489999999149751  0.489999999251911  0.489999999375902  0.489999999523595  0.489999999694222  0.489999999881567  0.490000000070634  0.490000000236206  0.489999999636896  0.483797977326759  0.505743956314181  0.532405003193722  0.588056747615529  0.626933217918339  0.671367902958784  0.729254822218002  0.757397239191434  0.806428347203253  0.8550966070024  0.88938482036536  0.948440887706652  0.997993274774713  1.05395304636214  1.0802943166154  1.14356309621014  1.21404868018324  1.29001992558389  1.38115317089742  1.48995847684635  1.61798334228461  1.76244142297472  1.91654158055147  2.076467458118  2.26037379868551  2.46865271436947  2.65647151653507  2.73890557447992  2.81079602746495  2.91306316727575  3.04375716190801  3.23399943398013  3.40479845276915  3.59318042523264  3.78487352300297  3.9835882303549  4.15525026127694  4.06497982383219  3.94623280037161  3.8214853800431  3.71391347899762  3.61095495619109  3.48045211654491  3.33002453643705  3.18397797165638  3.01731746585383  2.9481121918742  2.77901775791816  2.60565232052538  2.3734703205504  2.1627620258715  2.04398239921629  1.90521635123325  1.67613878606728  1.55436337354837  1.44081630850138  1.32118071470798  1.2159865304105  0.484103573530464  0.484148279358541  0.484240817127923  0.484370238709952  0.484536827319246  0.484743604643587  0.485487871131602  0.485811607738321  0.486165943722524  0.486527293148423  0.486931544612114  0.487330665215206  0.487747828676277  0.488087033683256  0.488291244783561  0.48865052926619  0.489999999200224  0.489999999812583  0.489999999968832  0.490000000000327  0.489999999525913  0.490000000377801  0.489999999951019  0.489999999874229  0.489999999204504  0.490000000186454  0.490000000117111  0.490000000064124  0.490000000022271  0.489999999988272  0.489999999959996  0.490000000820589  
0.489999999313178  0.489999998018441  0.489999998067603  0.489999998182744  0.489999998336378  0.489999998538476  0.489999998797572  0.489999999107663  0.489999999384322  0.489999999764457  0.488062456180561  0.513041068145359  0.542299337941679  0.592555330125304  0.624023620444572  0.669096162079331  0.717228246432669  0.745901629544718  0.791047417147943  0.831057681048008  0.870785231827393  0.907104242077651  0.950418663801609  0.994485737693247  1.00912673917547  1.06507286459357  1.12120415953813  1.19380472762651  1.27182155997205  1.36442611576058  1.47108693234891  1.59422700471745  1.73030814037109  1.87706889601328  2.05905668461942  2.26793667552651  2.46428727543662  2.52261509862013  2.59499187319665  2.69514631122929  2.82749246592095  3.01452413419296  3.18537012183302  3.37174936716417  3.55337403665126  3.72346836635259  3.8295867508209  3.81956143311978  3.74029573964344  3.63888452679545  3.55480006269448  3.44565605688541  3.34709590925832  3.23329611270386  3.06594956229584  2.92932709340811  2.82638578425311  2.69101203238146  2.44814568077496  2.31920112795479  2.16297871706497  2.05152045438034  1.91756720036057  1.75708507133715  1.54695697778068  1.43733404600005  1.32318448786193  1.21919202523593  0.484456893297041  0.484504255994224  0.484595403476341  0.484719680413481  0.484875645015888  0.48560246523769  0.485801889627195  0.486103265656543  0.486438446531065  0.486794990218935  0.487166359887263  0.487536150083326  0.48786912027585  0.488179956080761  0.488271313572682  0.488623001618009  0.48872915605864  0.49000000056427  0.48999999968552  0.490000000158838  0.489999999640042  0.489999999583295  0.489999999307198  0.490000000961295  0.490000001234878  0.490000000964199  0.490000000762697  0.49000000054706  0.490000000324835  0.490000000100521  0.489999999782903  0.489999999560496  
0.489999999539505  0.489999999563898  0.489999999597571  0.489999999639545  0.489999999685104  0.489999999721282  0.489999999718401  0.489999999617765  0.489999999324556  0.489999999371011  0.493759397569163  0.519960362959816  0.55637769079312  0.594783010185467  0.626796987754132  0.663503705784712  0.706292468151217  0.746379311979259  0.796372102559389  0.815508386918013  0.842652638344422  0.868607758600746  0.903151162458541  0.918511377416089  0.951218384958578  0.988739256625831  1.03160862462588  1.09196792130723  1.15407311290041  1.2256681001465  1.31243507668749  1.40934845924349  1.50398293362482  1.64404396898458  1.80486976618473  1.97347701041677  2.09672410618159  2.20106643217178  2.3140037551197  2.42629342779983  2.5689874920035  2.75691984746373  2.93031638307908  3.11185877969528  3.28044232698349  3.42066907239316  3.5123402329899  3.53377279688791  3.49531616458733  3.42625734047726  3.36365747324278  3.27400467114289  3.17267188543978  3.11173363559096  2.92987535060468  2.83044505932047  2.67606250015547  2.52527530444564  2.41124290149894  2.26903692859896  2.12183754986672  1.99254577147791  1.89112227181656  1.76756670320036  1.62408169415101  1.42792403543237  1.31677589946668  1.21614082688773  0.484788491640473  0.484859444025542  0.484948407173245  0.485069214360839  0.485217953358932  0.485918023182481  0.486110145785103  0.486399192456297  0.486702675116176  0.487028811161742  0.487350778918806  0.487676591978393  0.487966017910161  0.488230650988943  0.488285566993782  0.488564895351276  0.4886489248746  0.490000000989957  0.490000000009759  0.490000000327839  0.49000000008071  0.489999999713907  0.490000000479134  0.489999999818665  0.490000000020705  0.489999997873913  0.489999997825815  0.48999999779429  0.489999997772983  0.489999997758395  0.489999997748435  0.490000000636415  
0.490000000330681  0.490000000330447  0.490000000330247  0.490000000329716  0.49000000032798  0.490000000323088  0.490000000311098  0.490000000285909  0.490000000248972  0.489999999714768  0.497826907463929  0.525276237414834  0.556819598665059  0.594747881390108  0.624098932233892  0.656739716013775  0.69749056811891  0.738130901631195  0.783976647484535  0.829329824647874  0.816352818795264  0.827156065952974  0.869583006393093  0.869994790979173  0.882453220966115  0.913115114589501  0.943393445899937  0.98946665675345  1.03396853144237  1.085834960375  1.14495077915582  1.21617948551593  1.29658999150859  1.39398113450022  1.52005845512871  1.64537058997871  1.72093611933333  1.8361923582695  1.98526271223244  2.11498284667357  2.28497250540002  2.47003274328188  2.65046711250662  2.82975662386121  2.98739503860818  3.11913650888382  3.20570814193793  3.24599665302053  3.22950439877102  3.18920324015518  3.16538085671897  3.09944990512175  3.01771287949553  2.925051545366  2.77707652733853  2.66588744236234  2.52459119589517  2.47356432400905  2.34393346777301  2.21208616332829  2.08500812304768  1.95067365633287  1.85730521530704  1.74087191728384  1.63253962650341  1.50087292689201  1.30557394692918  1.21053091242933  0.485128312220941  0.485197338594475  0.485285366964417  0.485402543164445  0.485543395263631  0.486208562999449  0.486403334530075  0.486673476143763  0.486931391832875  0.487229663955717  0.487509689761425  0.487772011655871  0.488015282877355  0.488216564814888  0.488185946322766  0.48848927950234  0.488574134778268  0.490000001190604  0.48999999883902  0.48999999990352  0.489999999849779  0.489999999071342  0.489999997300589  0.490000000715293  0.490000000628458  0.490000000521491  0.490000000449243  0.490000000391108  0.490000000344296  0.490000000306323  0.490000000275227  0.490000000175346  
0.48999999929155  0.489999999319888  0.489999999354795  0.489999999397461  0.489999999448352  0.489999999505171  0.489999999557148  0.489999999570251  0.489999999460855  0.489999999048685  0.50020401220907  0.528836163297358  0.560431586336439  0.593732540505478  0.621628196293916  0.650228067114907  0.688102726596904  0.723551031321456  0.763695759075339  0.807264128467252  0.852646681981395  0.804875613375169  0.824840980743567  0.815229659620035  0.818108420584777  0.838271194701039  0.852783361158779  0.887957277406408  0.917653117064367  0.948741670654109  0.982869785908282  1.021920658917  1.06942737553026  1.12683623158526  1.21387546952568  1.30312798274726  1.34484065642094  1.50053303988392  1.63045090973762  1.78117434033195  1.96680502932163  2.17193273198377  2.3584379188752  2.53876562344778  2.69460328560653  2.82257888578657  2.91350357690711  2.95683667669785  2.96816214425329  2.95260715363649  2.95973386816709  2.91668914147886  2.83067678714539  2.74808148051662  2.65530029627312  2.50299706875519  2.44824753718974  2.39141831608834  2.269807735848  2.14477423169094  2.02767258753253  1.91476075272985  1.81651670301325  1.70709663831619  1.60553327427934  1.50994002582121  1.28798816000379  1.19693298376804  0.48545082282239  0.485514546486555  0.485604187154249  0.485715802426808  0.486262904232836  0.486470293185002  0.486671614521852  0.486899330146186  0.487121101304095  0.487364333913443  0.487592350420102  0.487785387276146  0.488013698304155  0.487947808710353  0.487976730009297  0.488335893582413  0.488606428841178  0.489999999966908  0.489999999921903  0.490000000051911  0.489999999983439  0.490000000494061  0.490000000288287  0.490000000610826  0.490000000790336  0.489999999570507  0.489999999449555  0.489999999348598  0.490000000120873  0.490000000107979  0.490000000666806  0.489999998430877  
0.489999999633552  0.489999999652906  0.489999999673394  0.489999999694528  0.489999999715251  0.489999999733436  0.489999999745035  0.48999999974324  0.489999999722919  0.490000000472201  0.503183276815682  0.531487426376842  0.561170360998117  0.591833811040952  0.61887676122084  0.642680541945163  0.677529150285614  0.705027787159079  0.759018971381241  0.786544719628905  0.829039430668294  0.887150776023933  0.781632607342445  0.755250978332937  0.762294012018027  0.766719923615837  0.766788291905297  0.790089825632622  0.803194020260222  0.818731000452808  0.833318260467203  0.844332409279958  0.853504349158748  0.868160838511645  0.902647662155733  0.961060595727193  0.985991961595346  1.12377545453585  1.2596148192966  1.43984630230728  1.64866752270436  1.87899814433954  2.07524292600538  2.25867838139843  2.4066358574618  2.52224073902643  2.62448550204635  2.68961737891618  2.71317602110923  2.71629701017265  2.72951725498903  2.71921127895042  2.67030601595363  2.59753770744644  2.47827526922077  2.44886851127366  2.34948456745358  2.29852967345509  2.18809502933703  2.08106996100502  1.96497388718193  1.85941322979202  1.76878222561279  1.66586561845317  1.57195521808259  1.48246147622847  1.38617744979265  1.17840857056271  0.485751606111471  0.485812421597994  0.485895982304133  0.486001477079235  0.486169169957954  0.486675027028709  0.486863421003129  0.487046752529449  0.486913970567149  0.487127894452273  0.487364639963506  0.487616631245481  0.487878020276392  0.488094367525542  0.488087133618908  0.488428644290308  0.488655753805694  0.490000000746552  0.489999999018741  0.48999999934297  0.490000000200568  0.489999999838958  0.489999999638541  0.490000000555278  0.490000000516126  0.490000000392465  0.490000000337732  0.490000000298976  0.489999998906529  0.490000000352256  0.489999999882248  0.489999999292545  
0.49000000017823  0.490000000138525  0.490000000112357  0.490000000104856  0.49000000012247  0.490000000172457  0.490000000260629  0.490000000386077  0.49000000054949  0.49000000021856  0.507073986044409  0.533397388479349  0.561334947445889  0.589003749943952  0.616262818621722  0.634289655681694  0.666419603058837  0.704792782657179  0.737201733644161  0.763533603148318  0.80179219602563  0.856766502748672  0.87566524498865  0.908151766276459  0.690030254731704  0.67873664540879  0.689885224113018  0.700266407715684  0.702348922214336  0.70283993741538  0.701488294929767  0.691911342695715  0.677022207017611  0.64965295682898  0.617565267667358  0.630916680252764  0.683114174083476  0.751254485559856  0.888368059306994  1.12047635924306  1.35577670633895  1.6047210237088  1.80757978143023  1.9734836152939  2.12335360593965  2.25237254746336  2.35808171705673  2.43283607935676  2.51064680899636  2.51024762233403  2.54769456054419  2.5346951050401  2.50267470022962  2.41077586977519  2.43162479603558  2.33971022568216  2.2434747057073  2.1470016010716  2.10361126588708  2.00434911942335  1.89766634147268  1.80092977928027  1.70612499699041  1.62223646486277  1.53632371245029  1.45204528481501  1.36222927120756  1.25731733099647  0.486018903872818  0.486074648571431  0.486151720413983  0.486247660862854  0.486475101205514  0.486637646304587  0.486792691348764  0.486964641192224  0.487153774995392  0.487353192541738  0.487574705888117  0.487801682951308  0.488052059889507  0.488242098259908  0.488200197251669  0.488522403032634  0.488696927340503  0.489999999864147  0.489999999992488  0.490000000081869  0.489999999689939  0.490000000626075  0.490000000131612  0.490000000459029  0.490000000145994  0.490000000385234  0.490000000443113  0.490000000488238  0.489999999454824  0.49000000019869  0.4899999990444  0.49000000009075  
0.490000001509164  0.490000001519165  0.490000001526641  0.490000001530973  0.490000001531453  0.490000001527031  0.490000001514647  0.490000001480083  0.490000001371591  0.490000001514243  0.507901136434069  0.533578583145625  0.560308692202662  0.584986824497888  0.6125860905739  0.640142455259664  0.631666544919594  0.664958206204889  0.689293865110793  0.713833873900832  0.73129585065504  0.754277542738127  0.773114220184141  0.788150681478721  0.801858319313878  0.800635588930447  0.765422250365636  0.648492900144125  0.683738495594675  0.702307234989007  0.672685473843216  0.629607386077031  0.628971613549336  0.572541107082114  0.51155065602677  0.489294707167307  0.496104588068623  0.493392756102796  0.598958572121068  0.845446865749898  1.08170430369964  1.29677213249095  1.50189555806629  1.6905068234026  1.84295867048204  1.97975047680557  2.07872067765614  2.16694991074763  2.25530547863539  2.28172268540278  2.35047976277298  2.33930860497005  2.25988455682882  2.22449938395225  2.17463425792816  2.1178614672542  1.98415820721222  1.91470858324814  1.83693967572352  1.76097473481737  1.68312145782891  1.6048909979797  1.52330482675977  1.44608531744656  1.37015369135672  1.29492276016945  1.22243113056039  1.15462946528706  0.486241153229189  0.486292327104462  0.486361990275538  0.486590063862558  0.486736678273022  0.486882221015018  0.487032230581425  0.48721795988319  0.487398793919979  0.487585688738657  0.487794422205079  0.488005240859272  0.488234225143972  0.488404273756409  0.488327417676863  0.488629923267744  0.488732420086556  0.490000001042827  0.489999999999105  0.489999999919585  0.490000000993586  0.490000000193233  0.489999999612835  0.49000000066506  0.490000000612543  0.490000000253865  0.489999999951213  0.490000001066845  0.490000000761586  0.489999998814304  0.490000001351713  0.490000000790363  
0.489999998531589  0.489999998720452  0.48999999891406  0.489999999110464  0.489999999306653  0.489999999498501  0.489999999682244  0.489999999861902  0.490000000084715  0.489999999730257  0.50748699816805  0.532447682989979  0.558481033734348  0.589942711419256  0.608590231325255  0.622258986124165  0.625999260617165  0.647848156286341  0.665091303309374  0.686647549979029  0.70032419964893  0.715013616225951  0.639588338817244  0.624741284085845  0.603598986082953  0.619140796718735  0.665518248810774  0.614901902893501  0.638514902702324  0.639851693087143  0.615668992155511  0.571909240816656  0.55975054120218  0.524248177101372  0.490310260377851  0.490000000377108  0.490000000465841  0.490000000616021  0.551124038440707  0.702259300935746  0.892422512936947  1.10290306005102  1.29546885711694  1.47292421922613  1.59246174907826  1.72678218275569  1.83839812230271  1.92832395421955  2.03229782920135  2.07355817184146  2.1644333980575  2.09636489063036  2.08543378864483  2.05059620644498  2.00532334643188  1.95430101785208  1.91486063111062  1.85603861002266  1.78899553606333  1.72282677137677  1.65377137798247  1.58326596802934  1.5091153725291  1.43839127602228  1.36810255557193  1.29813937798664  1.23043089823698  1.16557421157237  0.486469142566707  0.486513827258742  0.486751613230591  0.486904076167737  0.486984465364077  0.487121530588963  0.487262203630176  0.487413482765451  0.487580943032382  0.487763637250852  0.487956862926509  0.488162597509144  0.488385776454508  0.488537153760848  0.488426945872593  0.488710929316046  0.488764968629116  0.49000000012614  0.490000000024487  0.489999999935139  0.489999999632239  0.490000000376073  0.490000000075491  0.490000000007746  0.490000000127558  0.489999998764129  0.489999998708973  0.489999998676909  0.489999998661237  0.490000000716069  0.490000000776173  0.490000000770325  
0.490000000377951  0.490000000384807  0.490000000390515  0.490000000393435  0.490000000390342  0.490000000374829  0.490000000334037  0.490000000241315  0.490000000014065  0.489999998924094  0.507498376073359  0.529020823242015  0.555572757738673  0.586906256477471  0.604325218462189  0.615305179727857  0.614722146957163  0.635269126792746  0.651889051789387  0.661544111495021  0.640580324771612  0.634376926679954  0.625452455793863  0.611062289811446  0.5891232013717  0.579823735797966  0.629932627128816  0.616234879086327  0.603549177025149  0.606508355027406  0.582549856676539  0.544260684193937  0.533841393793504  0.500499155494772  0.486467822352411  0.489999999432412  0.489999999529398  0.490000000599456  0.501224908358716  0.623593955762216  0.804282684030724  1.0069438576625  1.17864638616181  1.29957962270219  1.44434963656081  1.54634090246493  1.11876709046428  1.74418873858189  1.84690003675814  1.8874786294627  1.92414630552816  1.94903591580377  1.92483340089753  1.90051614798755  1.86753473617563  1.82484511696077  1.77616999255346  1.72054662778674  1.67288582239894  1.61517871509732  1.55485782311002  1.49297995026726  1.42725177861761  1.36386653123666  1.30312637821323  1.23986681847319  1.1778700069732  1.11866263570912  0.960573475460756  0.486921812647956  0.48714675678066  0.487152950657494  0.487231769934007  0.487365063829476  0.487492236845399  0.487631247861539  0.487787649913795  0.487956154461572  0.488126755699238  0.488321169689813  0.488501088223188  0.488651251339979  0.488503431396746  0.488767845479131  0.488797508134672  0.489999999880031  0.49000000021417  0.490000000116901  0.489999999809588  0.490000001239745  0.48999999923559  0.490000000324049  0.490000000710938  0.49000000070899  0.490000000711714  0.490000000711461  0.490000000714801  0.490000000723087  0.490000000735934  0.490000000353036  
0.489999999610274  0.48999999952933  0.489999999438624  0.489999999335517  0.489999999215815  0.489999999072345  0.489999998892468  0.489999998658506  0.489999998389761  0.489999999318052  0.505178334604592  0.525259751053459  0.548772451495823  0.581142899562152  0.590251981707162  0.609924176636213  0.610974045750054  0.626083594425844  0.633841202281494  0.630205519021639  0.62683998708943  0.620926010297949  0.609783839608492  0.597782421933669  0.575362149695439  0.567317472061752  0.594532732196135  0.59007287208306  0.599985927799819  0.577438385809002  0.559846346286333  0.523906692719345  0.514431210397181  0.512005976821142  0.49563466110003  0.489999999848343  0.489999999217164  0.490000000555476  0.488706084290434  0.554981250220181  0.704560385538316  0.849947740083858  1.00433247643009  1.14964839022131  1.28206295407408  1.37551782319714  1.02984125820694  1.07693348264535  0.488520747147899  1.68506095876748  1.74283771414924  1.75423914078436  1.74028292159459  1.727113844947  1.70468665064263  1.67258552338442  1.63214862787988  1.58978681123911  1.54325492952126  1.49364404298629  1.44225852201418  1.38634196510235  1.33204805640628  1.27745782938096  1.22111626901439  1.16533319976309  1.11138897562159  1.05860191593727  0.941656848238976  0.487364681300527  0.487386232709212  0.487395152447202  0.48747119436442  0.487592128139747  0.487710314185117  0.487847561855802  0.487980252562635  0.488135160191485  0.488283391328647  0.488444668562532  0.488624432708849  0.488760255841074  0.488600328813256  0.488824193207268  0.488849644700803  0.490000000736535  0.489999999566904  0.489999999830936  0.490000000048645  0.48999999947533  0.49000000008209  0.490000000012862  0.489999999674761  0.489999999603424  0.489999999682672  0.489999999741035  0.489999999785246  0.489999999819423  0.489999999846274  0.489999998568017  
0.489999999736413  0.489999999765182  0.489999999799985  0.489999999842397  0.48999999989446  0.489999999958763  0.4721482054899  0.47566195665628  0.480433061440643  0.486841919393685  0.499402167367387  0.519067120981603  0.542648061235136  0.561696837070465  0.58424284425079  0.592099608845327  0.598447433978991  0.616733699807334  0.618552160506043  0.617036506622143  0.613005386880739  0.606448270049679  0.594277921321247  0.584093778075215  0.561142717079529  0.554120653213609  0.546151029127241  0.562545463250071  0.569603205248049  0.601256456985436  0.572767107475375  0.547568458066225  0.535524396978973  0.501974636240285  0.479537079295621  0.489999999636838  0.489999999618755  0.489999999502846  0.475908866679117  0.510238257233904  0.596618248664128  0.724561444805776  0.861475497971035  0.996114822965358  1.12154060843021  1.20786366655135  0.929418627622387  0.975899339178262  0.488682790172283  0.488507465116834  1.58315255670665  1.58674513802439  1.59774956185879  1.59424926859589  1.57936557220203  1.55717195316576  1.52653552968941  1.49287037488382  1.45502452767026  1.41360029244942  1.37012607125338  1.32318416959168  1.27775036195801  1.21932839987765  1.16936943750434  1.11931475741726  1.07122321200459  1.02652694188961  0.923606296230418  0.487598134794533  0.487617009010066  0.487620941467982  0.487693002231353  0.487809919064373  0.487922545161596  0.488033736472058  0.488156561963733  0.488300957418285  0.488447478943384  0.488592193319707  0.488741140670532  0.488856779117847  0.488675850982658  0.488868552793055  0.488908142711391  0.489999999843584  0.49000000004986  0.489999999614505  0.489999999917551  0.489999999825903  0.489999999805484  0.489999999982546  0.490000000194257  0.489999999998997  0.489999999828251  0.489999999664649  0.489999999509925  0.489999999364512  0.489999999228123  0.489999999901339  
0.490000000160321  0.490000000160234  0.464314893998243  0.465173711218474  0.466358703780061  0.467983822621735  0.47020527691878  0.473232832638149  0.477336572906854  0.482886346433489  0.491413892097741  0.510789077312625  0.532457491334289  0.557517564096482  0.58109175005127  0.595295677761519  0.60519697044808  0.608976553794152  0.608779147203275  0.605701438373212  0.600978889015094  0.594451760562462  0.583440591856827  0.556497711957006  0.551319353721404  0.545652093636019  0.538890648337308  0.532156822829559  0.566766352746088  0.561643488361894  0.547049552928641  0.516271233381553  0.504141489015367  0.489641728328454  0.477562449398445  0.489999999567686  0.490000001012182  0.489999999920906  0.474955791173228  0.505625674588218  0.527185046677531  0.627028545252452  0.749833668520954  0.872604743840035  0.987236971379624  1.06419931224963  0.845610020180574  0.889976321517654  0.488850245762298  0.488678763455388  0.488434137422531  1.44243129789785  1.46021123141826  1.46791663797297  1.46221181064976  1.4467499335728  1.42256325600846  1.39692164238776  1.36706364821854  1.33402606602901  1.29735850684136  1.25900399024375  1.21845281755196  1.17753484146179  1.13475165509637  1.07266053975456  1.03212856443294  1.43359182299917  0.89146513114586  0.487815937914869  0.48783359600267  0.487831464665349  0.487898696468371  0.488000558459118  0.488097505331429  0.48820996398001  0.488315080769802  0.488442099576351  0.488558114469137  0.488680884530876  0.488821427316156  0.48892177004205  0.488654270432028  0.488807683364956  0.488924602610335  0.49000000050145  0.489999999976136  0.489999999691986  0.489999999715737  0.489999999542376  0.490000001239828  0.490000000101043  0.48999999907124  0.489999999937093  0.489999999929672  0.489999999922685  0.489999999916536  0.489999999911304  0.48999999990692  0.489999999712342  
0.463967652867494  0.464100566536327  0.464387805158335  0.464883629585186  0.465661000786804  0.46681826194622  0.468487757576825  0.470847795790612  0.474148655810876  0.478794803788434  0.483912333961002  0.501485200071175  0.524276109129539  0.550376628081507  0.575033471088021  0.594447082695052  0.600615728824625  0.60051146493212  0.5976090104957  0.59305855644748  0.587379892870761  0.579319906197117  0.570192428939212  0.543716746086623  0.539134991662116  0.534063648391837  0.528135909668465  0.522613989502519  0.5428257700076  0.540392954322017  0.527113637271161  0.505638579914911  0.494747506952963  0.48938333665381  0.490000000194681  0.489999998945629  0.489999999640376  0.490000001173256  0.489999999709699  0.500490758355683  0.489735251531411  0.580001213832854  0.667762377764241  0.772388003293039  0.875467269074099  0.944108355035969  0.769587079422521  0.809217223607507  0.489008298349733  0.488843788242497  0.488597996703406  0.488490923627263  0.488525273367866  1.33138631418106  1.33257107644883  1.32920656146934  1.31866264806062  1.30271858558769  1.27434788975533  1.24981850285521  1.21990554904349  1.18808091760173  1.15426993378573  1.11861707610832  1.08297065319244  1.04632713656566  1.34431592115821  1.35861181818707  0.934663795108317  0.805386008528328  0.488014001234429  0.488026970153593  0.48808294740824  0.488162885180501  0.488259964760983  0.488344084806568  0.488444396654561  0.48855524454486  0.488681792491672  0.48879297961011  0.488682284649319  0.488784287291586  0.488590415039536  0.488822472352349  0.488975827875929  0.490000000035873  0.490000000247097  0.489999999529274  0.489999999914909  0.489999999242624  0.489999999926258  0.490000000250664  0.489999999699557  0.489999999648625  0.489999999628041  0.48999999961202  0.489999999602694  0.489999999599311  0.48999999960058  0.49000000057264  
0.464731272351845  0.464571831384591  0.464531936738886  0.464659012579394  0.465016773376011  0.465691246029062  0.466799584930746  0.468505458204058  0.471055013887361  0.474922248441163  0.477391339462133  0.491495839728296  0.513243327140321  0.539408952118055  0.56995480735027  0.595756964108176  0.593191356129981  0.589742326842336  0.56060680472319  0.579581644979367  0.57303793160524  0.564841242956416  0.557343376612215  0.53255175390449  0.527753385498218  0.523106989890791  0.517812715509052  0.512963405163816  0.508017836895233  0.521309566842113  0.5126087901746  0.499685432337174  0.491670194824139  0.489999999697064  0.489999999804725  0.489999999858667  0.490000000057878  0.490000000021428  0.489999999958567  0.49000000084382  0.488427836299985  0.526725548893696  0.609053826997379  0.702153618218752  0.79216421376352  0.850020562916425  0.740608507197706  0.772135432981833  0.489109804348941  0.488951569088308  0.4887717072981  0.488617512021743  0.488638871604473  0.488506169967951  0.488375987681984  0.488248844883754  0.488124366824285  0.488005913844581  0.488127236480128  0.488062125098006  1.10487721888964  1.07832571598336  1.04974170214185  1.01890255662281  0.987621615940624  1.25710453121823  1.23113816420443  1.20643525980021  0.899509835190559  0.778067030832876  0.488185310767107  0.488198289928582  0.488245683087562  0.48832785275594  0.488414644757505  0.488263950815728  0.48835931358307  0.488441904428721  0.488554746147036  0.488675570158418  0.488800576757264  0.488892104072935  0.48869279676229  0.488913021073213  0.489063322716246  0.489999999632631  0.489999999981537  0.490000000117604  0.48999999972202  0.490000001584454  0.490000000503199  0.490000000522978  0.490000000912167  0.489999999732606  0.490000000080989  0.490000000284224  0.490000000299281  0.48999999900487  0.489999998992686  0.489999999912061  
0.489999999868646  0.489999999488388  0.489999999529224  0.489999999570706  0.489999999613292  0.489999999657926  0.489999999705981  0.489999999758466  0.489999999813232  0.471216825136219  0.471151173725294  0.482855216393687  0.499794931433095  0.524292684385441  0.5517629807296  0.571756470543104  0.574747314857111  0.573735354844927  0.553370244377768  0.544541860604587  0.557925751065814  0.54990601133511  0.54343950095258  0.535826989469348  0.52709245426479  0.51932456140045  0.511825542811964  0.505836491115802  0.500398842291945  0.504546354095848  0.498055527995812  0.491953321998067  0.48565418414923  0.489999999267459  0.489999998999981  0.490000000158095  0.48999999960079  0.49000000082485  0.489999999930601  0.489999999762581  0.484940205031969  0.510171338492063  0.560655787354943  0.632124049436289  0.701505224523928  0.748462855055136  0.670142708219362  0.695049749078597  0.489276882670447  0.489124247185902  0.488957220421471  0.488800871021637  0.488816160370453  0.488691424191231  0.488565171737855  0.488441923648934  0.48831735184619  0.488198276358521  0.488083525945029  0.487976929766672  0.48811450066956  0.488162118178378  1.00574716113031  0.969045154495301  1.21263437217464  1.19510114009706  1.17215532324245  1.20473521568494  0.864179608594052  0.746930022560003  0.488184336879801  0.48818287798221  0.488223542252905  0.488288327548246  0.488332568680948  0.48840954214484  0.488502276330031  0.488596888468146  0.488705783143836  0.488815054198296  0.488937447518572  0.489007081424866  0.488809023124393  0.489022205135467  0.489158809126379  0.489999999854374  0.489999999916021  0.489999999730897  0.490000002190472  0.49000000099435  0.490000000199089  0.49000000047108  0.490000000319331  0.490000001010558  0.490000000930195  0.489999998797657  0.49000000012252  0.489999999203389  0.490000000897772  0.490000001093174  
0.490000000174731  0.489999999644601  0.48999999966607  0.490000001092024  0.490000001056582  0.490000001021181  0.490000000999071  0.490000001020539  0.490000001146546  0.468089174486563  0.465753883726457  0.475886494131954  0.487159360334212  0.506261580591993  0.527818595761729  0.54378225804627  0.55161620577245  0.554501195472573  0.5420749982753  0.535391366025025  0.528218807515745  0.520312187257927  0.529260325686765  0.522109817827405  0.514605950903323  0.507812016544954  0.500656037290855  0.495553368230461  0.491558255196807  0.483211153277474  0.478145432140682  0.489122778065799  0.489999999250568  0.489999999951244  0.490000000376429  0.489999999820752  0.489999999694135  0.49000000046249  0.489999999976414  0.489999999838834  0.490000000036086  0.49671901133237  0.569915592212857  0.64497962177246  0.710982621488101  0.743931824169576  0.682325960951533  0.700767528653881  0.489345771399144  0.489204850413608  0.489051907813364  0.488892945445786  0.488901682811247  0.488787108720261  0.488670065145034  0.488550026385897  0.48843518779641  0.488325810743188  0.48848077376656  0.488413203031312  0.488359070185823  0.488312937901186  0.490000000685871  0.489999999878778  0.489999999739921  0.489999999431594  1.14746376225725  1.12876353106596  1.10764676667745  0.780319011348202  0.696342216638324  0.488337422865105  0.488378263800766  0.488439289805971  0.488509745166064  0.48858148958668  0.488666774438948  0.488755488631966  0.488851573522588  0.488953322454449  0.489061842977181  0.489127985215855  0.488928624358543  0.489133369323784  0.489245853312582  0.490000000488649  0.489999999934997  0.490000000428024  0.490000000516181  0.490000000135386  0.490000000958885  0.490000000307792  0.490000000392935  0.490000001136665  0.4899999999657  0.490000001270397  0.490000000024695  0.490000000462445  0.490000000537823  0.490000000806617  
0.489999998350261  0.489999999910299  0.489999999918609  0.489999999263572  0.490000000839158  0.490000000718972  0.490000000635074  0.490000000390869  0.490000000140986  0.489999999889159  0.461491523698149  0.471805168576418  0.479432939078278  0.490564955248849  0.50689931258096  0.520979951384342  0.527943327249981  0.530604077218107  0.528891995562763  0.52470564498668  0.518907995048172  0.512474410461709  0.506554608273635  0.500691983179592  0.495964600188562  0.495589532466756  0.491524139334008  0.488920368813941  0.487789636866462  0.489999999613861  0.490000000133906  0.489999999349394  0.490000000296382  0.489999999903425  0.489999996468152  0.490000000371734  0.489999999672698  0.489999999974251  0.489999999310072  0.489999999716089  0.490000000352446  0.486383801836849  0.522208008461879  0.565770170276679  0.61581627465434  0.640529582123984  0.609255021505969  0.624237165450503  0.489539627360491  0.48941259310483  0.489253458398704  0.489092200033749  0.489089637045339  0.488987864828579  0.488866078561773  0.488750212671681  0.488640403288857  0.488751305872444  0.48867985161272  0.488625789742437  0.489999999267327  0.489999999258308  0.489999999540313  0.489999999917044  0.489999999886498  0.489999998816663  0.490000001109078  0.490000000359332  0.490000000389372  0.488486857680977  0.488489190405046  0.48851738836969  0.48855582279798  0.488612831488437  0.488674387111756  0.488740705109993  0.488814799282031  0.488895915091451  0.488985208124756  0.489080711269433  0.489160419838365  0.48920343931241  0.489044655998919  0.489239766423633  0.489325011891575  0.490000000263159  0.490000000871628  0.489999999231757  0.490000000187004  0.490000000960231  0.490000000212962  0.490000000560089  0.489999999799262  0.489999999472954  0.489999999562359  0.489999999799151  0.489999999806794  0.490000000182392  0.490000000327814  0.490000001043998  
0.489999999964858  0.490000000298571  0.49000000033743  0.490000000232675  0.489999999324352  0.490000000159765  0.489999999810783  0.490000000401441  0.49000000035181  0.489999999834795  0.466622111701819  0.472007063318598  0.476233342254441  0.482501634706173  0.491438136104886  0.50306931051733  0.51133699262507  0.51554299942885  0.516841059693234  0.514530048012463  0.510118218280019  0.504596635797876  0.498513585491219  0.493549375125464  0.48998596289534  0.488823642994756  0.489999998876741  0.489999999436746  0.489999997639817  0.489999998959176  0.489999998030147  0.489999999685049  0.490000001296538  0.489999999515078  0.490000000048557  0.490000000643049  0.490000000722878  0.489999999279452  0.490000002033787  0.490000000862462  0.489999999332986  0.50422460919125  0.523762351978803  0.549869457975978  0.54828442272788  0.566222884070887  0.552555583801893  0.561782915420092  0.489718761671869  0.489594832871737  0.489440343505979  0.489275631233561  0.489253947681495  0.489163384578886  0.489046582049128  0.489080883225306  0.489008118756249  0.488944507882569  0.490000001969315  0.489999998993687  0.489999998106087  0.48999999955895  0.489999999552237  0.489999999845617  0.489999999717977  0.490000001042022  0.489999999215494  0.489999999827669  0.490000000202616  0.489999999817348  0.48864483687646  0.488645168951016  0.488712922814694  0.48876322816017  0.488818667524726  0.488879601789134  0.488935152070001  0.488988244460675  0.489015708366823  0.489116032884355  0.489220693848089  0.48921319420447  0.489145490088079  0.489330669424915  0.489513464968177  0.489999999873269  0.489999999282528  0.490000000848068  0.490000000118428  0.489999999343031  0.490000000732625  0.490000000219935  0.490000001409324  0.490000001320987  0.490000000546838  0.490000000533472  0.489999999752024  0.489999999326613  0.489999999301304  0.489999999929519  
0.490000000035027  0.490000000000153  0.489999999965951  0.489999998650307  0.489999999602787  0.489999999984782  0.489999997604144  0.490000000463811  0.490000001081805  0.490000000304749  0.490000000527894  0.470930972264225  0.474112777563856  0.47857371152006  0.484342493098103  0.491663491028545  0.499371875835026  0.504301940973057  0.506780358773922  0.505746548563983  0.502407088412907  0.497507288974665  0.491813809643182  0.488914941591843  0.49000000022946  0.489999998415412  0.489999998942473  0.489999999414579  0.489999999574256  0.489999998109198  0.489999999218144  0.489999999243003  0.490000001201429  0.490000000105268  0.490000000471089  0.489999999574585  0.489999999587142  0.489999996726678  0.490000000342035  0.489999997859243  0.490000000132399  0.490000000471548  0.484835737325938  0.486071670453679  0.502662770043842  0.538415800965611  0.524662998356008  0.517555019326241  0.489862478827819  0.48974850910002  0.489582894232118  0.489400966769174  0.489430446808156  0.489372667791645  0.489294928397035  0.489217822605818  0.490000000536342  0.489999999574394  0.489999999557329  0.489999999540482  0.490000000452927  0.489999999966097  0.489999999406736  0.490000000554078  0.489999998672527  0.489999999993322  0.490000000363925  0.489999999222161  0.489999999442535  0.490000000586937  0.489999999261962  0.490000000009706  0.488814708970183  0.488808104588618  0.488821621722479  0.488889223342315  0.488963969528521  0.48904477750194  0.489132906474219  0.489226681243698  0.489322039135462  0.48931042867324  0.489238912770258  0.489413987238182  0.48958429812902  0.489999999781965  0.489999999888805  0.48999999967875  0.490000000336487  0.490000000040298  0.490000000381108  0.490000000497466  0.48999999972432  0.489999999446464  0.489999999215679  0.49000000051657  0.490000001187467  0.489999999925088  0.490000001060098  0.490000000331765  
0.490000000164735  0.489999999606377  0.490000000039148  0.490000000714639  0.490000000224567  0.489999999082017  0.489999999913449  0.489999999922004  0.489999999934334  0.490000000805151  0.490000000223515  0.467263286110484  0.473191721820983  0.476833835982172  0.481396192593768  0.486483648550755  0.492148555980932  0.496938243059861  0.499133802962646  0.499468874433419  0.497103081275413  0.493307794223456  0.489342591520279  0.490000000503555  0.489999998944532  0.489999997916324  0.489999998469792  0.490000000186734  0.490000001248558  0.489999999581167  0.490000000213193  0.490000003151981  0.490000000504989  0.490000000007986  0.48999999817273  0.489999998152017  0.490000001797295  0.490000000473664  0.49000000038057  0.490000000851985  0.490000001764658  0.490000000670377  0.489999999061099  0.489999999633284  0.490000001218243  0.489999999873854  0.489999999561235  0.490000000747742  0.490002141144643  0.489942159022446  0.489830738570793  0.489714846989677  0.489601819211458  0.489552447351847  0.489999999911487  0.489999999907308  0.489999999632203  0.489999999486232  0.490000001740443  0.489999999508045  0.489999999005925  0.489999999981294  0.490000000117189  0.490000000121022  0.489999999250814  0.489999999276593  0.490000001014328  0.490000000169705  0.4900000002859  0.49000000020982  0.490000000111979  0.49000000093795  0.489999999819687  0.49000000024489  0.489999999314183  0.490000000631383  0.490000000838229  0.490000000345544  0.490000000262337  0.489376451568595  0.489340383791045  0.489404034684326  0.489330575721584  0.489493773314252  0.489650138499508  0.489999999956366  0.489999999852753  0.490000000289136  0.490000000457245  0.49000000044718  0.490000001091913  0.49000000047269  0.490000000208678  0.489999999929378  0.489999999948084  0.489999999966049  0.490000000000016  0.490000000008432  0.489999999917993  0.490000001250262  
0.490000000037987  0.490000000173331  0.490000000141074  0.490000001033449  0.490000000616153  0.490000000518188  0.490000000064258  0.489999998928918  0.490000000566098  0.490000000984971  0.489999999711982  0.489999999544986  0.469986539300738  0.475840982129957  0.480046080047333  0.484587171480216  0.489342757479184  0.492733427704631  0.494383784093168  0.494398507930572  0.493471236106655  0.491216102053307  0.490000001739521  0.489999999432196  0.490000000300834  0.490000000498272  0.489999998740431  0.489999999621839  0.490000000690489  0.489999999001993  0.49000000041372  0.489999998880765  0.489999998873172  0.490000000947111  0.489999999253083  0.489999999956679  0.489999998728902  0.490000000906947  0.489999999365422  0.489999999357599  0.489999999446726  0.489999999774159  0.489999999157052  0.489999999048234  0.490000002351301  0.490000001314019  0.489999999970665  0.489999999752504  0.489999999640309  0.489997383954965  0.489924280063025  0.48982594739854  0.490000000024488  0.490000001177914  0.48999999988162  0.490000000064322  0.49000000098577  0.490000000123787  0.490000000714746  0.489999999853536  0.489999999881391  0.490000000715972  0.490000000765842  0.490000000230559  0.489999999515274  0.489999999294047  0.490000000237737  0.490000000981636  0.490000000741183  0.490000000589085  0.49000000053996  0.489999999809477  0.490000000977921  0.489999999906331  0.490000000053607  0.489999999777062  0.489999999898175  0.490000000100378  0.490000000083714  0.490000000072959  0.490000000070349  0.489999999166221  0.489684673962901  0.489556392608586  0.489699675476033  0.490000000421344  0.490000000044993  0.490000000247238  0.489999999720248  0.490000000246762  0.490000000528437  0.489999999591863  0.490000000006365  0.48999999997727  0.489999999921415  0.489999999869548  0.489999999821886  0.489999999778294  0.489999999738525  0.489999999704248  
0.489999999782168  0.489999999667647  0.489999999702917  0.489999999712651  0.489999999738303  0.489999999920695  0.490000000034178  0.490000000168644  0.490000000041842  0.490000000278467  0.490000000172708  0.490000000021527  0.489999999970066  0.474921089348228  0.490000001172782  0.48341366345212  0.487924324034565  0.489999999986751  0.489999999562229  0.489999999889119  0.490000000002427  0.49005828477039  0.489999999959626  0.490000000036932  0.489999999669383  0.489999999936372  0.490000000432672  0.489999999603853  0.489999999629452  0.489999998425128  0.490000001721755  0.489999999599183  0.490000000710216  0.48999999646875  0.490000000354696  0.490000000890473  0.490000001062551  0.490000001100664  0.489999998594252  0.489999999730745  0.490000002219456  0.490000000465901  0.489999997866973  0.490000000523727  0.489999999806722  0.490000000313775  0.49000000046562  0.489999999262683  0.490000000063088  0.49000000059467  0.490000000657498  0.489999999828201  0.490000002059424  0.490000000147608  0.48999999951713  0.490000000597954  0.489999999930679  0.489999999929405  0.49000000019504  0.49000000013164  0.490000000870697  0.489999999693413  0.489999999849924  0.489999999879964  0.490000000131127  0.49000000068077  0.49000000064779  0.490000000708398  0.490000000115461  0.490000000129948  0.489999999933161  0.490000000320022  0.490000000673808  0.48999999919008  0.490000000608657  0.490000000088447  0.489999999036241  0.489999999439717  0.489999999450609  0.489999999464891  0.489999999483319  0.490000000261778  0.489999999904275  0.489800614808391  0.489739482007637  0.49000000049397  0.490000000461073  0.490000001500975  0.489999999813392  0.490000000445403  0.490000000505653  0.490000000614076  0.490000000040976  0.490000000003929  0.490000000014654  0.490000000023376  0.490000000030498  0.490000000036362  0.490000000041238  0.490000000675149  
0.489999999835902  0.490000000431765  0.490000000208882  0.490000000193694  0.490000000190806  0.48999999983913  0.490000000070494  0.490000000394966  0.490000000276813  0.490000000598084  0.490000000223514  0.489999999886787  0.489999999573325  0.490000000252882  0.490000000870605  0.481641063735848  0.48587248405733  0.48999999934705  0.489999999733298  0.490000000098697  0.489999999183416  0.49000000058631  0.489999999013314  0.490000000073736  0.490000000062116  0.489999999485214  0.490000000032453  0.489999999677904  0.490000000230965  0.490000000793855  0.490000002335167  0.49000000200675  0.490000000873094  0.489999999604539  0.489999998293429  0.489999999577515  0.490000003120513  0.489999998708764  0.489999999290348  0.489999999831496  0.489999999273593  0.490000000016908  0.489999998974783  0.490000000285364  0.490000000269788  0.48999999891912  0.490000000793725  0.490000000680962  0.490000000168107  0.490000000876895  0.490000000165854  0.489999999296525  0.489999999556769  0.490000000083531  0.489999999656956  0.489999999647409  0.489999999709765  0.489999998955478  0.49000000103383  0.48999999992904  0.489999999856972  0.489999999432846  0.489999999703178  0.49000000055717  0.489999999816229  0.489999999813015  0.489999999057934  0.489999999690198  0.490000000363983  0.489999999250655  0.489999999314076  0.490000000091836  0.489999999540054  0.490000000188926  0.489999999897705  0.490000000723766  0.489999999954168  0.489999999504157  0.489999999502833  0.489999999548178  0.489999999615229  0.489999999978265  0.489999998940157  0.489999999571304  0.490000000062773  0.489999999769307  0.490000000541915  0.489999999713816  0.489999999885387  0.49000000052046  0.489999999915413  0.490000000337578  0.490000000779762  0.490000000995765  0.490000001096571  0.490000001184519  0.490000001261888  0.490000001330356  0.490000001391162  0.49000000121159  
0.489999999908479  0.489999999823446  0.489999999968649  0.490000000140615  0.490000000584989  0.490000000177608  0.490000000035606  0.490000000760661  0.490000000228059  0.489999999833748  0.49000000041867  0.49000000011639  0.490000000071351  0.489999999937919  0.490000000483293  0.479478017032551  0.482930610645673  0.490000000067841  0.490000000705189  0.489999999660538  0.490000001575406  0.489999999521709  0.490000000007095  0.489999997754718  0.490000000281148  0.490000001407665  0.489999998689133  0.489999998636491  0.48999999831048  0.489999999334473  0.490000000910036  0.49000000300828  0.489999999219403  0.489999999923423  0.490000000927617  0.489999999306304  0.489999997705753  0.489999999301028  0.490000001194116  0.489999998413229  0.489999999739027  0.49000000083581  0.489999999251851  0.490000000723516  0.490000000273391  0.490000000023855  0.489999998760618  0.49000000013734  0.489999999489703  0.490000000797281  0.489999998474457  0.489999999682892  0.490000000526981  0.490000000033935  0.490000000020344  0.489999999709527  0.490000000656958  0.490000000434098  0.490000000231383  0.489999999540221  0.489999999225367  0.490000000182145  0.489999998853273  0.489999999874132  0.490000000052341  0.49000000053026  0.490000000702194  0.490000001141537  0.490000001159374  0.489999999256629  0.490000000556136  0.490000000468321  0.490000000319669  0.489999999699163  0.490000000069613  0.48999999971795  0.489999999824642  0.490000000168023  0.490000000175754  0.490000000510272  0.490000000318246  0.489999999376792  0.48999999987229  0.490000000496864  0.490000000101648  0.49000000026525  0.489999999796184  0.490000000209163  0.490000000013818  0.48999999931054  0.490000000585953  0.490000000200137  0.490000000142041  0.489999999753133  0.489999999717542  0.489999999691047  0.489999999671646  0.489999999657525  0.489999999647185  0.490000000410728  
0.489999999683071  0.489999999895602  0.490000000169859  0.490000000209361  0.490000000030616  0.490000000048884  0.490000000035365  0.49000000109377  0.490000001084485  0.48999999976229  0.490000000693302  0.490000000330563  0.490000000413149  0.489999999945247  0.490000000539776  0.478733332552374  0.481472733148869  0.49000000044937  0.490000000875608  0.490000000977136  0.489999999086068  0.489999999587895  0.489999999883743  0.489999999328005  0.48999999974421  0.489999998594152  0.489999999290333  0.489999999559666  0.490000001073053  0.489999999203507  0.489999999703508  0.489999997992398  0.489999999103948  0.49000000101224  0.490000000298471  0.49000000105731  0.490000003779298  0.489999998955177  0.489999998883157  0.490000000436458  0.490000000001585  0.490000000901743  0.49000000066982  0.490000000559057  0.490000001427329  0.490000002728777  0.489999999905054  0.4899999989693  0.490000000737801  0.489999999533833  0.490000000147543  0.490000000952641  0.489999998566867  0.489999999726054  0.489999999912279  0.490000000951811  0.48999999980356  0.490000000084826  0.489999999925463  0.489999999285913  0.490000000396828  0.490000000004092  0.490000000485803  0.490000000244241  0.489999999883456  0.489999999084504  0.489999999015504  0.490000000256674  0.490000000287621  0.490000001109236  0.490000001178162  0.489999999741721  0.48999999997873  0.490000000008613  0.490000001242969  0.48999999954607  0.49000000007759  0.490000000396472  0.490000000545451  0.489999999594418  0.490000000278108  0.489999998096778  0.489999999558358  0.490000000242004  0.490000000424416  0.490000000804524  0.490000002772335  0.490000000031489  0.489999999805832  0.489999999766376  0.489999999897849  0.489999999805722  0.489999999527044  0.48999999941636  0.489999999365427  0.489999999320895  0.48999999928167  0.489999999246989  0.490000000592862  0.489999998575321  
0.489999999873051  0.489999999863928  0.489999999823969  0.490000000406265  0.490000000140707  0.48999999866323  0.490000000218513  0.49000000033246  0.489999999642892  0.489999997342997  0.489999999974651  0.490000000055465  0.490000000196192  0.490000000601053  0.490000000047194  0.478181894004337  0.480250018252635  0.490000000343166  0.490000001726215  0.49000000039861  0.489999999827982  0.489999999322022  0.489999998845891  0.489999999275676  0.490000000006579  0.490000000522714  0.490000001395663  0.489999999817202  0.490000000320981  0.489999999972219  0.489999999302833  0.490000001707252  0.489999999556374  0.490000000327667  0.490000000338101  0.489999997988619  0.489999998461904  0.490000001162253  0.489999999622746  0.489999998072543  0.490000000166961  0.4899999998333  0.489999999405306  0.489999998267395  0.489999997892957  0.489999999335189  0.489999998936001  0.489999999221273  0.489999998347369  0.489999998992966  0.490000000014622  0.489999998943468  0.489999999606686  0.490000000204723  0.490000000414851  0.489999998709924  0.490000000698792  0.490000001158032  0.489999999944546  0.490000000369179  0.49000000103716  0.489999997581418  0.489999999845243  0.490000002723226  0.490000001092336  0.489999999380096  0.489999999416565  0.489999999455472  0.490000000236447  0.49000000010313  0.490000000125898  0.49000000054424  0.490000000598591  0.49000000054519  0.490000000085399  0.489999999504354  0.490000001056259  0.490000000113296  0.490000000931018  0.490000000391023  0.490000000511824  0.490000000528347  0.490000000189648  0.489999999786174  0.490000000992898  0.490000000816629  0.490000000053086  0.490000000314532  0.49000000006119  0.49000000047148  0.489999999173072  0.489999998617276  0.489999999080933  0.489999999297861  0.489999999288835  0.489999999284173  0.490000000243775  0.490000000260342  0.490000000273898  0.489999999941034  
0.489999999552134  0.490000000013112  0.490000000223061  0.489999999988762  0.490000000048072  0.490000000000224  0.489999999932662  0.489999999437538  0.48999999980067  0.48999999989376  0.4900000002988  0.489999999904486  0.490000000438442  0.489999999958163  0.490000000002515  0.477935423880168  0.479473315101696  0.49000000019536  0.48999999998152  0.489999999642846  0.489999999444457  0.490000000714009  0.490000000185227  0.489999999533779  0.490000000755301  0.489999999310702  0.490000000545408  0.490000000908805  0.489999999553403  0.490000000104194  0.489999998951498  0.490000000883635  0.489999999123832  0.489999998005991  0.490000000364927  0.490000003655382  0.490000003182667  0.490000000502417  0.490000000345034  0.489999999104308  0.489999999035567  0.48999999948927  0.490000000292272  0.490000000235627  0.490000000860973  0.490000001256755  0.490000000727036  0.489999999975074  0.490000001362423  0.490000000270307  0.490000000552145  0.489999999759285  0.490000000795674  0.489999998286978  0.489999999946045  0.489999999780811  0.490000000384877  0.49000000006003  0.490000000483778  0.489999999319668  0.490000000159434  0.490000002383809  0.490000000207162  0.490000000998083  0.490000000903361  0.489999999863755  0.490000000799949  0.490000000742155  0.49000000012699  0.490000000020304  0.489999999648209  0.490000000163247  0.490000000185688  0.490000001520202  0.489999999261713  0.490000000104816  0.490000000057268  0.490000000433991  0.489999999957094  0.489999999789253  0.489999999272356  0.489999999612878  0.490000000367655  0.489999999465026  0.489999999732805  0.489999999573641  0.489999999839436  0.489999999439456  0.489999999692596  0.489999999896004  0.490000000371292  0.490000000029446  0.490000000323825  0.490000000223107  0.490000000162584  0.490000000107097  0.489999999775307  0.489999999939015  0.489999999913895  0.490000000079414  
0.489999999626021  0.490000000094197  0.489999999705904  0.489999999889948  0.48999999993394  0.489999998796752  0.490000000136699  0.490000000128911  0.489999998136644  0.490000000380819  0.490000000050855  0.490000000129829  0.490000000443042  0.489999999873296  0.490000000440487  0.477727011899856  0.47880922051001  0.490000000686326  0.490000001609314  0.489999999926554  0.490000000388871  0.490000000402356  0.489999999713658  0.490000000246934  0.490000000531014  0.490000001395228  0.490000001041463  0.490000000487754  0.489999999476798  0.489999999572778  0.489999999730484  0.48999999942464  0.490000000173151  0.49000000025594  0.490000000219048  0.489999997405211  0.489999999295304  0.490000001571132  0.490000000079197  0.489999999650587  0.48999999670542  0.490000001361203  0.489999998615647  0.49000000122268  0.49000000285911  0.490000002024128  0.490000000537017  0.48999999925186  0.489999998876896  0.489999999430747  0.490000000456327  0.489999999375591  0.489999998946636  0.489999999531255  0.489999999312269  0.490000000799376  0.490000000380277  0.490000000322634  0.490000000272379  0.489999999251694  0.48999999927227  0.489999999297343  0.489999999325698  0.489999999601771  0.489999999598711  0.49000000002583  0.489999999547366  0.489999999572908  0.489999999686591  0.489999999839721  0.489999999882571  0.489999999727587  0.489999999839336  0.489999999791316  0.489999999754442  0.489999999129248  0.489999999103465  0.489999999851765  0.489999999088135  0.490000000375825  0.489999999780026  0.489999999945545  0.490000000108053  0.490000000030082  0.4899999999732  0.489999999935718  0.489999999904905  0.490000000685161  0.490000000001903  0.489999999811679  0.490000000746  0.490000000936871  0.489999999591174  0.490000001103981  0.49000000000354  0.490000000387768  0.490000000440649  0.489999999663307  0.489999999718323  0.49000000014379  
0.490000000452154  0.489999999845278  0.490000000003054  0.489999997557279  0.489999999742334  0.490000000947116  0.489999999725221  0.490000000194177  0.49000000021508  0.489999999856895  0.489999999800958  0.489999999897512  0.489999999849724  0.489999999969804  0.489999999703949  0.47793624372551  0.4786624696919  0.490000000308094  0.489999999538372  0.489999998648236  0.490000000163442  0.489999998614063  0.489999999730745  0.489999999535309  0.489999999113942  0.490000000542935  0.489999999395999  0.49000000151809  0.490000000532396  0.489999998987111  0.489999999846039  0.490000000298028  0.490000000518005  0.489999999338281  0.490000000445622  0.490000000224116  0.489999998784892  0.489999998376618  0.489999999343396  0.490000000450068  0.490000000610802  0.490000000364009  0.490000000076389  0.490000000516309  0.490000000620776  0.490000001318213  0.489999999665621  0.489999998318752  0.490000000931016  0.490000000080858  0.489999999223374  0.489999999252889  0.489999999939141  0.489999998975891  0.490000001340591  0.490000001848164  0.490000000009538  0.490000000418966  0.490000000386075  0.490000000357938  0.490000000125329  0.490000000142788  0.490000000939907  0.490000000094975  0.490000000109542  0.490000000119258  0.489999998989646  0.490000001209862  0.490000001117924  0.490000000745847  0.490000000690731  0.489999998908981  0.489999999111107  0.48999999929037  0.489999999356675  0.490000000054227  0.490000000354669  0.489999999600034  0.489999998646129  0.490000000025598  0.490000000443753  0.490000000012004  0.490000000194548  0.489999998673467  0.490000000405807  0.490000001279982  0.490000000180886  0.490000000423984  0.49000000030308  0.489999999217926  0.490000000241404  0.48999999980376  0.489999999826244  0.489999999872499  0.490000000184435  0.489999999840567  0.489999999794154  0.4899999996677  0.489999998950959  0.489999998269574  
0.489999999958899  0.489999999657139  0.490000000005059  0.490000000618374  0.490000000092858  0.490000000012278  0.490000000158807  0.490000000051374  0.490000000075557  0.489999999518077  0.490000000000583  0.49000000166314  0.490000000059139  0.489999996117089  0.489999999761148  0.478013849205163  0.478408626482052  0.490000000599311  0.490000001571859  0.490000000676447  0.489999999279286  0.490000001471162  0.489999999389537  0.489999999676025  0.489999999650307  0.490000000332098  0.489999997865296  0.489999999750969  0.489999999948758  0.48999999917554  0.489999999930306  0.489999999245568  0.490000000327271  0.489999999921806  0.49000000016498  0.489999999574155  0.490000000320235  0.490000001001923  0.490000000065484  0.489999999405165  0.489999999540785  0.489999999626584  0.49000000017415  0.489999999226213  0.490000000398511  0.490000000659548  0.48999999974973  0.490000001662628  0.490000001845782  0.490000000322339  0.489999998642271  0.489999999208553  0.490000000745933  0.489999999975032  0.490000000112186  0.489999999963175  0.489999998885731  0.489999998956063  0.489999999029977  0.48999999910487  0.489999999179703  0.489999999254015  0.489999999327576  0.489999999400239  0.489999999471888  0.4899999995424  0.489999999611629  0.489999999679396  0.489999999745471  0.489999999809558  0.489999999871273  0.490000000685926  0.490000000680724  0.490000000152791  0.489999999950339  0.490000000913171  0.489999999762551  0.489999999609161  0.490000001134068  0.490000000309703  0.490000000763207  0.49000000007994  0.489999999539602  0.489999999611052  0.490000000241932  0.490000000126857  0.489999999772407  0.489999999993744  0.490000000348371  0.489999999412398  0.490000000466331  0.490000000002794  0.49000000000107  0.490000001047472  0.490000000930361  0.490000001006205  0.490000000293398  0.490000000195536  0.490000000521211  0.490000000218387  
0.489999999958129  0.489999999642488  0.490000001485083  0.489999995253606  0.489999999470959  0.489999999495132  0.489999998982402  0.48999999595008  0.489999996257262  0.48999999976378  0.490000000023633  0.489999999718341  0.48999999954885  0.490000000360691  0.489999999683199  0.478119958315157  0.478212048789724  0.490000000508501  0.490000001021637  0.490000000178371  0.489999999687513  0.489999999110636  0.489999999629619  0.490000001075774  0.490000000263499  0.489999999748497  0.490000000311695  0.489999999760901  0.490000000650606  0.490000000503364  0.489999999750419  0.489999999942753  0.489999999736224  0.490000000403774  0.48999999917781  0.489999999882841  0.490000001521405  0.490000000798486  0.489999998340814  0.49000000044873  0.489999997150913  0.490000001305159  0.490000001150206  0.490000001055434  0.489999999929367  0.490000002068681  0.489999999191657  0.489999999678827  0.490000000163951  0.489999999134165  0.490000000186151  0.490000001257933  0.48999999850519  0.489999998310729  0.489999998701132  0.489999999808218  0.489999999813812  0.489999999825011  0.489999999839886  0.48999999985719  0.489999999876106  0.489999999896081  0.489999999916719  0.489999999937722  0.489999999958847  0.489999999979886  0.490000000000644  0.490000000020926  0.490000000040522  0.490000000059196  0.490000000076666  0.490000000092583  0.490000000106501  0.490000000117832  0.490000000125788  0.489999999415585  0.490000000448112  0.489999999135754  0.489999999241477  0.489999999401591  0.489999999653848  0.490000000485659  0.490000000467924  0.489999999935688  0.490000000292294  0.49000000048426  0.489999999816122  0.490000000018371  0.490000000035997  0.490000000338054  0.490000000035319  0.490000000264944  0.490000000302345  0.490000000275246  0.490000000517953  0.490000000008069  0.490000000255012  0.489999999983377  0.489999999985058  0.490000000113535  
0.490000000002718  0.490000000019596  0.489999999990694  0.48999999990452  0.489999999937769  0.489999999729885  0.490000000770855  0.490000000801113  0.48999999945943  0.48999999992448  0.489999999726773  0.489999998577715  0.49000000057197  0.490000000029228  0.489999999641002  0.478359252326187  0.478251700146675  0.490000000655191  0.490000002563686  0.490000000858668  0.489999999563358  0.489999999144878  0.490000001157912  0.490000000302559  0.490000000187522  0.489999999605539  0.489999997074302  0.490000000182955  0.489999999155326  0.489999999254122  0.490000000468016  0.490000000979712  0.489999999666088  0.49000000046216  0.490000000397085  0.490000000643287  0.490000000347397  0.490000000408222  0.490000001161877  0.489999997972461  0.490000000148277  0.489999999968208  0.489999998535863  0.490000000290757  0.489999999315398  0.490000000031262  0.489999999236628  0.489999999773595  0.490000000376136  0.490000000716693  0.489999999530659  0.489999999803531  0.490000000400258  0.489999999407879  0.490000000757134  0.490000000091913  0.490000000249239  0.49000000033297  0.490000000378183  0.49000000018819  0.490000000147135  0.490000000103274  0.490000000057369  0.49000000000998  0.489999999961536  0.489999999912385  0.489999999862824  0.489999999813125  0.489999999763557  0.489999999714404  0.489999999665992  0.489999999618712  0.489999999573065  0.489999999529712  0.489999999489541  0.489999999453735  0.489999999423722  0.489999999400492  0.489999999380882  0.489999999341286  0.489999999228114  0.490000001367889  0.489999999640463  0.489999999271195  0.489999999606431  0.489999999600408  0.490000001060839  0.490000000723201  0.490000000331824  0.490000000346241  0.490000002284083  0.49000000012237  0.489999999679363  0.490000003042367  0.489999999159876  0.489999999062643  0.489999999981305  0.490000006334382  0.489999999806321  0.48999999992162  
0.490000000653007  0.490000000007713  0.490000000004075  0.490000000000428  0.489999999709642  0.49000000024115  0.490000000231991  0.489999999030482  0.489999999065775  0.48999999452333  0.490000000096551  0.489999999811652  0.490000000175689  0.49000000030835  0.490000000112856  0.478583414988731  0.478226640185204  0.490000000094182  0.490000001304147  0.490000000077171  0.489999999133305  0.489999999044898  0.489999998918519  0.490000000309981  0.490000000901631  0.489999999658691  0.489999999780418  0.490000000265006  0.489999999211191  0.490000000224568  0.490000001125562  0.490000000660844  0.490000000152124  0.490000000472177  0.489999999061911  0.490000000684758  0.489999999570762  0.489999999996915  0.489999998824331  0.489999999704194  0.489999999156517  0.490000000838462  0.490000000442814  0.490000000548525  0.49000000040905  0.490000001343992  0.490000000651715  0.489999999794537  0.490000000506789  0.49000000120434  0.49000000044967  0.489999997846398  0.489999999487849  0.489999999986931  0.490000000463852  0.490000001812329  0.489999999095901  0.489999999066188  0.490000000217115  0.490000000284955  0.490000000354203  0.490000000424545  0.49000000049567  0.490000000567291  0.490000000639141  0.490000000049964  0.490000000039222  0.490000000028841  0.490000000018869  0.49000000000938  0.490000000000472  0.489999999992279  0.489999999984979  0.489999999922373  0.489999999911052  0.489999999901717  0.489999999895101  0.489999999892354  0.489999999895454  0.489999999907974  0.489999999918903  0.490000000116554  0.489999999459404  0.490000000331228  0.490000001674061  0.489999999614079  0.490000001180936  0.490000000173583  0.490000000767751  0.490000000184179  0.490000000987851  0.490000000928639  0.49000000090012  0.490000001029838  0.490000000841303  0.490000000095854  0.490000000478239  0.490000000285902  0.490000000018115  0.489999999937969  
0.489999999997873  0.490000000007986  0.489999999993743  0.489999999992146  0.48999999999198  0.48999999999335  0.490000000009958  0.490000000012953  0.489999999857638  0.490000000646096  0.490000000183718  0.489999999847962  0.489999999878369  0.489999999938726  0.489999999754746  0.478511504894423  0.489999999730156  0.490000000083502  0.490000001736823  0.490000000714628  0.490000000998565  0.489999998705386  0.489999999621839  0.490000000625854  0.490000000516814  0.490000000062689  0.489999999475775  0.490000000074961  0.490000000225495  0.49000000087883  0.489999998795293  0.489999999475954  0.490000000338608  0.49000000036398  0.4900000000132  0.490000000156624  0.490000000089605  0.489999999791931  0.490000002355171  0.490000000168261  0.490000002355786  0.490000000536724  0.489999999952536  0.48999999937429  0.490000000066553  0.489999999507499  0.489999999422234  0.489999999909556  0.489999999585889  0.490000000890797  0.490000000316678  0.489999999547563  0.489999998556414  0.490000001755041  0.490000000696243  0.490000002836089  0.490000001160878  0.490000000861639  0.490000002037046  0.489999999916043  0.490000000154456  0.490000000145292  0.489999999722726  0.489999999710813  0.489999999699472  0.489999999688685  0.489999999678467  0.489999999668859  0.489999999659932  0.489999999651784  0.489999999644545  0.490000000032481  0.490000000019488  0.490000000004126  0.489999999986387  0.489999999966307  0.489999999944164  0.48999999992098  0.489999999899878  0.489999999889504  0.489999999912537  0.489999999489729  0.489999999723658  0.490000000091301  0.48999999896598  0.489999999670384  0.490000000562178  0.490000000317275  0.489999999831353  0.489999999697997  0.489999999954634  0.490000001248485  0.490000000217914  0.490000000248867  0.490000000056319  0.489999999755339  0.490000000022622  0.490000000018583  0.490000000064789  0.490000000105264  
