DSAA
100   100
-99.25   -98.85
19.2   19.6
0.5   5.79557323455811
0.5  0.5  0.5  0.5  0.5  0.5  0.5  0.5  0.5  0.5  0.5  0.5  0.5  0.5  0.5  0.5  0.5  0.5  0.5  0.5  0.5  0.5  0.5  0.5  0.5  0.5  0.5  0.5  0.5  0.5  0.5  0.5  0.5  0.5  0.5  0.5  0.5  0.5  0.5  0.5  0.5  0.5  0.5  0.5  0.5  0.5  0.5  0.5  0.5  0.5  0.5  0.5  0.5  0.5  0.5  0.5  0.5  0.5  0.5  0.5  0.5  0.5  0.5  0.5  0.5  0.5  0.50859123468399  0.635464489459991  0.816614866256714  1.05089068412781  1.30441474914551  1.56397747993469  1.77749943733215  1.91435086727142  2.00033903121948  2.05232977867126  2.06061172485352  1.94543707370758  1.95379281044006  1.96354997158051  1.99617326259613  1.96931135654449  1.94216167926788  1.86659073829651  0.5  0.5  0.5  0.5  0.5  0.5  0.5  0.5  0.5  0.5  0.5  0.5  0.5  0.5  0.5  0.5  
0.5  0.5  0.5  0.5  0.5  0.5  0.5  0.5  0.5  0.5  0.5  0.5  0.5  0.5  0.5  0.5  0.5  0.5  0.5  0.5  0.5  0.5  0.5  0.5  0.5  0.5  0.5  0.5  0.5  0.5  0.5  0.5  0.5  0.5  0.5  0.5  0.5  0.5  0.5  0.5  0.5  0.5  0.5  0.5  0.5  0.5  0.5  0.5  0.5  0.5  0.5  0.5  0.5  0.5  0.5  0.5  0.5  0.5  0.5  0.5  0.5  0.5  0.5  0.5  0.5  0.5  0.5  0.663929462432861  0.86823183298111  1.18397700786591  1.50505125522614  1.78150486946106  1.99772751331329  2.14184188842773  2.14908266067505  2.19447803497314  2.23679256439209  2.22210502624512  2.30305290222168  2.12984108924866  2.11605429649353  2.12720274925232  2.10709190368652  2.08275318145752  2.06050419807434  1.9584721326828  1.92933785915375  0.5  0.5  0.5  0.5  0.5  0.5  0.5  0.5  0.5  0.5  0.5  0.5  0.5  
0.5  0.5  0.5  0.5  0.5  0.5  0.5  0.5  0.5  0.5  0.5  0.5  0.5  0.5  0.5  0.5  0.5  0.5  0.5  0.5  0.5  0.5  0.5  0.5  0.5  0.5  0.5  0.5  0.5  0.5  0.5  0.5  0.5  0.5  0.5  0.5  0.5  0.5  0.5  0.5  0.5  0.5  0.5  0.5  0.5  0.5  0.5  0.5  0.5  0.5  0.5  0.5  0.5  0.5  0.5  0.5  0.5  0.5  0.5  0.5  0.5  0.5  0.5  0.5  0.5  0.5  0.585361957550049  0.758142709732056  0.999241173267365  1.32802724838257  1.69854199886322  2.06728219985962  2.26479411125183  2.39155578613281  2.44981217384338  2.46141123771667  2.41343641281128  2.40054249763489  2.39732503890991  2.42617845535278  2.30864191055298  2.29939436912537  2.26805806159973  2.24832439422607  2.23419070243835  2.22375988960266  2.12424683570862  0.5  0.5  0.5  0.5  0.5  0.5  0.5  0.5  0.5  0.5  0.5  0.5  0.5  
0.5  0.5  0.5  0.5  0.5  0.5  0.5  0.5  0.5  0.5  0.5  0.5  0.5  0.5  0.5  0.5  0.5  0.5  0.5  0.5  0.5  0.5  0.5  0.5  0.5  0.5  0.5  0.5  0.5  0.5  0.5  0.5  0.5  0.5  0.5  0.5  0.5  0.5  0.5  0.5  0.5  0.5  0.5  0.5  0.5  0.5  0.5  0.5  0.5  0.5  0.5  0.5  0.5  0.5  0.5  0.5  0.5  0.5  0.5  0.5  0.5  0.5  0.5  0.5  0.521870791912079  0.569130718708038  0.666157722473145  0.829998195171356  1.12465500831604  1.51570498943329  1.92161095142365  2.24970841407776  2.47493863105774  2.54915761947632  2.62515234947205  2.64030838012695  2.70493292808533  2.5742404460907  2.55646896362305  2.57231497764587  2.5514874458313  2.51813530921936  2.47521996498108  2.43067288398743  2.41027593612671  2.3380229473114  2.39366126060486  0.5  0.5  0.5  0.5  0.5  0.5  0.5  0.5  0.5  0.5  0.5  0.5  0.5  
0.5  0.5  0.5  0.5  0.5  0.5  0.5  0.5  0.5  0.5  0.5  0.5  0.5  0.5  0.5  0.5  0.5  0.5  0.5  0.5  0.5  0.5  0.5  0.5  0.5  0.5  0.5  0.5  0.5  0.5  0.5  0.5  0.5  0.5  0.5  0.5  0.5  0.5  0.5  0.5  0.5  0.5  0.5  0.5  0.5  0.5  0.5  0.5  0.5  0.5  0.5  0.5  0.5  0.5  0.5  0.5  0.5  0.5  0.5  0.5  0.5  0.5  0.5  0.524477005004883  0.582124590873718  0.661197006702423  0.770283758640289  0.94568532705307  1.25929307937622  1.69380462169647  2.13889646530151  2.49084639549255  2.69449543952942  2.7981812953949  2.92742800712585  2.81916856765747  2.81215357780457  2.87116551399231  2.8236346244812  2.7337007522583  2.72170639038086  2.69646692276001  2.67765188217163  2.69289374351501  2.63225555419922  2.6136326789856  2.54036688804626  2.5188934803009  2.45819115638733  0.5  0.5  0.5  0.5  0.5  0.5  0.5  0.5  0.5  0.5  0.5  
0.5  0.5  0.5  0.5  0.5  0.5  0.5  0.5  0.5  0.5  0.5  0.5  0.5  0.5  0.5  0.5  0.5  0.5  0.5  0.5  0.5  0.5  0.5  0.5  0.5  0.5  0.5  0.5  0.5  0.5  0.5  0.5  0.5  0.5  0.5  0.5  0.5  0.5  0.5  0.5  0.5  0.5  0.5  0.5  0.5  0.5  0.5  0.5  0.5  0.5  0.5  0.5  0.5  0.5  0.5  0.5  0.5  0.5  0.5  0.5  0.5  0.5  0.509486854076386  0.560084819793701  0.63259345293045  0.719286203384399  0.837674915790558  1.05781853199005  1.40392875671387  1.87339961528778  2.33463907241821  2.67648863792419  2.87137818336487  2.98235821723938  3.02297735214233  2.99019289016724  2.99798965454102  3.00595951080322  2.99464750289917  2.9577579498291  2.92848038673401  2.9030294418335  2.88543081283569  2.83106780052185  2.86977171897888  2.85638999938965  2.83063793182373  2.72119879722595  2.69503211975098  2.58570146560669  0.5  0.5  0.5  0.5  0.5  0.5  0.5  0.5  0.5  0.5  
0.5  0.5  0.5  0.5  0.5  0.5  0.5  0.5  0.5  0.5  0.5  0.5  0.5  0.5  0.5  0.5  0.5  0.5  0.5  0.5  0.5  0.5  0.5  0.5  0.5  0.5  0.5  0.5  0.5  0.5  0.5  0.5  0.5  0.5  0.5  0.5  0.5  0.5  0.5  0.5  0.5  0.5  0.5  0.5  0.5  0.5  0.5  0.5  0.5  0.5  0.5  0.5  0.5  0.5  0.5  0.5  0.5  0.5  0.5  0.5  0.5  0.5  0.508492827415466  0.570990085601807  0.653079450130463  0.75944060087204  0.9176145195961  1.1859587430954  1.55967700481415  1.99599957466125  2.48731708526611  2.85842108726501  3.0776698589325  3.22737145423889  3.2155647277832  3.25259208679199  3.25532817840576  3.18330597877502  3.17227554321289  3.15191888809204  3.12506198883057  3.15129089355469  3.12576866149902  3.12632179260254  3.08700489997864  3.11117815971375  3.08637380599976  2.91246390342712  2.96146249771118  2.8428168296814  0.5  0.5  0.5  0.5  0.5  0.5  0.5  0.5  0.5  0.5  
0.5  0.5  0.5  0.5  0.5  0.5  0.5  0.5  0.5  0.5  0.5  0.5  0.5  0.5  0.5  0.5  0.5  0.5  0.5  0.5  0.5  0.5  0.5  0.5  0.5  0.5  0.5  0.5  0.5  0.5  0.5  0.5  0.5  0.5  0.5  0.5  0.5  0.5  0.5  0.5  0.5  0.5  0.5  0.5  0.5  0.5  0.5  0.5  0.5  0.5  0.5  0.5  0.5  0.5  0.5  0.5  0.5  0.5  0.5  0.5  0.5  0.5  0.5  0.546255707740784  0.634934484958649  0.754637777805328  0.930754661560059  1.13835692405701  1.65740025043488  2.1280312538147  2.63705658912659  3.01475119590759  3.26717686653137  3.37803077697754  3.41752052307129  3.41999125480652  3.42035841941834  3.40803503990173  3.378830909729  3.36547756195068  3.35271859169006  3.34072494506836  3.3743417263031  3.38456320762634  3.39011907577515  3.40154337882996  3.37678408622742  3.34097695350647  3.11093187332153  3.04350996017456  0.5  0.5  0.5  0.5  0.5  0.5  0.5  0.5  0.5  0.5  
0.5  0.5  0.5  0.5  0.5  0.5  0.5  0.5  0.5  0.5  0.5  0.5  0.5  0.5  0.5  0.5  0.5  0.5  0.5  0.5  0.5  0.5  0.5  0.5  0.5  0.5  0.5  0.5  0.5  0.5  0.5  0.5  0.5  0.5  0.5  0.5  0.5  0.5  0.5  0.5  0.5  0.5  0.5  0.5  0.5  0.5  0.5  0.5  0.5  0.5  0.512030124664307  0.511183381080627  0.5  0.5  0.5  0.5  0.5  0.5  0.5  0.5  0.5  0.5  0.515806138515472  0.552241683006287  0.602695107460022  0.706846117973328  0.886121273040771  1.17762172222137  1.57340896129608  2.05434012413025  2.7079918384552  3.09979319572449  3.44126868247986  3.56781435012817  3.63236331939697  3.65373563766479  3.63459086418152  3.61866736412048  3.59937977790833  3.57457804679871  3.60134553909302  3.61044359207153  3.59416794776917  3.64783930778503  3.65773987770081  3.55317544937134  3.66286087036133  3.55536556243896  3.25306034088135  3.15226793289185  0.5  0.5  0.5  0.5  0.5  0.5  0.5  0.5  0.5  0.5  
0.5  0.5  0.5  0.5  0.5  0.5  0.5  0.5  0.5  0.5  0.5  0.5  0.5  0.5  0.5  0.5  0.5  0.5  0.5  0.5  0.5  0.5  0.5  0.5  0.5  0.5  0.5  0.5  0.5  0.5  0.5  0.5  0.5  0.5  0.5  0.5  0.5  0.5  0.5  0.502579808235168  0.520119249820709  0.527655482292175  0.534801185131073  0.547455251216888  0.55458402633667  0.551386952400208  0.540815591812134  0.524268448352814  0.5  0.5  0.520009338855743  0.535510122776031  0.5  0.5  0.5  0.5  0.5  0.5  0.5  0.5  0.535523176193237  0.569456696510315  0.578691601753235  0.564802527427673  0.5769122838974  0.646874129772186  0.810105681419373  1.16227877140045  1.63997423648834  2.1386513710022  2.68023490905762  3.22552347183228  3.57320880889893  3.76596808433533  3.8249454498291  3.84750413894653  3.84327793121338  3.82426619529724  3.82895112037659  3.82376718521118  3.85024690628052  3.86784839630127  3.88884425163269  3.87625646591187  3.94039106369019  3.92941093444824  3.77567625045776  3.78321075439453  3.72234177589417  3.28078508377075  0.5  0.5  0.5  0.5  0.5  0.5  0.5  0.5  0.5  0.5  
0.5  0.5  0.5  0.5  0.5  0.5  0.5  0.5  0.5  0.5  0.5  0.5  0.5  0.5  0.5  0.5  0.5  0.5  0.5  0.5  0.5  0.5  0.5  0.5  0.5  0.5  0.5  0.5  0.5  0.5  0.5  0.5  0.5  0.5  0.5  0.5  0.5  0.51720803976059  0.569763541221619  0.62549614906311  0.644384443759918  0.657535433769226  0.669850766658783  0.685054779052734  0.689245581626892  0.670025944709778  0.645453333854675  0.615629017353058  0.58165031671524  0.560762941837311  0.566619217395782  0.545058369636536  0.5  0.5  0.5  0.5  0.5  0.5  0.5  0.505826890468597  0.630241096019745  0.685100257396698  0.645891964435577  0.599659860134125  0.61762660741806  0.672871112823486  0.844141602516174  1.16450011730194  1.61195933818817  2.31291675567627  2.82175135612488  3.31253862380981  3.67427039146423  3.88733911514282  4.00835514068604  4.04018592834473  4.06227731704712  4.05936002731323  4.05175733566284  4.07954025268555  4.09774541854858  4.13389348983765  4.137375831604  4.08349943161011  4.09931659698486  4.17050886154175  3.92382383346558  3.82637023925781  3.79578161239624  3.24799251556396  0.5  0.5  0.5  0.5  0.5  0.5  0.5  0.5  0.5  0.5  
0.5  0.5  0.5  0.5  0.5  0.5  0.5  0.5  0.5  0.5  0.5  0.5  0.5  0.5  0.5  0.5  0.5  0.5  0.5  0.5  0.5  0.5  0.5  0.5  0.5  0.5  0.5  0.5  0.5  0.5  0.5  0.5  0.5  0.5  0.5  0.566740751266479  0.618202328681946  0.658073663711548  0.724428355693817  0.812588214874268  0.855088353157043  0.871248602867126  0.888151824474335  0.886815667152405  0.845994591712952  0.78920441865921  0.739724457263947  0.699207723140717  0.649301588535309  0.666388034820557  0.679910361766815  0.609758734703064  0.5  0.5  0.5  0.529108464717865  0.547921717166901  0.53424471616745  0.546079218387604  0.616393506526947  0.750112235546112  0.834790408611298  0.780565142631531  0.727342784404755  0.754035234451294  0.827174186706543  1.00324523448944  1.42799210548401  1.93878149986267  2.39973616600037  2.88831353187561  3.43930053710938  3.78819298744202  4.04068088531494  4.17180585861206  4.23993825912476  4.26173162460327  4.27906942367554  4.28400993347168  4.31024265289307  4.32637882232666  4.29150772094727  4.36943864822388  4.37631750106812  4.2160964012146  4.30217123031616  4.24584293365479  3.89257049560547  3.81840252876282  3.2320339679718  0.5  0.5  0.5  0.5  0.5  0.5  0.5  0.5  0.5  0.5  
0.5  0.5  0.5  0.5  0.5  0.5  0.5  0.5  0.5  0.5  0.5  0.5  0.5  0.5  0.5  0.5  0.5  0.5  0.5  0.5  0.5  0.5  0.5  0.5  0.5  0.5  0.5  0.5  0.5  0.5  0.5  0.5  0.5  0.539698839187622  0.628292798995972  0.759554028511047  0.872062563896179  0.938686907291412  1.04816436767578  1.16979575157166  1.23741185665131  1.29448199272156  1.32085704803467  1.1627813577652  0.901966452598572  0.762471139431  0.727256834506989  0.636544644832611  0.584453463554382  0.626263558864594  0.74431711435318  0.730629622936249  0.64937561750412  0.627009332180023  0.645517230033875  0.725749135017395  0.763622462749481  0.722435474395752  0.728409647941589  0.805720567703247  1.00342881679535  1.13764834403992  1.13882720470428  1.09009540081024  1.15158188343048  1.25753736495972  1.51454997062683  1.93531632423401  2.26710152626038  2.85055351257324  3.26457118988037  3.57549595832825  3.90899753570557  4.17594957351685  4.31515216827393  4.42371273040771  4.45750188827515  4.44797992706299  4.50424337387085  4.4852728843689  4.48793172836304  4.49118232727051  4.43090057373047  4.47340154647827  4.30462265014648  4.21434450149536  4.2038836479187  3.77011847496033  3.54555177688599  3.3901047706604  0.5  0.5  0.5  0.5  0.5  0.5  0.5  0.5  0.5  0.5  
0.5  0.5  0.5  0.5  0.5  0.5  0.5  0.5  0.5  0.5  0.5  0.5  0.5  0.5  0.5  0.5  0.5  0.5  0.5  0.5  0.5  0.5  0.5  0.5  0.5  0.5  0.5  0.5  0.5  0.5  0.5  0.5  0.551952183246613  0.662488043308258  0.839245021343231  1.19558751583099  1.53976309299469  1.66636526584625  1.8125137090683  1.92726576328278  2.05058622360229  2.17415308952332  2.20654582977295  1.49091446399689  0.894801914691925  0.708086609840393  0.68819260597229  0.642838597297668  0.582567453384399  0.603497624397278  0.779153823852539  1.00417709350586  1.01974284648895  1.02824580669403  1.11808586120605  1.24672281742096  1.19825232028961  1.05532288551331  1.03329217433929  1.16141676902771  1.39582371711731  1.589075922966  1.85355377197266  1.94332122802734  2.04540061950684  2.20297122001648  2.36260628700256  2.65558695793152  2.84280729293823  3.25365495681763  3.56606268882751  3.89570999145508  4.09876918792725  4.30145645141602  4.45941019058228  4.50876474380493  4.61851358413696  4.61187648773193  4.62611055374146  4.61315584182739  4.58980655670166  4.58760404586792  4.50048160552979  4.45110940933228  4.45055770874023  4.17465448379517  4.09230852127075  3.63498520851135  3.38713526725769  3.18215751647949  0.5  0.5  0.5  0.5  0.5  0.5  0.5  0.5  0.5  0.5  
0.5  0.5  0.5  0.5  0.5  0.5  0.5  0.5  0.5  0.5  0.5  0.5  0.5  0.5  0.5  0.5  0.5  0.5  0.5  0.5  0.5  0.5  0.5  0.5  0.5  0.5  0.5  0.5  0.5  0.5  0.5  0.565115988254547  0.681245148181915  0.859505832195282  1.27981805801392  2.09017324447632  2.70032262802124  2.89422607421875  2.91072273254395  2.91642904281616  2.97782874107361  3.06446743011475  3.00401401519775  2.31165957450867  1.38958549499512  1.06620752811432  0.919195950031281  0.833722054958344  0.723382771015167  0.745589673519135  0.998585343360901  1.54153835773468  2.04737734794617  2.4290463924408  2.68695783615112  2.51038408279419  1.88443183898926  1.47039914131165  1.41420209407806  1.62669575214386  2.08764171600342  2.56485557556152  2.77259159088135  3.44214558601379  3.33428120613098  3.43689775466919  3.26424741744995  3.39781546592712  3.56747794151306  3.72059679031372  4.04354810714722  4.15296459197998  4.33227205276489  4.45979881286621  4.59058427810669  4.69539594650269  4.75336313247681  4.6946702003479  4.67748403549194  4.67945146560669  4.62614011764526  4.61266422271729  4.53038311004639  4.28802633285522  4.29132843017578  3.98430061340332  3.85947418212891  3.35715246200562  3.02586984634399  2.9175591468811  0.5  0.5  0.5  0.5  0.5  0.5  0.5  0.5  0.5  0.5  
0.5  0.5  0.5  0.5  0.5  0.5  0.5  0.5  0.5  0.5  0.5  0.5  0.5  0.5  0.5  0.5  0.5  0.5  0.5  0.5  0.5  0.5  0.5  0.5  0.5  0.5  0.5  0.5  0.5  0.5  0.555668413639069  0.662927448749542  0.841703653335571  1.19535183906555  1.91793692111969  2.74786829948425  3.25239896774292  3.49066638946533  3.53188633918762  3.54324698448181  3.60903334617615  3.78327989578247  3.86267852783203  3.66502928733826  2.78420329093933  2.05718755722046  1.67792975902557  1.35802400112152  1.08370721340179  1.10768234729767  1.60477459430695  2.56256222724915  3.50639772415161  4.23625040054321  4.34514999389648  3.70034408569336  2.64599466323853  2.05528926849365  1.96721458435059  2.20722675323486  2.82180666923523  3.48491215705872  4.00011014938354  3.96542835235596  4.27782535552979  4.24155521392822  4.00233697891235  3.91870522499084  4.06811428070068  4.1722207069397  4.34976148605347  4.4631462097168  4.55115127563477  4.60385704040527  4.71678638458252  4.82011270523071  4.83338117599487  4.71178483963013  4.59645795822144  4.65388488769531  4.50883483886719  4.5191068649292  4.41187000274658  4.13998126983643  4.07284832000732  3.72469758987427  3.54105448722839  3.28982162475586  2.80900144577026  2.60683083534241  0.5  0.5  0.5  0.5  0.5  0.5  0.5  0.5  0.5  0.5  
0.5  0.5  0.5  0.5  0.5  0.5  0.5  0.5  0.5  0.5  0.5  0.5  0.5  0.5  0.5  0.5  0.5  0.5  0.5  0.5  0.5  0.5  0.5  0.5  0.5  0.5  0.5  0.5  0.5  0.511727571487427  0.629691302776337  0.776820361614227  1.0348573923111  1.62074279785156  2.40912866592407  2.93635296821594  3.34357190132141  3.651930809021  3.77354955673218  3.85967326164246  4.06002044677734  4.27239322662354  4.33089733123779  4.25521659851074  4.11351108551025  3.70907139778137  3.09458923339844  2.48461365699768  2.02411270141602  2.03857254981995  2.6915910243988  3.64707112312317  4.38641166687012  4.87738037109375  4.88045120239258  4.2684531211853  3.47377276420593  2.8700692653656  2.80743074417114  2.99357175827026  3.44859886169434  3.91922640800476  4.44263935089111  5.0960578918457  4.44400119781494  4.38916063308716  4.46145582199097  4.3667688369751  4.37103033065796  4.46174955368042  4.53809118270874  4.63043355941772  4.68946599960327  4.70772123336792  4.73633193969727  4.77743673324585  4.80509901046753  4.67766284942627  4.57770252227783  4.58660221099854  4.4430513381958  4.30989074707031  4.19148015975952  3.96335625648499  3.79154706001282  3.4338800907135  3.1895604133606  2.96251392364502  2.56006145477295  2.34771752357483  0.5  0.5  0.5  0.5  0.5  0.5  0.5  0.5  0.5  0.5  
0.5  0.5  0.5  0.5  0.5  0.5  0.5  0.5  0.5  0.5  0.5  0.5  0.5  0.5  0.5  0.5  0.5  0.5  0.5  0.5  0.5  0.5  0.5  0.5  0.5  0.5  0.5  0.5  0.5  0.518441259860992  0.673159599304199  0.892417073249817  1.30178368091583  1.9917026758194  2.56226897239685  2.96108222007751  3.38588404655457  3.78638887405396  3.96071720123291  4.09479856491089  4.42307329177856  4.50020265579224  4.27795553207397  4.22819328308105  4.1974949836731  4.11516666412354  3.81405544281006  3.26926159858704  2.72916746139526  2.7305281162262  3.34918999671936  4.20437669754028  4.70351934432983  4.99635362625122  5.02034330368042  4.55923557281494  4.11052322387695  3.8678982257843  3.97657752037048  4.02927589416504  4.04168272018433  4.30325412750244  4.96728706359863  5.3041205406189  5.09516620635986  4.93780612945557  4.68573617935181  4.64416217803955  4.56321954727173  4.57401371002197  4.61149549484253  4.62491655349731  4.69074964523315  4.69228601455688  4.72884321212769  4.70627403259277  4.76247358322144  4.62449169158936  4.73534727096558  4.524169921875  4.34096145629883  4.1912088394165  4.00712728500366  3.74148273468018  3.46771430969238  3.19982075691223  2.90152072906494  2.71180462837219  2.2812876701355  2.03411722183228  0.5  0.5  0.5  0.5  0.5  0.5  0.5  0.5  0.5  0.5  
0.5  0.5  0.5  0.5  0.5  0.5  0.5  0.5  0.5  0.5  0.5  0.5  0.5  0.5  0.5  0.5  0.5  0.5  0.5  0.5  0.5  0.5  0.5  0.5  0.5  0.5  0.5  0.5  0.5  0.531766712665558  0.704994857311249  1.00207042694092  1.46698641777039  2.03516888618469  2.3947286605835  2.7104549407959  3.17261624336243  3.71066093444824  4.04621124267578  4.35277318954468  4.73357963562012  4.32577466964722  4.18066692352295  4.0825047492981  4.05611944198608  3.89859557151794  3.48926305770874  2.91479468345642  2.57382655143738  2.59924912452698  3.0717978477478  3.93322348594666  4.35400390625  4.65366268157959  4.84415197372437  4.75145864486694  4.49915456771851  4.51566648483276  4.83750677108765  5.08344268798828  5.11342191696167  5.28167343139648  5.46861028671265  5.6037335395813  5.11247539520264  4.84071969985962  4.92417860031128  4.71343374252319  4.52713108062744  4.50281047821045  4.54543972015381  4.57091045379639  4.54537296295166  4.56979990005493  4.6631646156311  4.71870183944702  4.71004486083984  4.69327306747437  4.51364278793335  4.45853710174561  4.24041891098022  4.08236646652222  3.83073973655701  3.5355007648468  3.19950103759766  3.04968547821045  2.61777567863464  2.3519504070282  2.06223273277283  1.77242195606232  0.5  0.5  0.5  0.5  0.5  0.5  0.5  0.5  0.5  0.5  
0.5  0.5  0.5  0.5  0.5  0.5  0.5  0.5  0.5  0.5  0.5  0.5  0.5  0.5  0.5  0.5  0.5  0.5  0.5  0.5  0.5  0.5  0.5  0.5  0.5  0.5  0.5  0.5  0.525943100452423  0.619774281978607  0.79330575466156  1.07990610599518  1.4932724237442  1.83293223381042  1.94209003448486  2.05170345306396  2.37639856338501  3.02329134941101  3.78034234046936  4.35455751419067  4.78200054168701  4.12043809890747  4.10195732116699  4.00387096405029  3.92041444778442  3.49549841880798  2.8957040309906  2.51424598693848  2.36448979377747  2.43353414535522  2.71660923957825  3.43752288818359  3.94167494773865  4.27502727508545  4.64087677001953  4.91452026367188  5.02368307113647  5.23203992843628  5.57495927810669  5.69677734375  5.63048219680786  5.37213945388794  4.94004774093628  4.90423250198364  4.90503835678101  4.79687786102295  4.76298666000366  4.33785724639893  4.34594678878784  4.33740711212158  4.30302667617798  4.32499885559082  4.36739301681519  4.42886209487915  4.47673988342285  4.63746738433838  4.6042742729187  4.64872121810913  4.47913265228271  4.46889972686768  4.15155982971191  3.9272346496582  3.6506552696228  3.28539514541626  2.94984889030457  2.80129194259644  2.30279469490051  2.07673025131226  1.89603054523468  1.60474586486816  0.5  0.5  0.5  0.5  0.5  0.5  0.5  0.5  0.5  0.5  
0.5  0.5  0.5  0.5  0.5  0.5  0.5  0.5  0.5  0.5  0.5  0.5  0.5  0.5  0.5  0.5  0.5  0.5  0.5  0.5  0.5  0.5  0.5  0.5  0.500165998935699  0.503522753715515  0.520232856273651  0.575239062309265  0.653091669082642  0.793414890766144  0.966796636581421  1.19982326030731  1.4625186920166  1.63846862316132  1.644362449646  1.71804189682007  1.94249653816223  2.47145390510559  3.37585306167603  4.08244800567627  4.47670412063599  4.04829263687134  4.00971364974976  3.9254469871521  3.78063869476318  3.2505030632019  2.69213008880615  2.37803101539612  2.29606008529663  2.36426734924316  2.6369616985321  3.22282481193542  3.67188715934753  4.08393383026123  4.50417280197144  4.83144617080688  5.18243312835693  5.75430488586426  5.79557323455811  5.22730255126953  4.39783906936646  3.59565901756287  3.47569179534912  3.48303055763245  3.72868347167969  3.8740029335022  4.18231010437012  4.12806034088135  3.73630237579346  3.85640430450439  3.95941615104675  4.01160383224487  4.11803770065308  4.26921939849854  4.28763580322266  4.50004005432129  4.46189832687378  4.37861680984497  4.35674619674683  4.23510122299194  4.00066232681274  3.74443006515503  3.45673108100891  3.0589427947998  2.67271018028259  2.56238770484924  2.07200527191162  1.92161023616791  1.71771597862244  0.5  0.5  0.5  0.5  0.5  0.5  0.5  0.5  0.5  0.5  0.5  
0.5  0.5  0.5  0.5  0.5  0.5  0.5  0.5  0.5  0.5  0.5  0.5  0.5  0.5  0.5  0.5  0.5  0.5  0.5  0.5  0.5  0.5  0.5  0.503472626209259  0.519263505935669  0.546078205108643  0.626517176628113  0.711430072784424  0.850717008113861  1.03550231456757  1.1917918920517  1.28976619243622  1.42121315002441  1.56525361537933  1.62620770931244  1.73138225078583  2.03601217269897  2.68247413635254  3.42945098876953  3.86669063568115  3.96157789230347  4.0519905090332  3.86864066123962  3.7882993221283  3.65905451774597  3.20323991775513  2.66944670677185  2.34289312362671  2.30222082138062  2.38268256187439  2.59012699127197  2.96841621398926  3.39278340339661  3.84340763092041  4.22058725357056  4.45764112472534  4.91614007949829  5.60706806182861  5.46339559555054  4.02043342590332  2.77001047134399  2.27410221099854  1.99158799648285  2.02724575996399  2.31889081001282  2.42985725402832  2.89671754837036  3.15474319458008  2.95551657676697  3.32472324371338  3.53103685379028  3.78239297866821  3.90996098518372  4.11711025238037  4.22677040100098  4.21485185623169  4.24572801589966  4.20277547836304  4.11940956115723  4.13669967651367  3.78989386558533  3.4864444732666  3.15757656097412  2.80713939666748  2.47580718994141  2.36592435836792  1.90621078014374  1.15702855587006  1.56069779396057  0.5  0.5  0.5  0.5  0.5  0.5  0.5  0.5  0.5  0.5  0.5  
0.5  0.5  0.5  0.5  0.5  0.5  0.5  0.5  0.5  0.5  0.5  0.5  0.5  0.5  0.5  0.5  0.5  0.5  0.5  0.5  0.5  0.5  0.501140713691711  0.508859634399414  0.531853139400482  0.589307606220245  0.676699280738831  0.80285257101059  0.979748606681824  1.16058826446533  1.22845470905304  1.24124073982239  1.34000778198242  1.53710651397705  1.80264270305634  2.12905883789063  2.58617424964905  3.17585444450378  3.55203723907471  3.66376566886902  3.61319017410278  3.57991552352905  3.59610199928284  3.65076279640198  3.53520655632019  3.08561992645264  2.58646416664124  2.26184773445129  2.17859101295471  2.16452026367188  2.18479442596436  2.45492100715637  2.82779884338379  3.28094935417175  3.59860467910767  3.89217376708984  4.34497928619385  4.67800092697144  4.04111957550049  2.65286993980408  1.75077998638153  1.41118359565735  1.27845466136932  1.27383649349213  1.38880240917206  1.4831235408783  1.70625174045563  2.1345431804657  2.72124218940735  3.18779921531677  3.10567235946655  3.40672850608826  3.67897725105286  3.8406195640564  3.88988566398621  3.97305822372437  3.97035384178162  3.89659643173218  3.81357908248901  3.74508428573608  3.49462699890137  3.19251227378845  2.83867192268372  2.4964165687561  2.203528881073  1.99548923969269  1.76286065578461  1.0288747549057  1.47118949890137  0.5  0.5  0.5  0.5  0.5  0.5  0.5  0.5  0.5  0.5  0.5  
0.5  0.5  0.5  0.5  0.5  0.5  0.5  0.5  0.5  0.5  0.5  0.5  0.5  0.5  0.5  0.5  0.5  0.5  0.5  0.5  0.5  0.5  0.500765681266785  0.505743324756622  0.533353626728058  0.600947916507721  0.67806613445282  0.794826924800873  0.951636373996735  1.07248020172119  1.11040091514587  1.15098714828491  1.26076364517212  1.47409474849701  1.83655416965485  2.27833533287048  2.73316025733948  3.16380190849304  3.42425394058228  3.47567081451416  3.38800311088562  3.40807485580444  3.45658206939697  3.44492745399475  3.26180148124695  2.90062522888184  2.34348297119141  1.94217336177826  1.78716647624969  1.71465373039246  1.66924560070038  1.67891943454742  1.69341087341309  1.75354790687561  1.85999643802643  2.30703806877136  2.53855419158936  2.33778238296509  1.8784886598587  1.33235549926758  1.04233551025391  0.888643622398376  0.849225521087646  0.853376448154449  0.850764513015747  0.901222348213196  0.952195525169373  1.36861872673035  1.86812400817871  2.50674510002136  3.13329339027405  3.5456440448761  3.52322244644165  3.62674450874329  3.5880663394928  3.58518838882446  3.55373883247375  3.46736764907837  3.40107774734497  3.26158404350281  3.12541246414185  2.7470498085022  2.63080310821533  2.22219228744507  1.97110676765442  1.71461391448975  1.56923067569733  0.914148926734924  0.5  0.5  0.5  0.5  0.5  0.5  0.5  0.5  0.5  0.5  0.5  0.5  
0.5  0.5  0.5  0.5  0.5  0.5  0.5  0.5  0.5  0.5  0.5  0.5  0.5  0.5  0.5  0.5  0.5  0.5  0.5  0.5  0.5  0.5  0.5  0.500953674316406  0.525699496269226  0.602183759212494  0.67745715379715  0.768109321594238  0.870860159397125  0.970375955104828  1.03472685813904  1.10205960273743  1.22266674041748  1.43718481063843  1.79381275177002  2.21230626106262  2.6140558719635  2.95874071121216  3.17391490936279  3.25324153900146  3.30712080001831  3.40171051025391  3.37998342514038  3.18478798866272  2.93469715118408  2.64152073860168  2.11298942565918  1.52224743366241  1.30466735363007  1.18562459945679  1.08122420310974  0.890943050384521  0.704792857170105  0.663896858692169  0.708196043968201  1.05316305160522  1.17917740345001  1.01790308952332  0.814718961715698  0.66484546661377  0.598329365253448  0.569120526313782  0.566839933395386  0.574293375015259  0.571013569831848  0.610680758953094  0.674655616283417  0.890190958976746  1.41062772274017  2.45088720321655  2.92909026145935  3.48872447013855  3.4523606300354  3.45921349525452  3.31467008590698  3.1843273639679  3.07812070846558  3.00979113578796  2.94538116455078  2.78742814064026  2.6055154800415  2.29642391204834  1.48110711574554  1.85139489173889  1.65887188911438  1.62920331954956  1.50227081775665  0.830363988876343  0.5  0.5  0.5  0.5  0.5  0.5  0.5  0.5  0.5  0.5  0.5  0.5  
0.5  0.5  0.5  0.5  0.5  0.5  0.5  0.5  0.5  0.5  0.5  0.5  0.5  0.5  0.5  0.5  0.5  0.5  0.5  0.5  0.5  0.5  0.5  0.5  0.515313982963562  0.584438621997833  0.663579046726227  0.749136209487915  0.836665868759155  0.932047963142395  1.02019166946411  1.10184586048126  1.23057150840759  1.44886791706085  1.77634727954865  2.12432837486267  2.44464588165283  2.70893359184265  2.87716889381409  2.99610328674316  3.10173106193542  3.19754815101624  3.08287048339844  2.81314611434937  2.56115508079529  2.26440906524658  1.7481335401535  1.13963735103607  0.893504559993744  0.769718527793884  0.655952215194702  0.564666986465454  0.5  0.5  0.52360475063324  0.613574862480164  0.662968039512634  0.573884785175323  0.503522217273712  0.5  0.5  0.5  0.5  0.5  0.5  0.518221080303192  0.561334609985352  0.696814060211182  1.09179162979126  1.71779251098633  2.7879524230957  3.30733299255371  3.4880907535553  3.29467916488647  2.99180793762207  2.7317066192627  2.54833674430847  2.41336917877197  2.30370330810547  2.18102335929871  1.97599315643311  1.89824557304382  1.24834299087524  1.59958529472351  0.905587911605835  1.50112164020538  1.32388961315155  0.759872257709503  0.5  0.5  0.5  0.5  0.5  0.5  0.5  0.5  0.5  0.5  0.5  0.5  
0.5  0.5  0.5  0.5  0.5  0.5  0.5  0.5  0.5  0.5  0.5  0.5  0.5  0.5  0.5  0.5  0.5  0.5  0.5  0.5  0.5  0.5  0.5  0.5  0.501349210739136  0.540468275547028  0.617304623126984  0.720752358436584  0.821767568588257  0.923220932483673  1.01684021949768  1.1092050075531  1.24281346797943  1.46343648433685  1.7516040802002  2.03953671455383  2.27722215652466  2.46559262275696  2.61490726470947  2.72872757911682  2.79252219200134  2.79778051376343  2.62609505653381  2.37535452842712  2.10201287269592  1.68633210659027  1.12664830684662  0.740499258041382  0.596618175506592  0.536796808242798  0.503032445907593  0.5  0.5  0.524763524532318  0.5  0.502983570098877  0.5  0.5  0.5  0.5  0.5  0.5  0.5  0.5  0.5  0.5  0.523492217063904  0.597561895847321  0.704721987247467  0.913719296455383  1.7448502779007  2.80680513381958  3.11505961418152  2.8179874420166  2.45781660079956  2.18686842918396  1.97627258300781  1.81128120422363  1.70567536354065  1.60587131977081  1.22720038890839  1.4298107624054  0.977144300937653  1.29342901706696  0.856366574764252  1.1097172498703  0.960719883441925  0.5  0.5  0.5  0.5  0.5  0.5  0.5  0.5  0.5  0.5  0.5  0.5  0.5  
0.5  0.5  0.5  0.5  0.5  0.5  0.5  0.5  0.5  0.5  0.5  0.5  0.5  0.5  0.5  0.5  0.5  0.5  0.5  0.5  0.5  0.5  0.5  0.5  0.5  0.507766485214233  0.565466523170471  0.675205886363983  0.805209696292877  0.912284016609192  0.996690511703491  1.08702397346497  1.21553897857666  1.43466782569885  1.72943830490112  1.9877849817276  2.13264751434326  2.23795199394226  2.35484313964844  2.46632266044617  2.50416970252991  2.44031357765198  2.25015711784363  1.98432600498199  1.57480537891388  0.960622489452362  0.594153702259064  0.516595304012299  0.5  0.5  0.5  0.500965774059296  0.536103904247284  0.547523438930511  0.517382681369781  0.5  0.5  0.519391596317291  0.551965713500977  0.533658981323242  0.52888011932373  0.531404495239258  0.515563070774078  0.501381397247314  0.5  0.5  0.511161327362061  0.514384984970093  0.5  0.592364132404327  1.06756126880646  2.13124394416809  2.45574474334717  2.17559003829956  1.91158366203308  1.66177475452423  1.47631371021271  1.31631076335907  1.2080237865448  0.995033025741577  0.897183656692505  0.858208179473877  0.81445986032486  0.886777520179749  0.794020652770996  0.937060236930847  0.687520503997803  0.5  0.5  0.5  0.5  0.5  0.5  0.5  0.5  0.5  0.5  0.5  0.5  0.5  
0.5  0.5  0.5  0.5  0.5  0.5  0.5  0.5  0.5  0.5  0.5  0.5  0.5  0.5  0.5  0.5  0.5  0.5  0.5  0.5  0.5  0.5  0.5  0.5  0.5  0.5  0.541197597980499  0.635427594184875  0.773297309875488  0.889988780021667  0.983686447143555  1.08509802818298  1.2141660451889  1.41664910316467  1.69758319854736  1.89211928844452  1.9701384305954  2.0229024887085  2.09123206138611  2.1417441368103  2.13020825386047  2.07025504112244  1.95212137699127  1.64524376392365  0.986652851104736  0.562788844108582  0.5  0.5  0.512651085853577  0.511197328567505  0.510324835777283  0.521844446659088  0.518800556659698  0.506734728813171  0.5  0.502726137638092  0.531111538410187  0.538350105285645  0.50800621509552  0.5  0.502826631069183  0.5  0.502330541610718  0.50143575668335  0.5  0.5  0.530396640300751  0.515887796878815  0.5  0.520249009132385  0.871247887611389  1.56409692764282  1.84014642238617  1.57928907871246  1.50165688991547  1.21312379837036  1.0572292804718  0.889048457145691  0.785080075263977  0.713108003139496  0.702044248580933  0.547189712524414  0.623059988021851  0.560159981250763  0.542737245559692  0.795609056949615  0.84538859128952  0.5  0.5  0.5  0.5  0.5  0.5  0.5  0.5  0.5  0.5  0.5  0.5  0.5  
0.5  0.5  0.5  0.5  0.5  0.5  0.5  0.5  0.5  0.5  0.5  0.5  0.5  0.5  0.5  0.5  0.5  0.5  0.5  0.5  0.5  0.5  0.5  0.5  0.5  0.5  0.541042804718018  0.636214554309845  0.77686733007431  0.91096293926239  1.01256358623505  1.11812424659729  1.25252211093903  1.44597661495209  1.63844096660614  1.72573280334473  1.72377955913544  1.64810276031494  1.61275720596313  1.59281432628632  1.55630302429199  1.53046202659607  1.60484421253204  1.35636699199677  0.808638393878937  0.526537597179413  0.502752602100372  0.5467808842659  0.556914091110229  0.518834114074707  0.5  0.5  0.50640594959259  0.5  0.5  0.5  0.516160666942596  0.514735102653503  0.5  0.5  0.5  0.5  0.5  0.5  0.5  0.5  0.528619110584259  0.556091785430908  0.534008741378784  0.578571021556854  0.80251270532608  1.05344927310944  1.19789218902588  1.27097940444946  1.10465466976166  0.924829959869385  0.825457274913788  0.674231648445129  0.565178334712982  0.5  0.5  0.5  0.5  0.5  0.5  0.5  0.5  0.5  0.5  0.5  0.5  0.5  0.5  0.5  0.5  0.5  0.5  0.5  0.5  0.5  
0.5  0.5  0.5  0.5  0.5  0.5  0.5  0.5  0.5  0.5  0.5  0.5  0.5  0.5  0.5  0.5  0.5  0.5  0.5  0.5  0.5  0.5  0.5  0.5  0.5  0.5  0.568198800086975  0.695545375347137  0.84752094745636  0.995317995548248  1.11288976669312  1.23607587814331  1.36326503753662  1.47181105613709  1.49860858917236  1.40458190441132  1.22481596469879  1.02122604846954  0.899445235729218  0.935720384120941  0.874013721942902  0.873773276805878  1.12437295913696  1.29023563861847  0.977236092090607  0.585239112377167  0.50124192237854  0.5  0.525526821613312  0.537345886230469  0.5  0.5  0.509242355823517  0.5  0.5  0.5  0.503333866596222  0.510419189929962  0.500862002372742  0.5  0.5  0.5  0.5  0.5  0.5  0.5  0.505074381828308  0.53899484872818  0.580885767936707  0.610982596874237  0.624016165733337  0.652992129325867  0.748145878314972  0.862534999847412  0.924834370613098  0.807399690151215  0.693848490715027  0.584708452224731  0.5  0.5  0.5  0.5  0.5  0.5  0.5  0.5  0.5  0.5  0.5  0.5  0.5  0.5  0.5  0.5  0.5  0.5  0.5  0.5  0.5  0.5  
0.5  0.5  0.5  0.5  0.5  0.5  0.5  0.5  0.5  0.5  0.5  0.5  0.5  0.5  0.5  0.5  0.5  0.5  0.5  0.5  0.506807744503021  0.519238531589508  0.521464288234711  0.5  0.5  0.522867023944855  0.674310147762299  0.879257678985596  1.01878488063812  1.1260998249054  1.25464344024658  1.36942374706268  1.43752038478851  1.39867687225342  1.2240332365036  0.949187815189362  0.744671285152435  0.623091876506805  0.538106024265289  0.555583119392395  0.528210163116455  0.550714194774628  0.810629665851593  1.20972454547882  1.27710282802582  0.999408185482025  0.694189846515656  0.589765727519989  0.5  0.534650146961212  0.575235903263092  0.549578428268433  0.525399744510651  0.504159152507782  0.5  0.5  0.5  0.5  0.501181960105896  0.5  0.5  0.5  0.5  0.5  0.5  0.5  0.5  0.520173788070679  0.529826879501343  0.525693893432617  0.521477520465851  0.520511031150818  0.545344352722168  0.657510578632355  0.742462992668152  0.690742015838623  0.610764384269714  0.527629733085632  0.5  0.5  0.5  0.5  0.5  0.5  0.5  0.5  0.5  0.5  0.5  0.5  0.5  0.5  0.5  0.5  0.5  0.5  0.5  0.5  0.5  0.5  
0.5  0.5  0.5  0.5  0.5  0.5  0.5  0.5  0.5  0.5  0.5  0.5  0.5  0.5  0.5  0.5  0.5  0.5  0.5  0.501531362533569  0.511357426643372  0.535794973373413  0.544245898723602  0.510357797145844  0.5  0.60271555185318  0.849776208400726  1.07560539245605  1.17034816741943  1.23078787326813  1.33286762237549  1.42033159732819  1.43316447734833  1.25480246543884  0.902900636196136  0.596216857433319  0.521257281303406  0.507974088191986  0.5  0.5  0.5  0.502896726131439  0.596151828765869  0.872736990451813  1.22184252738953  1.48047983646393  1.8038284778595  1.23513400554657  0.60350638628006  0.5  0.54054182767868  0.519553780555725  0.506324529647827  0.507160425186157  0.5  0.5  0.5  0.5  0.5  0.5  0.5  0.5  0.5  0.5  0.5  0.5  0.5  0.502641677856445  0.508709728717804  0.5  0.5  0.5  0.521632790565491  0.543017566204071  0.605520129203796  0.613561928272247  0.557360470294952  0.5  0.5  0.5  0.5  0.5  0.5  0.5  0.5  0.5  0.5  0.5  0.5  0.5  0.5  0.5  0.5  0.5  0.5  0.5  0.5  0.5  0.5  0.5  
0.5  0.5  0.5  0.5  0.5  0.5  0.5  0.5  0.5  0.5  0.5  0.5  0.5  0.5  0.5  0.5  0.5  0.5  0.5  0.5  0.5  0.505625367164612  0.504517257213593  0.5  0.540308952331543  0.75062507390976  1.01182675361633  1.20065701007843  1.27778613567352  1.30004394054413  1.37612926959991  1.4255553483963  1.41931211948395  1.14802217483521  0.730012774467468  0.544009625911713  0.5  0.5  0.5  0.501815497875214  0.511534869670868  0.503854334354401  0.500320315361023  0.589443743228912  0.87478494644165  1.23162114620209  2.08015131950378  1.98708558082581  0.920960366725922  0.538697421550751  0.5  0.5  0.5  0.5  0.5  0.509186387062073  0.5  0.5  0.5  0.5  0.5  0.5  0.5  0.5  0.5  0.5  0.5  0.5  0.5  0.5  0.5  0.5  0.504574596881866  0.520784616470337  0.531835794448853  0.532858610153198  0.501943409442902  0.5  0.5  0.5  0.5  0.5  0.5  0.5  0.5  0.5  0.5  0.5  0.5  0.5  0.5  0.5  0.5  0.5  0.5  0.5  0.5  0.5  0.5  0.5  
0.5  0.5  0.5  0.5  0.5  0.5  0.5  0.5  0.5  0.5  0.5  0.5  0.5  0.5  0.5  0.5  0.5  0.5  0.5  0.5  0.5  0.5  0.521901667118073  0.592765212059021  0.721756458282471  0.95074337720871  1.14408850669861  1.25431776046753  1.30086541175842  1.33602023124695  1.40707516670227  1.44677662849426  1.36878764629364  0.992207527160645  0.640381932258606  0.52614289522171  0.50286203622818  0.5  0.5  0.50031590461731  0.500011742115021  0.501148879528046  0.505319058895111  0.546231687068939  0.651653468608856  0.844252705574036  1.48765981197357  1.93179357051849  1.33555519580841  0.717692613601685  0.609289944171906  0.610976696014404  0.602343857288361  0.532731592655182  0.5  0.5  0.5  0.5  0.5  0.503678560256958  0.5  0.5  0.5  0.501854121685028  0.505252540111542  0.5  0.5  0.5  0.5  0.5  0.500807583332062  0.505496323108673  0.506148278713226  0.502439558506012  0.508996486663818  0.51606148481369  0.5  0.5  0.5  0.5  0.5  0.5  0.5  0.5  0.5  0.5  0.5  0.5  0.5  0.5  0.5  0.5  0.5  0.5  0.5  0.5  0.5  0.5  0.5  0.5  
0.5  0.5  0.5  0.5  0.5  0.5  0.5  0.5  0.5  0.5  0.5  0.5  0.5  0.5  0.5  0.5  0.5  0.5  0.5  0.500955939292908  0.532499730587006  0.585558295249939  0.674119412899017  0.788095831871033  0.927876174449921  1.09681367874146  1.17028844356537  1.21693313121796  1.28832042217255  1.38151895999908  1.4578583240509  1.52581977844238  1.39058244228363  0.971339344978333  0.618899524211884  0.514271557331085  0.5  0.5  0.5  0.511840283870697  0.5  0.501857578754425  0.5  0.52209734916687  0.593001663684845  0.7269486784935  1.06833207607269  1.51529347896576  1.54648673534393  1.27267825603485  1.13518416881561  1.17737829685211  1.0623459815979  0.79845118522644  0.612150013446808  0.521162092685699  0.500997543334961  0.5  0.5  0.5  0.502075552940369  0.5  0.5  0.510955274105072  0.5  0.5  0.5  0.5  0.502607464790344  0.505763590335846  0.506421864032745  0.511879563331604  0.50654262304306  0.5  0.5  0.503469586372375  0.5  0.5  0.5  0.5  0.5  0.5  0.5  0.5  0.5  0.5  0.5  0.5  0.5  0.5  0.5  0.5  0.5  0.5  0.5  0.5  0.5  0.5  0.5  0.5  
0.5  0.5  0.5  0.5  0.5  0.5  0.5  0.5  0.5  0.5  0.5  0.5  0.5  0.5  0.5  0.5  0.5  0.5  0.5  0.526641488075256  0.59250020980835  0.680769383907318  0.797550559043884  0.902090787887573  0.998235046863556  1.10372745990753  1.16123235225677  1.19962227344513  1.29949855804443  1.40144348144531  1.51691722869873  1.58407747745514  1.45581829547882  1.04829561710358  0.663843989372253  0.529767096042633  0.5  0.5  0.502920746803284  0.519422173500061  0.507249772548676  0.5  0.508506000041962  0.550460040569305  0.630789399147034  0.719207406044006  0.92677229642868  1.3240202665329  1.60047852993011  1.85639750957489  2.28829503059387  2.58443355560303  1.97263038158417  1.31399881839752  0.894438445568085  0.660935997962952  0.555375099182129  0.509958803653717  0.5  0.5  0.5  0.5  0.5  0.5  0.5  0.5  0.50584864616394  0.51570588350296  0.516387164592743  0.507403194904327  0.505830347537994  0.516757249832153  0.50809246301651  0.5  0.5  0.5  0.5  0.5  0.5  0.5  0.5  0.5  0.5  0.5  0.5  0.5  0.5  0.5  0.5  0.5  0.5  0.5  0.5  0.5  0.5  0.5  0.5  0.5  0.5  0.5  
0.5  0.5  0.5  0.5  0.5  0.5  0.5  0.5  0.5  0.5  0.5  0.5  0.5  0.5  0.5  0.5  0.5  0.5  0.5  0.557748317718506  0.651710093021393  0.742979943752289  0.838500618934631  0.931461036205292  1.01871454715729  1.08586394786835  1.10660076141357  1.16025495529175  1.26540040969849  1.40468204021454  1.52683448791504  1.59699749946594  1.5457706451416  1.25647449493408  0.848775029182434  0.597956657409668  0.517320454120636  0.512340664863586  0.539276957511902  0.550608992576599  0.518239259719849  0.5  0.514969885349274  0.673039317131042  0.782199561595917  0.849704802036285  1.05083703994751  1.4350494146347  1.74512875080109  2.17244935035706  2.8322389125824  3.30535912513733  2.97464108467102  1.9715211391449  1.27801203727722  0.882485210895538  0.667091488838196  0.558405101299286  0.515333950519562  0.5  0.5  0.5  0.5  0.5  0.518815219402313  0.52688992023468  0.544930636882782  0.55457615852356  0.535703778266907  0.5  0.5  0.5  0.518195509910584  0.507271468639374  0.5  0.5  0.5  0.5  0.5  0.5  0.5  0.5  0.5  0.5  0.5  0.5  0.5  0.5  0.5  0.5  0.5  0.5  0.5  0.5  0.5  0.5  0.5  0.5  0.5  0.5  
0.5  0.5  0.5  0.5  0.5  0.5  0.5  0.5  0.5  0.5  0.5  0.5  0.5  0.5  0.5  0.5  0.5  0.5  0.5  0.550686657428741  0.636252343654633  0.729910790920258  0.832916915416718  0.947409629821777  1.05015635490417  1.08692634105682  1.09049224853516  1.14146435260773  1.21811246871948  1.31930363178253  1.44940841197968  1.58713638782501  1.64103472232819  1.53938221931458  1.25105905532837  0.894365310668945  0.682125568389893  0.648486375808716  0.65423709154129  0.505668580532074  0.5  0.556190013885498  0.642899453639984  0.995204210281372  1.17244350910187  1.19338822364807  1.38220298290253  1.64105212688446  1.90551674365997  2.3711531162262  2.98838305473328  3.35348606109619  3.16022968292236  2.24233150482178  1.44271278381348  1.04544603824615  0.773001194000244  0.606514871120453  0.557082414627075  0.562199354171753  0.529640674591064  0.5  0.50179535150528  0.517527759075165  0.578784108161926  0.678447782993317  0.738482236862183  0.714549362659454  0.593956828117371  0.524204134941101  0.5  0.502318382263184  0.540736496448517  0.543429970741272  0.517040431499481  0.5  0.5  0.5  0.5  0.5  0.5  0.5  0.5  0.5  0.5  0.5  0.5  0.5  0.5  0.5  0.5  0.5  0.5  0.5  0.5  0.5  0.5  0.5  0.5  0.5  
0.5  0.5  0.5  0.5  0.5  0.5  0.5  0.5  0.5  0.5  0.5  0.5  0.5  0.5  0.5  0.5  0.5  0.5  0.5  0.526832699775696  0.578789472579956  0.696358799934387  0.835851788520813  0.973745226860046  1.09138906002045  1.11840331554413  1.11823570728302  1.16236340999603  1.22572422027588  1.31016743183136  1.43030834197998  1.61179745197296  1.76250231266022  1.81791651248932  1.69710314273834  1.44875872135162  1.22667634487152  1.14778769016266  0.913601219654083  0.576537847518921  0.571344256401062  0.807150900363922  1.14231097698212  1.52368855476379  1.81940913200378  1.91982543468475  1.88359117507935  1.99247586727142  2.27315640449524  2.79526114463806  3.34581637382507  3.43452382087708  2.96637725830078  2.05380773544312  1.33950328826904  0.983712017536163  0.770853340625763  0.65438449382782  0.717479825019836  0.685744404792786  0.618325889110565  0.593024969100952  0.578265428543091  0.602363109588623  0.728306293487549  0.937533140182495  1.06231319904327  1.0977680683136  0.830982148647308  0.634215354919434  0.55320531129837  0.566927552223206  0.619926154613495  0.581258058547974  0.528350114822388  0.5  0.5  0.5  0.5  0.5  0.5  0.5  0.5  0.5  0.5  0.5  0.5  0.5  0.5  0.5  0.5  0.5  0.5  0.5  0.5  0.5  0.5  0.5  0.5  0.5  
0.5  0.5  0.5  0.5  0.5  0.5  0.5  0.5  0.5  0.5  0.5  0.5  0.5  0.5  0.5  0.5  0.5  0.5  0.5  0.528015553951263  0.575983762741089  0.693258762359619  0.843308568000793  0.998403131961823  1.11447727680206  1.11575877666473  1.12052059173584  1.18462955951691  1.2681450843811  1.36582899093628  1.50957679748535  1.72949755191803  1.887819647789  1.92414975166321  1.84646129608154  1.73611903190613  1.60321700572968  1.57051396369934  1.3740541934967  1.15118610858917  1.14728581905365  1.53863179683685  1.97205877304077  2.26550269126892  2.46325898170471  2.55240392684937  2.50729179382324  2.56620597839355  2.92217636108398  3.46591830253601  3.86485123634338  3.67331004142761  2.62041449546814  1.43912017345428  0.866929352283478  0.696315407752991  0.668487429618835  0.822891712188721  0.97943115234375  0.97142630815506  0.902276277542114  0.812051892280579  0.789884328842163  0.842032253742218  1.04485487937927  1.35563516616821  1.56910789012909  1.48492705821991  1.19224119186401  0.94821035861969  0.833373308181763  0.802847623825073  0.725384950637817  0.635309219360352  0.545526266098022  0.5  0.5  0.5  0.5  0.5  0.5  0.5  0.5  0.5  0.5  0.5  0.5  0.5  0.5  0.5  0.5  0.5  0.5  0.5  0.5  0.5  0.5  0.5  0.5  0.5  
0.5  0.5  0.5  0.5  0.5  0.5  0.5  0.5  0.5  0.5  0.5  0.5  0.5  0.5  0.5  0.5  0.5  0.5  0.5  0.51345282793045  0.550966620445251  0.666414082050323  0.834352195262909  0.993491411209106  1.08019649982452  1.0896589756012  1.1374831199646  1.22298121452332  1.35033094882965  1.49413597583771  1.68194270133972  1.90159893035889  2.07313466072083  2.1715714931488  2.20202827453613  2.19940209388733  2.20731258392334  2.15930724143982  2.05172276496887  2.17427706718445  2.4275484085083  2.7613627910614  2.91331267356873  2.88213086128235  2.9489278793335  3.02542853355408  3.14147877693176  3.3431122303009  3.73125314712524  4.17077779769897  4.3146390914917  3.5552818775177  1.94078242778778  0.853747725486755  0.555615127086639  0.518631219863892  0.626488506793976  0.876644849777222  1.15522348880768  1.28040254116058  1.28298211097717  1.20933246612549  1.1998325586319  1.2853045463562  1.5662260055542  2.02030658721924  2.36207151412964  2.22171664237976  1.81728339195251  1.4306423664093  1.18809545040131  1.01974308490753  0.841506659984589  0.673562467098236  0.599888026714325  0.54346764087677  0.507546484470367  0.5  0.5  0.5  0.5  0.5  0.5  0.5  0.5  0.5  0.5  0.5  0.5  0.5  0.5  0.5  0.5  0.5  0.5  0.5  0.5  0.5  0.5  0.5  
0.5  0.5  0.5  0.5  0.5  0.5  0.5  0.5  0.5  0.5  0.5  0.5  0.5  0.5  0.5  0.5  0.5  0.5  0.5  0.5  0.508095324039459  0.62601900100708  0.852284371852875  1.04971444606781  1.14428186416626  1.15823340415955  1.22040593624115  1.33750331401825  1.49780106544495  1.68653273582459  1.90455985069275  2.10852789878845  2.28449630737305  2.41751432418823  2.51802635192871  2.62251377105713  2.72780227661133  2.75176358222961  2.87179970741272  3.13172435760498  3.51148462295532  3.69795393943787  3.5302095413208  3.27703094482422  3.22981977462769  3.36107659339905  3.60071229934692  3.96067762374878  4.32466077804565  4.48044967651367  4.18897533416748  3.0409255027771  1.48577845096588  0.679342031478882  0.512286186218262  0.5  0.540762007236481  0.786343336105347  1.31661570072174  1.69160962104797  1.77524399757385  1.74075365066528  1.76800322532654  1.85838425159454  2.11204123497009  2.78475213050842  3.32991790771484  3.08885169029236  2.52442049980164  1.89229035377502  1.42424893379211  1.11762058734894  0.899999916553497  0.718092083930969  0.625049233436584  0.568161070346832  0.526462078094482  0.5  0.5  0.5  0.5  0.5  0.5  0.5  0.5  0.5  0.5  0.5  0.5  0.5  0.5  0.5  0.5  0.5  0.5  0.5  0.5  0.5  0.5  0.5  
0.5  0.5  0.5  0.5  0.5  0.5  0.5  0.5  0.5  0.5  0.5  0.5  0.5  0.5  0.5  0.5  0.5  0.5  0.506758987903595  0.507960021495819  0.534937739372253  0.685282409191132  0.937592923641205  1.18296992778778  1.32586789131165  1.32480680942535  1.36037659645081  1.47799742221832  1.65231132507324  1.88771271705627  2.15022921562195  2.37388849258423  2.53372073173523  2.64384078979492  2.74900507926941  2.87119626998901  3.05189919471741  3.24460315704346  3.45965242385864  3.79762887954712  4.10862398147583  3.92289805412292  3.67384266853333  3.54744243621826  3.56053972244263  3.68579244613647  3.91251468658447  4.21557950973511  4.4463095664978  4.38442230224609  3.9321072101593  2.72252941131592  1.32377696037292  0.708419501781464  0.543542265892029  0.513063430786133  0.5  0.680730938911438  1.54354763031006  2.20298027992249  2.33475351333618  2.33110308647156  2.27535009384155  2.50485372543335  2.79576063156128  3.35705709457397  4.0750036239624  3.65934824943542  2.84031796455383  1.97583222389221  1.3930983543396  1.01422166824341  0.810518622398376  0.661111652851105  0.625048518180847  0.555046498775482  0.524116992950439  0.501882493495941  0.5  0.5  0.5  0.5  0.5  0.5  0.5  0.5  0.5  0.5  0.5  0.5  0.5  0.5  0.5  0.5  0.5  0.5  0.5  0.5  0.5  0.5  
0.5  0.5  0.5  0.5  0.5  0.5  0.5  0.5  0.5  0.5  0.5  0.5  0.5  0.5  0.5  0.5  0.5  0.5  0.528107345104218  0.601677238941193  0.696296393871307  0.847864210605621  1.048748254776  1.30918347835541  1.46818590164185  1.42365670204163  1.43983030319214  1.58328294754028  1.78759658336639  2.0773446559906  2.38765430450439  2.6397442817688  2.79613280296326  2.85572242736816  2.93974304199219  3.08278703689575  3.26656198501587  3.47766923904419  3.67318177223206  3.8152072429657  3.8996570110321  3.92264366149902  3.86141753196716  3.82184100151062  3.87920904159546  3.98754715919495  4.12059116363525  4.22472620010376  4.25876092910767  4.27696943283081  3.9344596862793  3.1049485206604  1.66201341152191  0.669285595417023  0.508546411991119  0.561820149421692  0.569102764129639  0.925144612789154  2.20039796829224  2.92348909378052  2.92690491676331  2.83105754852295  2.84567284584045  2.98489737510681  3.58310055732727  4.18638181686401  4.33353185653687  3.43079948425293  2.38760638237  1.59043073654175  1.08062314987183  0.785918891429901  0.649005949497223  0.593439280986786  0.549205183982849  0.519151270389557  0.511446297168732  0.501978099346161  0.5  0.5  0.5  0.5  0.5  0.5  0.5  0.5  0.5  0.5  0.5  0.5  0.5  0.5  0.5  0.5  0.5  0.5  0.5  0.5  0.5  0.5  
0.5  0.5  0.5  0.5  0.5  0.5  0.5  0.5  0.5  0.5  0.5  0.5  0.5  0.5  0.5  0.5  0.5  0.5  0.5409916639328  0.652797758579254  0.795518696308136  0.947328686714172  1.12376892566681  1.37673389911652  1.50060606002808  1.42082345485687  1.45454430580139  1.65646755695343  1.89304375648499  2.1786105632782  2.52798533439636  2.82925629615784  2.98548698425293  3.01567697525024  3.10947132110596  3.27292442321777  3.45934700965881  3.65513586997986  3.82448530197144  3.94932746887207  4.02474451065063  4.0462121963501  4.03116512298584  4.02542114257813  4.07011461257935  4.13620948791504  4.18500900268555  4.21879291534424  4.28099250793457  4.2870659828186  4.14398622512817  3.72031617164612  2.72580981254578  1.33154702186584  0.821982264518738  0.991325080394745  1.27994155883789  2.2865903377533  3.56122732162476  3.8496196269989  3.64786982536316  3.40155911445618  3.34452533721924  3.95088958740234  4.46025609970093  4.67265224456787  3.97149419784546  2.70193839073181  1.72383141517639  1.14624667167664  0.810233235359192  0.609687745571136  0.531922101974487  0.531476080417633  0.509368360042572  0.5  0.5  0.5  0.5  0.5  0.5  0.5  0.5  0.5  0.5  0.5  0.5  0.5  0.5  0.5  0.5  0.5  0.5  0.5  0.5  0.5  0.5  0.5  0.5  0.5  
0.5  0.5  0.5  0.5  0.5  0.5  0.5  0.5  0.5  0.5  0.5  0.5  0.5  0.5  0.5  0.5  0.5  0.5  0.5  0.631705403327942  0.827440083026886  0.988110423088074  1.14281690120697  1.34196066856384  1.49085032939911  1.49883913993835  1.58882176876068  1.7884635925293  1.9768785238266  2.19558882713318  2.4954776763916  2.80409145355225  2.96806621551514  3.03604340553284  3.17253708839417  3.39032626152039  3.61783242225647  3.81031513214111  3.97343397140503  4.11798906326294  4.23319005966187  4.28134298324585  4.21171951293945  4.03956985473633  3.96097493171692  3.95627665519714  4.04511880874634  4.19097805023193  4.3304009437561  4.4078803062439  4.4071741104126  4.34227132797241  4.07419443130493  3.38079404830933  2.73606276512146  2.68643093109131  3.24419641494751  4.1875319480896  4.76747369766235  4.73424291610718  4.39932107925415  4.11759376525879  3.92376756668091  4.80801343917847  5.04939889907837  4.74470520019531  3.36372375488281  1.97133672237396  1.22989392280579  0.811713397502899  0.636359512805939  0.542902648448944  0.5  0.503129899501801  0.5  0.5  0.5  0.5  0.5  0.5  0.5  0.5  0.5  0.5  0.5  0.5  0.5  0.5  0.5  0.5  0.5  0.5  0.5  0.5  0.5  0.5  0.5  0.5  0.5  0.5  
0.5  0.5  0.5  0.5  0.5  0.5  0.5  0.5  0.5  0.5  0.5  0.5  0.5  0.5  0.5  0.5  0.5  0.5  0.511794924736023  0.629209339618683  0.818159699440002  0.969454824924469  1.11298930644989  1.31001627445221  1.52227437496185  1.70393395423889  1.86902117729187  1.99826526641846  2.0994131565094  2.26247215270996  2.47678184509277  2.71023750305176  2.903080701828  3.04421257972717  3.2326066493988  3.51102733612061  3.77466440200806  3.97168898582459  4.1291446685791  4.30215215682983  4.41453123092651  4.45951795578003  4.30290126800537  3.95175313949585  3.77503204345703  3.77025890350342  3.82625579833984  3.95719456672668  4.15694713592529  4.33156442642212  4.42769432067871  4.54295063018799  4.63336944580078  4.5695972442627  4.38802051544189  4.24497842788696  4.42924785614014  4.83320236206055  5.1347222328186  5.13554334640503  4.98782777786255  4.73957538604736  5.0495924949646  4.34711360931396  4.9068775177002  3.79453325271606  2.37587857246399  1.3515043258667  0.865127801895142  0.64298015832901  0.524663031101227  0.5  0.5  0.5  0.5  0.502491295337677  0.5  0.5  0.5  0.50129508972168  0.506197452545166  0.510706961154938  0.5  0.5  0.5  0.5  0.5  0.5  0.5  0.5  0.5  0.5  0.5  0.5  0.5  0.5  0.5  0.5  0.5  0.5  
0.5  0.5  0.5  0.5  0.5  0.5  0.5  0.5  0.5  0.5  0.5  0.5  0.5  0.5  0.5  0.5  0.5  0.539706945419312  0.612115204334259  0.713207066059113  0.833651900291443  0.945119082927704  1.09370183944702  1.32055270671844  1.58963811397552  1.84685504436493  2.06532621383667  2.19370293617249  2.26426792144775  2.38920331001282  2.56243062019348  2.76773428916931  2.94607639312744  3.10617470741272  3.31597709655762  3.62100768089294  3.91068387031555  4.11933517456055  4.27125215530396  4.40726184844971  4.48558187484741  4.43851327896118  4.21689510345459  3.89160847663879  3.73797369003296  3.70150184631348  3.66842985153198  3.67971038818359  3.79197645187378  3.98284649848938  4.14882946014404  4.31401348114014  4.53941917419434  4.72570896148682  4.74886703491211  4.70126581192017  4.75466537475586  4.87373018264771  4.99682521820068  5.03618717193604  5.01118183135986  5.17822599411011  5.09357643127441  4.90715789794922  4.19588899612427  2.78769636154175  1.57377505302429  0.870221734046936  0.59410572052002  0.533279120922089  0.5  0.5  0.5  0.5  0.506614863872528  0.509402751922607  0.501753866672516  0.5  0.5  0.504156708717346  0.510512590408325  0.51558929681778  0.566214978694916  0.5  0.5  0.5  0.5  0.5  0.5  0.5  0.5  0.5  0.5  0.5  0.5  0.5  0.5  0.5  0.5  0.5  
0.5  0.5  0.5  0.5  0.5  0.5  0.5  0.5  0.5  0.5  0.5  0.5  0.5  0.5  0.5  0.5  0.5  0.632974028587341  0.771717548370361  0.863082408905029  0.929090619087219  1.02945041656494  1.16971039772034  1.40566980838776  1.71113479137421  2.00275564193726  2.25769448280334  2.41354560852051  2.48347210884094  2.59351849555969  2.7559962272644  2.93979263305664  3.0893726348877  3.20978617668152  3.38617277145386  3.66739892959595  3.97717022895813  4.20103168487549  4.35637378692627  4.41047430038452  4.30716609954834  4.12629079818726  3.95290207862854  3.81926345825195  3.74376511573792  3.67301058769226  3.56499671936035  3.54362845420837  3.60129261016846  3.73362350463867  3.89684271812439  4.03935623168945  4.23804712295532  4.54408311843872  4.76625633239746  4.83636331558228  4.86281776428223  4.86069774627686  4.83513879776001  4.82422924041748  4.84673070907593  4.88759326934814  5.01434993743896  4.61959505081177  3.34853315353394  2.08632826805115  1.18600630760193  0.688149034976959  0.502985715866089  0.5  0.5  0.5  0.500700652599335  0.510567605495453  0.519120395183563  0.515415906906128  0.506915152072906  0.502283215522766  0.501938760280609  0.5  0.502134561538696  0.514721035957336  0.589791238307953  0.5  0.5  0.5  0.5  0.5  0.5  0.5  0.5  0.5  0.5  0.5  0.5  0.5  0.5  0.5  0.5  0.5  
0.5  0.5  0.5  0.5  0.5  0.5  0.5  0.5  0.5  0.5  0.5  0.5  0.5  0.5  0.5  0.5  0.5  0.727693676948547  0.883131384849548  0.990906894207001  1.09157526493073  1.21090161800385  1.35221719741821  1.59116446971893  1.89241516590118  2.21042060852051  2.51815724372864  2.72108030319214  2.74993181228638  2.77906966209412  2.91878008842468  3.09220480918884  3.2441840171814  3.3379225730896  3.4682035446167  3.71576523780823  4.03052854537964  4.26832485198975  4.41451072692871  4.38013744354248  4.09556245803833  3.90765261650085  3.840904712677  3.80370187759399  3.78686141967773  3.69372344017029  3.5627121925354  3.53718709945679  3.59303092956543  3.72506976127625  3.84451293945313  3.94359040260315  4.0942440032959  4.39753913879395  4.74777364730835  4.91392612457275  4.93252372741699  4.86711502075195  4.7565746307373  4.70584630966187  4.77621078491211  4.92807006835938  4.9131178855896  4.13364315032959  2.65858435630798  1.8037611246109  1.12877702713013  0.734967231750488  0.540529489517212  0.5  0.5  0.503788352012634  0.525608003139496  0.522639691829681  0.519883096218109  0.514615297317505  0.507323384284973  0.500329494476318  0.5  0.5  0.5  0.500246584415436  0.540317118167877  0.5  0.5  0.5  0.5  0.5  0.5  0.5  0.5  0.5  0.5  0.5  0.5  0.5  0.5  0.5  0.5  0.5  
0.5  0.5  0.5  0.5  0.5  0.5  0.5  0.5  0.5  0.5  0.5  0.5  0.5  0.5  0.5  0.5  0.627772510051727  0.766242384910584  0.92620587348938  1.07333862781525  1.23247694969177  1.40721476078033  1.57600343227386  1.77797102928162  2.05961441993713  2.40776610374451  2.75888538360596  3.0080029964447  2.98332500457764  2.91472840309143  3.02209377288818  3.17689871788025  3.33111643791199  3.44980454444885  3.58682584762573  3.8162362575531  4.08926296234131  4.300368309021  4.45026874542236  4.40678310394287  4.11372327804565  3.93287754058838  3.90630531311035  3.93372750282288  3.94766211509705  3.82755589485168  3.67614126205444  3.64513826370239  3.70110082626343  3.81882095336914  3.9305145740509  3.99206948280334  4.11199140548706  4.39424562454224  4.76293325424194  4.98399448394775  5.01645421981812  4.91809844970703  4.78178548812866  4.74187135696411  4.84283399581909  5.02886199951172  4.76590824127197  3.57386136054993  2.33356213569641  1.5471099615097  1.0548779964447  0.757296085357666  0.571833431720734  0.5  0.5  0.503534495830536  0.527827739715576  0.534297823905945  0.51677143573761  0.508180856704712  0.502601683139801  0.500514388084412  0.504167258739471  0.5  0.501115381717682  0.5  0.5  0.5  0.512726008892059  0.5  0.5  0.5  0.5  0.5  0.5  0.5  0.5  0.5  0.5  0.5  0.5  0.5  0.5  0.5  
0.5  0.5  0.5  0.5  0.5  0.5  0.5  0.5  0.5  0.5  0.5  0.5  0.5  0.5  0.5  0.505108535289764  0.580621898174286  0.732083737850189  0.922578096389771  1.12450194358826  1.34543251991272  1.55675172805786  1.75541532039642  1.94731068611145  2.19544196128845  2.55031490325928  2.89167809486389  3.09384226799011  3.04423809051514  2.97889113426209  3.05071306228638  3.18047094345093  3.32957339286804  3.48282527923584  3.66136050224304  3.83709478378296  4.02576112747192  4.22858047485352  4.40014696121216  4.43625736236572  4.32125759124756  4.23791217803955  4.25943613052368  4.32852029800415  4.32617425918579  4.09348583221436  3.86668539047241  3.76673626899719  3.82764101028442  3.95925235748291  4.08568620681763  4.14621591567993  4.23579406738281  4.49786424636841  4.83106231689453  5.0695972442627  5.13691473007202  5.05804777145386  4.90093326568604  4.83470439910889  4.89976787567139  5.00017642974854  4.6829776763916  3.31409788131714  2.45279550552368  1.60625600814819  1.05303645133972  0.713008403778076  0.550274193286896  0.5  0.5  0.5  0.518333315849304  0.521603345870972  0.515210926532745  0.504245638847351  0.5  0.502227008342743  0.50963693857193  0.5  0.506074786186218  0.529034376144409  0.527933955192566  0.518759727478027  0.516125082969666  0.5  0.5  0.5  0.5  0.5  0.5  0.5  0.5  0.5  0.5  0.5  0.5  0.5  0.5  0.5  
0.5  0.5  0.5  0.5  0.5  0.5  0.5  0.5  0.5  0.5  0.5  0.5  0.5  0.5  0.5  0.5  0.567251324653625  0.71991890668869  0.936314105987549  1.19573771953583  1.50478863716125  1.74408411979675  1.93838465213776  2.11398339271545  2.29748249053955  2.58219742774963  2.8564248085022  2.94352722167969  2.94562530517578  2.96924114227295  2.99854373931885  3.09822368621826  3.2624180316925  3.47936010360718  3.68343639373779  3.79315185546875  3.821528673172  3.96526765823364  4.23130416870117  4.4184889793396  4.49817228317261  4.55946016311646  4.64154100418091  4.70341014862061  4.68295955657959  4.43970823287964  4.10775279998779  3.94256472587585  3.9758768081665  4.09141159057617  4.19625520706177  4.23476600646973  4.32033205032349  4.54498100280762  4.87530136108398  5.16206216812134  5.26941394805908  5.22692012786865  5.08790445327759  4.95397996902466  4.84930372238159  4.72241973876953  4.2953519821167  3.3362147808075  2.27900075912476  1.51244962215424  1.02951800823212  0.745904922485352  0.596512913703918  0.52148449420929  0.5  0.5  0.508565962314606  0.509130954742432  0.500780940055847  0.5  0.5  0.5  0.5  0.5  0.507182896137238  0.532692134380341  0.5  0.522938668727875  0.517492949962616  0.58291494846344  0.5  0.5  0.5  0.5  0.5  0.5  0.5  0.5  0.5  0.5  0.5  0.5  0.5  0.5  
0.5  0.5  0.5  0.5  0.5  0.5  0.5  0.5  0.5  0.5  0.5  0.5  0.5  0.500947713851929  0.503665745258331  0.51708847284317  0.595986783504486  0.749470412731171  0.967943847179413  1.2584822177887  1.62188100814819  1.89880454540253  2.13229298591614  2.30225515365601  2.35838222503662  2.50067019462585  2.68255305290222  2.76301240921021  2.8592894077301  2.93441534042358  2.94136953353882  3.03380680084229  3.19907593727112  3.43493628501892  3.66626834869385  3.76483368873596  3.7367250919342  3.80594754219055  4.09659767150879  4.35994577407837  4.50417613983154  4.61249971389771  4.71101140975952  4.79278373718262  4.8166446685791  4.65966129302979  4.45245933532715  4.32784271240234  4.27942037582397  4.27325010299683  4.26111316680908  4.261399269104  4.3322606086731  4.53014326095581  4.89494132995605  5.22293615341187  5.36194753646851  5.33424949645996  5.17002296447754  4.97656059265137  4.68646860122681  4.3056526184082  3.78931069374084  3.00726914405823  2.13816595077515  1.48610258102417  1.03797733783722  0.775206923484802  0.612667262554169  0.52031534910202  0.5  0.500985085964203  0.5  0.501877307891846  0.5  0.5  0.5  0.5  0.5  0.5  0.524735510349274  0.5  0.530867755413055  0.51932966709137  0.513770043849945  0.504286348819733  0.5  0.5  0.5  0.5  0.5  0.5  0.5  0.5  0.5  0.5  0.5  0.5  0.5  0.5  
0.5  0.5  0.5  0.5  0.5  0.5  0.5  0.5  0.5  0.5  0.5  0.5  0.5  0.510927319526672  0.523821234703064  0.549274027347565  0.63039368391037  0.77565723657608  0.981795370578766  1.25793540477753  1.59115302562714  1.88363289833069  2.18893647193909  2.39216780662537  2.40552234649658  2.47338318824768  2.57280230522156  2.64860963821411  2.7424054145813  2.77833724021912  2.81207203865051  2.95302271842957  3.13936853408813  3.32676672935486  3.54239463806152  3.67611312866211  3.6685676574707  3.7507905960083  4.02194118499756  4.2479305267334  4.35733699798584  4.45149946212769  4.55776357650757  4.67358589172363  4.75108861923218  4.73433065414429  4.78864622116089  4.8777813911438  4.79819011688232  4.57560443878174  4.36119747161865  4.30254507064819  4.35540008544922  4.50708341598511  4.83653402328491  5.18287324905396  5.35829639434814  5.30660343170166  5.1146035194397  4.85460186004639  4.43481349945068  4.05475330352783  3.46538114547729  2.77426862716675  2.0544707775116  1.48883402347565  1.06558835506439  0.809387862682343  0.624112844467163  0.534151494503021  0.513855993747711  0.506273567676544  0.5  0.5  0.5  0.5  0.5  0.5  0.5  0.5  0.5  0.5  0.530778646469116  0.529086053371429  0.527056336402893  0.518949091434479  0.5  0.5  0.5  0.5  0.5  0.5  0.5  0.5  0.5  0.5  0.5  0.5  0.5  0.5  
0.5  0.5  0.5  0.5  0.5  0.5  0.5  0.5  0.5  0.5  0.5  0.5  0.500026106834412  0.502564132213593  0.514025509357452  0.553669929504395  0.64119964838028  0.774488270282745  0.962185144424438  1.18157577514648  1.42074525356293  1.68296849727631  2.01891207695007  2.31093621253967  2.37875843048096  2.40371704101563  2.42961454391479  2.49500322341919  2.56312227249146  2.58930468559265  2.67409896850586  2.84955835342407  3.0465624332428  3.19932460784912  3.34993505477905  3.49052619934082  3.59695029258728  3.77690172195435  3.97986578941345  4.06221342086792  3.93641376495361  3.81537795066834  3.93403005599976  4.2099781036377  4.39131641387939  4.61383533477783  4.93790245056152  5.24383401870728  5.24862146377563  4.91521739959717  4.53107118606567  4.3671817779541  4.36561012268066  4.45066118240356  4.64848756790161  4.91516733169556  5.11412715911865  5.11252784729004  4.91436004638672  4.6331033706665  4.29293251037598  3.78057217597961  3.19228482246399  2.6184720993042  2.02053952217102  1.52616405487061  1.14625704288483  0.85878312587738  0.680370330810547  0.583450853824615  0.540670394897461  0.512606382369995  0.5  0.5  0.5  0.50150591135025  0.5  0.502820014953613  0.502008080482483  0.5  0.5  0.539440989494324  0.54153174161911  0.5  0.532411575317383  0.522488355636597  0.509320616722107  0.5  0.5  0.5  0.5  0.5  0.5  0.5  0.5  0.5  0.5  0.5  0.5  0.5  
0.5  0.5  0.5  0.5  0.5  0.5  0.5  0.5  0.5  0.5  0.5  0.5  0.5  0.5  0.5  0.506993353366852  0.617879033088684  0.78825455904007  0.960140705108643  1.10591340065002  1.25095784664154  1.4530668258667  1.74817979335785  2.08508777618408  2.20048642158508  2.22587633132935  2.27700352668762  2.36636161804199  2.43215441703796  2.47983312606812  2.56696557998657  2.71918749809265  2.91009545326233  3.04905581474304  3.14062118530273  3.25844740867615  3.46226668357849  3.72475790977478  3.87270402908325  3.68609881401062  2.49255752563477  1.94815361499786  2.39594769477844  3.07832789421082  3.82547378540039  4.33622789382935  4.68850088119507  5.01036262512207  5.11696815490723  4.9742283821106  4.69286775588989  4.45673561096191  4.38417625427246  4.40562582015991  4.48413705825806  4.58856582641602  4.72919750213623  4.77017307281494  4.65479564666748  4.41424465179443  4.11230087280273  3.60763001441956  3.11843371391296  2.54209685325623  2.02159285545349  1.61386013031006  1.23867285251617  0.932442605495453  0.759301364421844  0.646503508090973  0.581903100013733  0.54119884967804  0.518255531787872  0.512419641017914  0.512902438640594  0.509446501731873  0.50768780708313  0.515821576118469  0.516125738620758  0.517429411411285  0.51691609621048  0.554109156131744  0.508506298065186  0.502118229866028  0.54960036277771  0.541170001029968  0.539712131023407  0.5  0.5  0.5  0.5  0.5  0.5  0.5  0.5  0.5  0.5  0.5  0.5  0.5  
0.5  0.5  0.5  0.5  0.5  0.5  0.5  0.5  0.5  0.5  0.504998028278351  0.500735819339752  0.5  0.5  0.5  0.507011830806732  0.658860623836517  0.860685586929321  0.994532644748688  1.0786395072937  1.17436158657074  1.32421457767487  1.53155088424683  1.75808501243591  1.91777789592743  2.03125500679016  2.14509558677673  2.24126601219177  2.31411623954773  2.36566090583801  2.44902682304382  2.56844997406006  2.73905754089355  2.87655186653137  2.97647190093994  3.10340452194214  3.30860257148743  3.58014512062073  3.6786642074585  2.76444149017334  0.678657472133636  0.625245094299316  0.971988558769226  2.05116748809814  3.43066477775574  4.07551431655884  4.32769346237183  4.53654527664185  4.66749000549316  4.78818273544312  4.75024604797363  4.55263948440552  4.43045425415039  4.40846014022827  4.4208779335022  4.45725965499878  4.46443176269531  4.49591732025146  4.38703012466431  4.26189661026001  3.94677305221558  3.47687149047852  3.01962208747864  2.532475233078  1.99662172794342  1.65831768512726  1.28782856464386  1.02832889556885  0.854964792728424  0.727386832237244  0.640986442565918  0.597667276859283  0.56683474779129  0.546671748161316  0.535561203956604  0.53548002243042  0.535910308361053  0.538198828697205  0.538738489151001  0.562798798084259  0.538735628128052  0.578082501888275  0.583512544631958  0.590190887451172  0.570828378200531  0.564394056797028  0.549355745315552  0.5  0.5  0.5  0.5  0.5  0.5  0.5  0.5  0.5  0.5  0.5  0.5  0.5  
0.5  0.5  0.5  0.5  0.5  0.5  0.5  0.5  0.5  0.5  0.5  0.5  0.5  0.5  0.5083127617836  0.589104354381561  0.746634125709534  0.901592493057251  0.991511225700378  1.05075621604919  1.1265367269516  1.24137389659882  1.39882814884186  1.57074975967407  1.72105658054352  1.86907160282135  2.01189374923706  2.11633729934692  2.21169447898865  2.27817964553833  2.36040949821472  2.47418880462646  2.63607549667358  2.78398680686951  2.89600777626038  3.03590202331543  3.24579477310181  3.4390606880188  3.36351776123047  2.30867576599121  0.733749032020569  0.523024559020996  0.545794308185577  1.55719125270844  3.4473032951355  3.99009108543396  4.25071430206299  4.41846323013306  4.58340883255005  4.77359437942505  4.81907606124878  4.67862558364868  4.52337837219238  4.44414854049683  4.41661930084229  4.40511608123779  4.39049625396729  4.36607360839844  4.31518268585205  4.15968036651611  3.85249376296997  3.48746228218079  2.95446062088013  2.57571840286255  2.17511701583862  1.7415509223938  1.4288694858551  1.14505076408386  0.956494152545929  0.829580008983612  0.741460382938385  0.679699122905731  0.620467364788055  0.586661577224731  0.57663905620575  0.580319166183472  0.572393894195557  0.570483505725861  0.58305561542511  0.579234719276428  0.614290058612823  0.602327108383179  0.604848980903625  0.617743611335754  0.611522436141968  0.599802136421204  0.571463763713837  0.5  0.5  0.5  0.5  0.5  0.5  0.5  0.5  0.5  0.5  0.5  0.5  0.5  
0.5  0.5  0.5  0.5  0.5  0.5  0.5  0.5  0.5  0.5  0.5  0.5  0.5  0.5  0.538206577301025  0.641823410987854  0.77547687292099  0.878412544727325  0.931176722049713  0.973334908485413  1.04296326637268  1.15757918357849  1.30027258396149  1.44876277446747  1.59506368637085  1.74547803401947  1.90403532981873  2.03227829933167  2.150310754776  2.25173330307007  2.33625411987305  2.46302318572998  2.62105345726013  2.75528287887573  2.87124443054199  3.03472900390625  3.24693965911865  3.35887360572815  3.26123905181885  2.84478211402893  1.58437788486481  0.720859527587891  0.658502459526062  2.09883975982666  3.5753173828125  4.00658273696899  4.30814361572266  4.55791187286377  4.73897314071655  4.89195871353149  4.9805965423584  4.83906030654907  4.69760847091675  4.57011985778809  4.49715662002563  4.47073173522949  4.42680740356445  4.39762163162231  4.30509424209595  4.07400369644165  3.77117133140564  3.42321753501892  3.0301308631897  2.618732213974  2.19535160064697  1.86656963825226  1.52097678184509  1.23818135261536  1.08046734333038  0.950287222862244  0.855280041694641  0.709711372852325  0.650364637374878  0.70239794254303  0.663173019886017  0.636823654174805  0.623920321464539  0.637966811656952  0.628240883350372  0.623002111911774  0.643377065658569  0.724078714847565  0.729081630706787  0.649014890193939  0.639577627182007  0.740636825561523  0.592526257038116  0.568759620189667  0.5  0.5  0.5  0.5  0.5  0.5  0.5  0.5  0.5  0.5  0.5  0.5  
0.5  0.5  0.5  0.5  0.5  0.5  0.5  0.5  0.5  0.5  0.5  0.5  0.5  0.5  0.539863407611847  0.630980014801025  0.74217301607132  0.83681458234787  0.883021354675293  0.889840483665466  0.934460937976837  1.05366611480713  1.20276463031769  1.34448254108429  1.49712800979614  1.69023156166077  1.88921046257019  2.03346347808838  2.12632942199707  2.24137187004089  2.38265919685364  2.54533576965332  2.6566903591156  2.71856141090393  2.81317734718323  2.9660120010376  3.17146039009094  3.27686548233032  3.24648237228394  3.1504590511322  2.88486957550049  2.38511872291565  2.40688562393188  3.31722784042358  3.80257201194763  4.09692716598511  4.38740158081055  4.62693691253662  4.82997894287109  5.00569438934326  5.07882261276245  5.04284191131592  4.93873071670532  4.81374502182007  4.72603797912598  4.67360496520996  4.59032154083252  4.50140619277954  4.34155130386353  4.11784887313843  3.83420348167419  3.4461190700531  2.95363068580627  2.60771679878235  2.33425736427307  1.94181704521179  1.65301406383514  1.42310416698456  1.25379729270935  1.08496129512787  0.828445136547089  0.789743363857269  0.859623074531555  0.771720349788666  0.743202388286591  0.749792754650116  0.751084208488464  0.762710332870483  0.760403871536255  0.696183562278748  0.749149560928345  0.770041108131409  0.668875515460968  0.671574473381042  0.737395346164703  0.752037763595581  0.61407458782196  0.671179950237274  0.5  0.5  0.5  0.5  0.5  0.5  0.5  0.5  0.5  0.5  0.5  0.5  
0.5  0.5  0.5  0.5  0.5  0.5  0.5  0.5  0.5  0.5  0.5  0.5  0.5  0.5  0.556074500083923  0.633223474025726  0.730890393257141  0.817058980464935  0.855531573295593  0.855556726455688  0.888674080371857  0.98485267162323  1.11867189407349  1.25453293323517  1.41987347602844  1.6550087928772  1.91242980957031  2.0509979724884  2.07926154136658  2.1535165309906  2.34515118598938  2.59052491188049  2.71336054801941  2.70021939277649  2.72537016868591  2.84884428977966  3.02821946144104  3.13615584373474  3.1315131187439  3.16036343574524  3.2429096698761  3.36135816574097  3.51178097724915  3.73393750190735  3.96812796592712  4.22850465774536  4.47111892700195  4.67626953125  4.87108898162842  5.03634262084961  5.11719369888306  5.12726497650146  5.10195970535278  5.03946161270142  4.9563159942627  4.87364435195923  4.78415870666504  4.63630056381226  4.38411664962769  4.1290111541748  3.82518267631531  3.48214101791382  3.04681205749512  2.85531640052795  2.48021769523621  2.1789710521698  1.87362420558929  1.66061341762543  1.48256456851959  1.33124971389771  1.09906601905823  1.03409147262573  0.98723703622818  0.932239234447479  0.899822652339935  0.874053001403809  0.865392625331879  0.850044667720795  0.83591228723526  0.818219125270844  0.8031907081604  0.814434349536896  0.764488399028778  0.782906651496887  0.790910840034485  0.637338042259216  0.70916485786438  0.705767631530762  0.5  0.5  0.5  0.5  0.5  0.5  0.5  0.5  0.5  0.5  0.5  0.5  
0.5  0.5  0.5  0.5  0.5  0.5  0.5  0.5  0.5  0.5  0.5  0.5  0.5  0.537544548511505  0.594010710716248  0.665057361125946  0.741019785404205  0.802392482757568  0.831754803657532  0.830171048641205  0.861648380756378  0.940919101238251  1.04691076278687  1.17420268058777  1.34286832809448  1.57500016689301  1.81461238861084  1.95130372047424  1.95433175563812  1.99677491188049  2.18963646888733  2.42021679878235  2.58620977401733  2.64097356796265  2.65754795074463  2.78234362602234  2.91666412353516  3.01532959938049  3.01265454292297  3.09189081192017  3.26066207885742  3.48880124092102  3.69991874694824  3.897141456604  4.14655017852783  4.42351961135864  4.64772081375122  4.80352067947388  4.91544008255005  5.01000833511353  5.07601833343506  5.11035776138306  5.11895656585693  5.07598304748535  4.99345731735229  4.91439723968506  4.80013084411621  4.65513610839844  4.39674711227417  4.1702823638916  3.8374924659729  3.58831477165222  3.21706557273865  2.85911464691162  2.58066821098328  2.24620246887207  2.02574825286865  1.81787490844727  1.62655293941498  1.5140928030014  1.28939187526703  1.21411371231079  1.19124519824982  1.11252641677856  1.03340446949005  0.991550445556641  0.933248519897461  0.896127939224243  0.904126822948456  0.877942681312561  0.852799594402313  0.823406279087067  0.797729313373566  0.8085857629776  0.683894634246826  0.70946478843689  0.726861715316772  0.5  0.5  0.5  0.5  0.5  0.5  0.5  0.5  0.5  0.5  0.5  0.5  0.5  
0.5  0.5  0.5  0.5  0.5  0.5  0.5  0.5  0.5  0.5  0.5  0.5  0.518391072750092  0.594674944877625  0.649635672569275  0.697623670101166  0.7457355260849  0.782208263874054  0.798948049545288  0.804811894893646  0.8317511677742  0.891621351242065  0.980300903320313  1.09971249103546  1.25433838367462  1.43991124629974  1.62437915802002  1.73244297504425  1.74302744865417  1.78915894031525  1.9260162115097  2.05170059204102  2.1576554775238  2.31974744796753  2.51001620292664  2.7344446182251  2.93782734870911  3.05097889900208  2.99673533439636  3.04763984680176  3.22931909561157  3.49057865142822  3.73027849197388  3.96541857719421  4.2960729598999  4.65418863296509  4.89008283615112  4.98583173751831  4.9373459815979  4.90314054489136  4.9374885559082  5.00676679611206  5.08116483688354  5.07098150253296  4.98434352874756  4.84523153305054  4.69675874710083  4.55215883255005  4.33824825286865  4.12961053848267  3.87606406211853  3.6141619682312  3.29198431968689  2.95625948905945  2.68544888496399  2.38667464256287  2.13090825080872  1.92424237728119  1.75010550022125  1.63353765010834  1.49520885944366  1.41989028453827  1.31189012527466  1.22181463241577  1.14667880535126  1.05168771743774  1.01186108589172  0.959522247314453  0.921291351318359  0.928971409797668  0.966108798980713  0.81881719827652  0.823013305664063  0.846227884292603  0.786097466945648  0.747072279453278  0.709602057933807  0.673713207244873  0.5  0.5  0.5  0.5  0.5  0.5  0.5  0.5  0.5  0.5  0.5  0.5  
0.5  0.5  0.5  0.5  0.5  0.5  0.5  0.5  0.5  0.5  0.5  0.5  0.549462080001831  0.637049078941345  0.694560706615448  0.717889964580536  0.747743666172028  0.770334124565125  0.780804514884949  0.780562937259674  0.79494297504425  0.84244579076767  0.922920048236847  1.02982091903687  1.15219640731812  1.28031396865845  1.40840685367584  1.48100817203522  1.52148449420929  1.57758843898773  1.61941623687744  1.60686576366425  1.64169800281525  1.82901585102081  2.21613383293152  2.58621096611023  2.8416759967804  3.02514863014221  3.07184648513794  3.08408379554749  3.21607995033264  3.41967964172363  3.66129112243652  3.93831968307495  4.34391450881958  4.67858982086182  4.87054538726807  4.9606819152832  4.8394627571106  4.71208715438843  4.68096590042114  4.79268407821655  4.9780101776123  5.04213953018188  4.98007726669312  4.82254505157471  4.62222242355347  4.42461156845093  4.23410844802856  4.02862119674683  3.82046914100647  3.58730292320251  3.33191013336182  3.03640341758728  2.76247668266296  2.49506545066834  2.23790979385376  2.02383351325989  1.84923934936523  1.72272753715515  1.59307909011841  1.51287591457367  1.40586984157562  1.30937421321869  1.22156941890717  1.13144052028656  1.06819772720337  1.00843954086304  0.959162652492523  1.06225788593292  0.873895704746246  0.83742094039917  0.906823098659515  0.842997372150421  0.780950129032135  0.741067409515381  0.703525364398956  0.677586197853088  0.5  0.5  0.5  0.5  0.5  0.5  0.5  0.5  0.5  0.5  0.5  0.5  
0.5  0.5  0.5  0.5  0.5  0.5  0.5  0.5  0.5  0.5  0.5  0.5  0.574170649051666  0.67017924785614  0.715031802654266  0.727971971035004  0.751080870628357  0.774806022644043  0.784836411476135  0.781533598899841  0.787730038166046  0.823281168937683  0.888106405735016  0.973132908344269  1.05951774120331  1.14776253700256  1.24303233623505  1.31739735603333  1.38383042812347  1.43800389766693  1.43361699581146  1.37865674495697  1.42159044742584  1.59334897994995  1.98117983341217  2.31684923171997  2.57897639274597  2.83653903007507  3.04284977912903  3.22968626022339  3.29856777191162  3.49850177764893  3.67130088806152  3.95126557350159  4.21674823760986  4.40804004669189  4.53345918655396  4.60194492340088  4.48309850692749  4.26063442230225  4.2103157043457  4.40263605117798  4.69457101821899  4.88845682144165  4.88657140731812  4.72866821289063  4.49268245697021  4.28618335723877  4.09976577758789  3.92764544487  3.74027442932129  3.53086256980896  3.30382108688354  3.05018901824951  2.79034280776978  2.53821659088135  2.30503392219543  2.08931255340576  1.91160345077515  1.79129922389984  1.65760147571564  1.56939303874969  1.46611392498016  1.35436058044434  1.26112580299377  1.18377363681793  1.10918569564819  1.0646538734436  1.12934350967407  1.06735372543335  1.00847780704498  0.951270759105682  0.900722622871399  0.840904057025909  0.744372844696045  0.774592459201813  0.706112742424011  0.67202627658844  0.5  0.5  0.5  0.5  0.5  0.5  0.5  0.5  0.5  0.5  0.5  0.5  
0.5  0.5  0.5  0.5  0.5  0.5  0.5  0.5  0.5  0.5  0.5  0.520770192146301  0.590433657169342  0.663503766059875  0.698999583721161  0.726241171360016  0.759615361690521  0.787288546562195  0.802538990974426  0.801622331142426  0.805891931056976  0.829120516777039  0.86725640296936  0.923577308654785  0.991507530212402  1.06811201572418  1.15672016143799  1.24642479419708  1.32233154773712  1.36327052116394  1.36306548118591  1.34028625488281  1.39379978179932  1.56217837333679  1.81976675987244  2.03288698196411  2.22627210617065  2.47407269477844  2.78779149055481  3.16263937950134  3.47111821174622  3.64921975135803  3.73791456222534  3.85205483436584  3.85912036895752  3.80198168754578  3.82290005683899  3.91625690460205  3.89761447906494  3.78123807907104  3.80890202522278  4.00805234909058  4.31132841110229  4.49645090103149  4.55322599411011  4.46328115463257  4.30726480484009  4.12299060821533  3.9473283290863  3.79075789451599  3.6280243396759  3.46290016174316  3.25710034370422  3.03803682327271  2.79862260818481  2.5549681186676  2.32570767402649  2.11613893508911  1.94984912872314  1.81157565116882  1.71314632892609  1.54201996326447  1.46112513542175  1.38540995121002  1.29629778862  1.2345826625824  1.15508818626404  1.19982755184174  0.998232007026672  1.07087576389313  1.00393569469452  0.946912527084351  0.894183576107025  0.845553934574127  0.803680181503296  0.76382839679718  0.709648251533508  0.664966106414795  0.66848748922348  0.5  0.5  0.5  0.5  0.5  0.5  0.5  0.5  0.5  0.5  0.5  
0.5  0.5  0.5  0.5  0.5  0.5  0.5  0.5  0.5  0.5  0.501480519771576  0.542674601078033  0.592633783817291  0.634259343147278  0.672606408596039  0.712028324604034  0.751872956752777  0.790562689304352  0.815350294113159  0.820327401161194  0.814058482646942  0.818532168865204  0.830218434333801  0.861043751239777  0.91902768611908  1.0000307559967  1.11187064647675  1.2406667470932  1.32251417636871  1.32703197002411  1.31984496116638  1.33699727058411  1.39967691898346  1.47457301616669  1.56351721286774  1.68551802635193  1.82636642456055  2.05160331726074  2.44961309432983  2.94021058082581  3.37545680999756  3.66549038887024  3.80893039703369  3.86653518676758  3.65057492256165  3.43988919258118  3.41355037689209  3.50410175323486  3.59978175163269  3.63447666168213  3.75712323188782  3.94803643226624  4.04848670959473  4.13083982467651  4.17210388183594  4.14527034759521  4.07577562332153  3.92607951164246  3.78419947624207  3.64954948425293  3.51503229141235  3.33069849014282  3.16848492622375  2.97259283065796  2.7502977848053  2.52730250358582  2.3086154460907  2.11533069610596  1.94793725013733  1.79570150375366  1.67161726951599  1.5538774728775  1.47118747234344  1.42448735237122  1.33086240291595  1.20170664787292  1.1365157365799  1.07531809806824  1.02807593345642  1.056116938591  0.99376106262207  0.936600863933563  0.887490689754486  0.833241403102875  0.790397167205811  0.754349708557129  0.702522575855255  0.691510796546936  0.660658240318298  0.5  0.5  0.5  0.5  0.5  0.5  0.5  0.5  0.5  0.5  0.5  
0.5  0.5  0.5  0.5  0.5  0.5  0.5  0.5  0.5  0.5  0.513356864452362  0.546116232872009  0.579287230968475  0.617649972438812  0.651023626327515  0.690408766269684  0.73509156703949  0.773941814899445  0.800102472305298  0.806305527687073  0.797074377536774  0.785973131656647  0.781265497207642  0.797873497009277  0.85126256942749  0.941299557685852  1.08591544628143  1.25101184844971  1.33155310153961  1.29223442077637  1.2535148859024  1.21436929702759  1.14658296108246  1.07983911037445  1.09054017066956  1.20019483566284  1.38167691230774  1.6309415102005  2.04679036140442  2.48350691795349  2.90747618675232  3.29245257377625  3.61611819267273  3.90500402450562  3.77951145172119  3.45150780677795  3.38580751419067  3.47644138336182  3.62476181983948  3.72575306892395  3.85852003097534  3.9710099697113  3.92752838134766  3.86832118034363  3.90621948242188  3.91273641586304  3.86422896385193  3.78315758705139  3.62810754776001  3.47673439979553  3.34622073173523  3.22217679023743  3.0578601360321  2.87309575080872  2.66545486450195  2.46712160110474  2.25862836837769  2.0799834728241  1.92251992225647  1.79671239852905  1.66999125480652  1.56757283210754  1.49381971359253  1.3533695936203  1.28463125228882  1.20736396312714  1.1634703874588  1.095170378685  1.10952460765839  1.04248285293579  0.979279816150665  0.885341882705688  0.867440402507782  0.820634305477142  0.77833503484726  0.7399942278862  0.713000178337097  0.681486785411835  0.651783227920532  0.5  0.5  0.5  0.5  0.5  0.5  0.5  0.5  0.5  0.5  0.5  
0.5  0.5  0.5  0.5  0.5  0.5  0.5  0.5  0.5  0.5  0.514855444431305  0.543464660644531  0.573302567005157  0.603730738162994  0.634328007698059  0.672036826610565  0.708805203437805  0.741731643676758  0.762409269809723  0.766816437244415  0.762640297412872  0.751759707927704  0.745509505271912  0.759569585323334  0.806120455265045  0.895322322845459  1.0421462059021  1.18935811519623  1.27691328525543  1.26399719715118  1.19147753715515  1.08107805252075  0.80482405424118  0.646684110164642  0.659848570823669  0.773218274116516  0.937993228435516  1.1453423500061  1.57441461086273  1.96292436122894  2.31349277496338  2.72449612617493  3.19328999519348  3.67099118232727  3.83606863021851  3.56588220596313  3.51071071624756  3.63526344299316  3.82575345039368  3.93668150901794  4.00583410263062  3.95572113990784  3.83216977119446  3.73378968238831  3.71089386940002  3.72005748748779  3.68522953987122  3.59181451797485  3.47265386581421  3.36796903610229  3.24325132369995  3.0993754863739  2.97707772254944  2.79355907440186  2.56704354286194  2.38681697845459  2.20564007759094  2.04217171669006  1.89995515346527  1.76595270633698  1.64896523952484  1.54717063903809  1.59291350841522  1.33688545227051  1.29514968395233  1.2153571844101  1.23135459423065  1.15450990200043  1.08462953567505  0.960953533649445  0.958436131477356  0.898437917232513  0.849431455135345  0.813556790351868  0.773549735546112  0.736846327781677  0.695794820785522  0.673237144947052  0.636369824409485  0.5  0.5  0.5  0.5  0.5  0.5  0.5  0.5  0.5  0.5  0.5  
0.5  0.5  0.5  0.5  0.5  0.5  0.5  0.5  0.5  0.5  0.514652788639069  0.538681447505951  0.562899470329285  0.587949275970459  0.612444996833801  0.640945255756378  0.669691681861877  0.696340382099152  0.71399199962616  0.721569836139679  0.726069271564484  0.725113034248352  0.726712584495544  0.741862654685974  0.777270495891571  0.854113042354584  0.975269854068756  1.10005509853363  1.17950963973999  1.22139585018158  1.18850266933441  1.01838326454163  0.654674768447876  0.508929491043091  0.508618533611298  0.561595439910889  0.60725611448288  0.682340621948242  1.08720445632935  1.55553472042084  1.86528193950653  2.2033326625824  2.70252561569214  3.28536653518677  3.66283655166626  3.69348049163818  3.72583532333374  3.8760232925415  4.04171752929688  4.15236759185791  4.13625812530518  3.9997730255127  3.81963109970093  3.71194839477539  3.62426948547363  3.58332562446594  3.51094317436218  3.41995453834534  3.31035542488098  3.19250345230103  3.09888434410095  2.97699928283691  2.83637666702271  2.60908913612366  2.45204186439514  2.28399920463562  2.1270444393158  1.97943377494812  1.85007452964783  1.79404067993164  1.75806224346161  1.64805519580841  1.4145120382309  1.33086681365967  1.27412664890289  1.29704010486603  1.2097042798996  1.13320875167847  1.01068925857544  0.994608163833618  0.937003254890442  0.879452049732208  0.831871271133423  0.789765357971191  0.751439929008484  0.726232051849365  0.695460319519043  0.667324423789978  0.637384951114655  0.5  0.5  0.5  0.5  0.5  0.5  0.5  0.5  0.5  0.5  0.5  
0.5  0.5  0.5  0.5  0.5  0.5  0.5  0.5  0.5  0.5  0.514982879161835  0.534663498401642  0.552465975284576  0.571434736251831  0.589638829231262  0.610209047794342  0.631582200527191  0.651639759540558  0.669352233409882  0.680785417556763  0.698143899440765  0.704626500606537  0.718959927558899  0.733890652656555  0.754450261592865  0.820307672023773  0.92289263010025  1.02055978775024  1.08972346782684  1.1493901014328  1.18646478652954  1.02738738059998  0.698957622051239  0.519068539142609  0.5  0.510173738002777  0.5  0.513674318790436  0.756053805351257  1.19341146945953  1.4572948217392  1.75119638442993  2.20745348930359  2.84144759178162  3.35941934585571  3.62968564033508  3.75165963172913  3.87351322174072  4.01219511032104  4.13309049606323  4.15565347671509  4.0237250328064  3.81934261322021  3.67919945716858  3.54731607437134  3.48763012886047  3.4062557220459  3.33704352378845  3.24028015136719  3.04422950744629  2.91814231872559  2.76841497421265  2.68863582611084  2.54182362556458  2.44216012954712  2.28236794471741  2.13964009284973  1.99690687656403  1.9499899148941  1.67658793926239  1.57285797595978  1.6412752866745  1.50296652317047  1.41173422336578  1.34265303611755  1.1558483839035  1.09342062473297  1.03962385654449  1.03190684318542  0.970649600028992  0.917285561561584  0.857784450054169  0.812091410160065  0.771148979663849  0.734396040439606  0.712978959083557  0.683375120162964  0.65339583158493  0.623244285583496  0.5  0.5  0.5  0.5  0.5  0.5  0.5  0.5  0.5  0.5  0.5  
0.5  0.5  0.5  0.5  0.5  0.5  0.5  0.5  0.5  0.5  0.514106512069702  0.5302854180336  0.544057905673981  0.558057308197021  0.570770740509033  0.586172759532928  0.602328240871429  0.619511663913727  0.636025249958038  0.650930881500244  0.674870073795319  0.686217427253723  0.710592269897461  0.728166460990906  0.751713156700134  0.810693800449371  0.887444019317627  0.945810258388519  0.9925776720047  1.03975093364716  1.07636260986328  1.00561320781708  0.769031584262848  0.57739931344986  0.529973566532135  0.533586978912354  0.5  0.5  0.650866448879242  0.819796979427338  0.964199721813202  1.22350013256073  1.64710736274719  2.27872395515442  2.90927958488464  3.32720971107483  3.53684782981873  3.60622191429138  3.69273805618286  3.82018041610718  3.91101789474487  3.847815990448  3.73499584197998  3.62089800834656  3.50820136070251  3.43594908714294  3.29557824134827  3.22658562660217  3.00207591056824  2.8977952003479  2.89677143096924  2.72289514541626  2.58662676811218  2.44671082496643  2.32036066055298  2.1801426410675  2.05395531654358  2.00938081741333  1.73707628250122  1.63293170928955  1.68600285053253  1.54644000530243  1.44814825057983  1.38084268569946  1.29648041725159  1.13033246994019  1.13124310970306  1.06540727615356  1.00147342681885  0.941798388957977  0.865055799484253  0.845956683158875  0.802971839904785  0.763579189777374  0.729459166526794  0.697140336036682  0.668502926826477  0.641737043857574  0.613584339618683  0.5  0.5  0.5  0.5  0.5  0.5  0.5  0.5  0.5  0.5  0.5  
0.5  0.5  0.5  0.5  0.5  0.5  0.5  0.5  0.5  0.5  0.511452198028564  0.525291562080383  0.537157237529755  0.547917187213898  0.558874011039734  0.570861518383026  0.584370195865631  0.598561763763428  0.613047420978546  0.634425640106201  0.650445163249969  0.678532481193542  0.700132191181183  0.725359916687012  0.756905257701874  0.805423438549042  0.839979767799377  0.852021157741547  0.846369206905365  0.858456969261169  0.840775489807129  0.783097982406616  0.67327743768692  0.579862654209137  0.537343859672546  0.536163806915283  0.555122673511505  0.558117926120758  0.551316857337952  0.575034439563751  0.651813268661499  0.838340520858765  1.18262147903442  1.66659963130951  2.24004340171814  2.81003665924072  3.14573621749878  3.26152801513672  3.35749793052673  3.49420857429504  3.58786177635193  3.62583947181702  3.58344984054565  3.51633286476135  3.42426753044128  3.32061982154846  3.21764254570007  3.113520860672  3.03878808021545  2.92487645149231  2.66923356056213  2.54323172569275  2.44396591186523  2.3337562084198  2.32124733924866  2.18139958381653  1.98549854755402  1.91792500019073  1.75521183013916  1.71382892131805  1.60173892974854  1.48782455921173  1.39930760860443  1.33145558834076  1.24832022190094  1.16290819644928  1.09759080410004  1.03040754795074  0.969591438770294  0.91659688949585  0.868094801902771  0.826996088027954  0.787334322929382  0.751660525798798  0.719501435756683  0.682086884975433  0.65475857257843  0.640433013439178  0.615769505500793  0.58787214756012  0.5  0.5  0.5  0.5  0.5  0.5  0.5  0.5  0.5  0.5  
0.5  0.5  0.5  0.5  0.5  0.5  0.5  0.5  0.5  0.5  0.508635103702545  0.519881963729858  0.530432283878326  0.539930760860443  0.549771964550018  0.560109496116638  0.571385204792023  0.583264172077179  0.595522999763489  0.613335847854614  0.636259019374847  0.656197071075439  0.683922171592712  0.709725022315979  0.734320342540741  0.754159688949585  0.764842689037323  0.756201326847076  0.729896426200867  0.692904651165009  0.642153084278107  0.594988167285919  0.552646577358246  0.514858067035675  0.5  0.5  0.515814185142517  0.536385416984558  0.5  0.5  0.527278125286102  0.685984134674072  0.915397763252258  1.1976158618927  1.6176483631134  2.13999557495117  2.60205101966858  2.87123537063599  3.06456351280212  3.24609684944153  3.40316438674927  3.49211454391479  3.46034121513367  3.41204619407654  3.32020378112793  3.21021699905396  3.10759568214417  2.98928928375244  2.92178821563721  2.80011510848999  2.66179513931274  2.57266092300415  2.43772578239441  2.29946088790894  2.12865018844604  2.01603031158447  1.90356111526489  1.82917249202728  1.76557970046997  1.64846742153168  1.54739093780518  1.44743013381958  1.36128222942352  1.27494585514069  1.19909775257111  1.12679636478424  1.05725789070129  0.998146235942841  0.940920352935791  0.888880014419556  0.847865700721741  0.803867518901825  0.767155528068542  0.734022080898285  0.703868389129639  0.67591392993927  0.64982807636261  0.625208735466003  0.601025819778442  0.577792704105377  0.5  0.5  0.5  0.5  0.5  0.5  0.5  0.5  0.5  0.5  
0.5  0.5  0.5  0.5  0.5  0.5  0.5  0.5  0.5  0.5  0.504783153533936  0.515215456485748  0.524599492549896  0.533415973186493  0.542037010192871  0.551189959049225  0.560951113700867  0.570924758911133  0.582874715328217  0.597060799598694  0.615694046020508  0.639852643013  0.662242650985718  0.680311739444733  0.694335520267487  0.698427796363831  0.695098578929901  0.675192892551422  0.649336695671082  0.601914405822754  0.534766674041748  0.500414431095123  0.5  0.5  0.5  0.5  0.5  0.536141335964203  0.529636263847351  0.5  0.522449612617493  0.634166598320007  0.760962307453156  0.904387295246124  1.1521270275116  1.52379965782166  1.94959473609924  2.40391254425049  2.74368667602539  3.03094506263733  3.2438747882843  3.36319017410278  3.40431022644043  3.35767698287964  3.2696704864502  3.16272258758545  3.05321526527405  2.90208053588867  2.79335165023804  2.66930031776428  2.58061599731445  2.45273947715759  2.31425714492798  2.12969827651978  2.02027034759521  2.01464748382568  1.89764189720154  1.77689576148987  1.67195081710815  1.56290185451508  1.48676097393036  1.39241325855255  1.2965874671936  1.21813189983368  1.16706621646881  1.08581483364105  1.01919138431549  0.961457431316376  0.908022582530975  0.860826730728149  0.820635676383972  0.780833661556244  0.747470676898956  0.71629786491394  0.687755644321442  0.669530868530273  0.642393290996552  0.618223667144775  0.590250015258789  0.568002283573151  0.5  0.5  0.5  0.5  0.5  0.5  0.5  0.5  0.5  0.5  
0.5  0.5  0.5  0.5  0.5  0.5  0.5  0.5  0.5  0.5  0.500778436660767  0.510233581066132  0.520068526268005  0.527248680591583  0.536293506622314  0.544417142868042  0.552258789539337  0.561333358287811  0.571845591068268  0.584384679794312  0.602448642253876  0.621682345867157  0.637739181518555  0.65031361579895  0.655601859092712  0.646992802619934  0.638720154762268  0.623287856578827  0.595954596996307  0.560831964015961  0.513391613960266  0.5  0.5  0.5  0.5  0.5  0.5  0.50397801399231  0.52402400970459  0.528171062469482  0.521325051784515  0.562093138694763  0.635553002357483  0.724193692207336  0.886032700538635  1.15274095535278  1.48457860946655  1.89697647094727  2.33774971961975  2.75019550323486  3.0587260723114  3.24970006942749  3.26717853546143  3.24005675315857  3.12762117385864  2.99948930740356  2.84898138046265  2.74395871162415  2.65368223190308  2.535728931427  2.45853185653687  2.3286497592926  2.20013332366943  2.09931445121765  2.00183010101318  1.89006900787354  1.80065679550171  1.69461786746979  1.59501576423645  1.52119088172913  1.42692375183105  1.33843624591827  1.25687146186829  1.19634389877319  1.1235374212265  1.05158925056458  0.983418941497803  0.928647875785828  0.883634269237518  0.834508538246155  0.796101689338684  0.75956130027771  0.728278160095215  0.696223199367523  0.670714795589447  0.654259562492371  0.630328357219696  0.606164216995239  0.583569943904877  0.555952787399292  0.5  0.5  0.5  0.5  0.5  0.5  0.5  0.5  0.5  0.5  
0.5  0.5  0.5  0.5  0.5  0.5  0.5  0.5  0.5  0.5  0.5  0.505606710910797  0.514509320259094  0.521247446537018  0.528959333896637  0.536891222000122  0.544276893138886  0.553138971328735  0.562966048717499  0.573190152645111  0.585936784744263  0.602577030658722  0.610284209251404  0.612545013427734  0.602608561515808  0.598273098468781  0.588390529155731  0.568778812885284  0.550555646419525  0.529344022274017  0.511086046695709  0.5  0.5  0.5  0.5  0.5  0.5  0.5  0.5  0.5  0.5  0.5  0.539344847202301  0.621585071086884  0.741517782211304  0.911681711673737  1.13289737701416  1.45406329631805  1.85244202613831  2.30549073219299  2.71013641357422  2.94834160804749  3.05107259750366  3.04858183860779  2.96055483818054  2.85391902923584  2.75130915641785  2.65418887138367  2.57837200164795  2.41645765304565  2.32502007484436  2.20409560203552  2.11721014976501  2.0044207572937  1.88972616195679  1.78972673416138  1.69345617294312  1.59893822669983  1.52998149394989  1.43657624721527  1.34733998775482  1.26712691783905  1.19229209423065  1.14683496952057  1.07891511917114  1.01087415218353  0.947543144226074  0.913258910179138  0.859544694423676  0.817719757556915  0.776587545871735  0.742193222045898  0.712766826152802  0.68480396270752  0.658789336681366  0.637005567550659  0.617534458637238  0.595487415790558  0.568642258644104  0.555606544017792  0.5  0.5  0.5  0.5  0.5  0.5  0.5  0.5  0.5  0.5  
0.5  0.5  0.5  0.5  0.5  0.5  0.5  0.5  0.5  0.5  0.5  0.5  0.508383333683014  0.516433656215668  0.523758172988892  0.529700338840485  0.537173807621002  0.545156419277191  0.553288817405701  0.563320994377136  0.575084745883942  0.581979811191559  0.583558917045593  0.583531677722931  0.564160048961639  0.556997001171112  0.542003095149994  0.525121212005615  0.509376883506775  0.5  0.5  0.5  0.5  0.5  0.5  0.5  0.5  0.5  0.5  0.5  0.5  0.5  0.5  0.558606624603271  0.64977240562439  0.763031303882599  0.894243121147156  1.10218298435211  1.38133788108826  1.72730398178101  2.09903430938721  2.39884209632874  2.61660313606262  2.69971942901611  2.69373416900635  2.60549187660217  2.54798078536987  2.47460985183716  2.40271019935608  2.26799201965332  2.23548364639282  2.09252405166626  2.00283718109131  1.90171456336975  1.80506253242493  1.70780038833618  1.62636876106262  1.53827965259552  1.45377683639526  1.37485218048096  1.29113721847534  1.21243333816528  1.17186999320984  1.10363900661469  1.03688430786133  0.978702902793884  0.917649626731873  0.885232746601105  0.834675490856171  0.792466044425964  0.756430089473724  0.724137246608734  0.694781124591827  0.669956982135773  0.647872924804688  0.624762833118439  0.601899921894073  0.580375492572784  0.565181970596313  0.547320067882538  0.5  0.5  0.5  0.5  0.5  0.5  0.5  0.5  0.5  0.5  
0.5  0.5  0.5  0.5  0.5  0.5  0.5  0.5  0.5  0.5  0.5  0.5  0.5  0.509525537490845  0.515461266040802  0.521480679512024  0.529622912406921  0.537692606449127  0.546628773212433  0.553848028182983  0.556390821933746  0.560736000537872  0.558445453643799  0.540633857250214  0.530307710170746  0.518788158893585  0.504636347293854  0.5  0.5  0.5  0.5  0.5  0.5  0.5  0.5  0.5  0.5  0.5  0.5  0.5  0.5  0.5  0.5  0.510494112968445  0.57424932718277  0.645658612251282  0.736626982688904  0.858095824718475  1.01263403892517  1.21315014362335  1.47547113895416  1.77942991256714  2.06159257888794  2.25711488723755  2.35662508010864  2.38159322738647  2.30060887336731  2.26691722869873  2.20911931991577  2.15631031990051  2.08579230308533  1.96764624118805  1.89015710353851  1.79734408855438  1.72638583183289  1.64330863952637  1.57006287574768  1.47290945053101  1.39525496959686  1.32366216182709  1.2431480884552  1.17456769943237  1.10609436035156  1.05503535270691  0.996532320976257  0.940287947654724  0.903686881065369  0.855728924274445  0.812843561172485  0.771863758563995  0.736996531486511  0.714439749717712  0.685009121894836  0.66470855474472  0.634767413139343  0.611884236335754  0.592048585414886  0.568197250366211  0.556730628013611  0.537537693977356  0.5  0.5  0.5  0.5  0.5  0.5  0.5  0.5  0.5  0.5  
0.5  0.5  0.5  0.5  0.5  0.5  0.5  0.5  0.5  0.5  0.5  0.5  0.5  0.5  0.507962107658386  0.514351725578308  0.520974516868591  0.527738511562347  0.532802939414978  0.539502561092377  0.543172776699066  0.541386485099792  0.534308791160584  0.522560775279999  0.505768954753876  0.5  0.5  0.5  0.5  0.5  0.5  0.5  0.5  0.5  0.5  0.5  0.5  0.5  0.5  0.5  0.5  0.5  0.5  0.5  0.502795994281769  0.557147800922394  0.618190586566925  0.683936834335327  0.772656261920929  0.893759191036224  1.06739866733551  1.29526162147522  1.56120657920837  1.80802285671234  1.98780286312103  2.08470845222473  2.11468124389648  2.05760622024536  2.03187203407288  1.99234771728516  1.95183658599854  1.86118710041046  1.79240882396698  1.71649622917175  1.63576674461365  1.56425535678864  1.4952050447464  1.4156379699707  1.34880197048187  1.27736449241638  1.1984795331955  1.13411211967468  1.07459723949432  1.01468539237976  0.960722386837006  0.931008398532867  0.881472587585449  0.837862491607666  0.796593904495239  0.753764867782593  0.726769983768463  0.696949303150177  0.668190896511078  0.646899819374084  0.622843682765961  0.600953280925751  0.581781685352325  0.567784905433655  0.546555817127228  0.524344384670258  0.5  0.5  0.5  0.5  0.5  0.5  0.5  0.5  0.5  0.5  
0.5  0.5  0.5  0.5  0.5  0.5  0.5  0.5  0.5  0.5  0.5  0.5  0.5  0.5  0.5  0.5  0.5  0.519214689731598  0.523369431495667  0.523585498332977  0.524509191513062  0.522084951400757  0.513001799583435  0.504317104816437  0.5  0.5  0.5  0.5  0.5  0.5  0.5  0.5  0.5  0.5  0.5  0.5  0.5  0.5  0.5  0.5  0.5  0.5  0.5  0.5  0.5  0.5  0.521568477153778  0.568182229995728  0.629402458667755  0.710071265697479  0.820708155632019  0.987670361995697  1.20276749134064  1.4397097826004  1.65140783786774  1.75045335292816  1.83301472663879  1.8584668636322  1.85323131084442  1.83418428897858  1.79776632785797  1.75002384185791  1.67817628383636  1.6167995929718  1.54931938648224  1.49086928367615  1.41874778270721  1.35344254970551  1.29287683963776  1.22708284854889  1.16167902946472  1.10101103782654  1.03878879547119  0.983824610710144  0.934371590614319  0.896060049533844  0.850635826587677  0.809852421283722  0.773354291915894  0.733491718769073  0.71573543548584  0.685408711433411  0.659255266189575  0.635221004486084  0.609480857849121  0.59466278553009  0.579119861125946  0.555561363697052  0.535033524036407  0.513837158679962  0.5  0.5  0.5  0.5  0.5  0.5  0.5  0.5  0.5  0.5  
0.5  0.5  0.5  0.5  0.5  0.5  0.5  0.5  0.5  0.5  0.5  0.5  0.5  0.5  0.5  0.5  0.5  0.507730007171631  0.509718477725983  0.509556710720062  0.508748233318329  0.5  0.501349151134491  0.5  0.5  0.5  0.5  0.5  0.5  0.5  0.5  0.5  0.5  0.5  0.5  0.5  0.5  0.5  0.5  0.5  0.5  0.5  0.5  0.5  0.5  0.5  0.5  0.5  0.537959754467011  0.596872389316559  0.674820899963379  0.795714557170868  0.965990006923676  1.17779493331909  1.39727580547333  1.56654155254364  1.6188485622406  1.66520011425018  1.68773651123047  1.69208514690399  1.66530466079712  1.63118779659271  1.58548808097839  1.51867353916168  1.47232925891876  1.41612195968628  1.35085606575012  1.29758930206299  1.23723256587982  1.17994499206543  1.12002074718475  1.06413912773132  1.00663959980011  0.958075344562531  0.909868955612183  0.869140863418579  0.821848332881927  0.781795203685761  0.747522950172424  0.727818608283997  0.697501659393311  0.677609264850616  0.647333681583405  0.619549214839935  0.595764815807343  0.590753436088562  0.564713716506958  0.545194804668427  0.525012791156769  0.507077991962433  0.5  0.5  0.5  0.5  0.5  0.5  0.5  0.5  0.5  0.5  
0.5  0.5  0.5  0.5  0.5  0.5  0.5  0.5  0.5  0.5  0.5  0.5  0.5  0.5  0.5  0.5  0.5  0.5  0.5  0.5  0.5  0.5  0.5  0.5  0.5  0.5  0.5  0.5  0.5  0.5  0.5  0.5  0.5  0.5  0.5  0.5  0.5  0.5  0.5  0.5  0.5  0.5  0.5  0.5  0.5  0.5  0.5  0.5  0.5  0.515650868415833  0.583418250083923  0.680203795433044  0.820373773574829  1.01062047481537  1.20262777805328  1.3700966835022  1.48467135429382  1.51529371738434  1.5469719171524  1.55186176300049  1.54234421253204  1.51424813270569  1.47868466377258  1.43985271453857  1.39234352111816  1.3421767950058  1.2856080532074  1.2402731180191  1.18617153167725  1.13451814651489  1.08192813396454  1.0301194190979  0.976021349430084  0.934757649898529  0.884736955165863  0.842416882514954  0.807302951812744  0.769813776016235  0.735869824886322  0.714877068996429  0.680939972400665  0.66017746925354  0.627923607826233  0.604604721069336  0.597131550312042  0.577791690826416  0.556989789009094  0.53899747133255  0.512840032577515  0.5  0.5  0.5  0.5  0.5  0.5  0.5  0.5  0.5  0.5  0.5  
0.5  0.5  0.5  0.5  0.5  0.5  0.5  0.5  0.5  0.5  0.5  0.5  0.5  0.5  0.5  0.5  0.5  0.5  0.5  0.5  0.5  0.5  0.5  0.5  0.5  0.5  0.5  0.5  0.5  0.5  0.5  0.5  0.5  0.5  0.5  0.5  0.5  0.5  0.5  0.5  0.5  0.5  0.5  0.5  0.5  0.5  0.5  0.5  0.5  0.5  0.519896030426025  0.607189834117889  0.737167835235596  0.894269347190857  1.06405293941498  1.19037425518036  1.29804396629334  1.37405359745026  1.41054570674896  1.42961728572845  1.43845748901367  1.42326939105988  1.38781809806824  1.36491692066193  1.32676994800568  1.27491009235382  1.23137986660004  1.18394684791565  1.13810479640961  1.09217607975006  1.04404997825623  0.997252762317657  0.95464038848877  0.905061066150665  0.862987518310547  0.823428392410278  0.787844002246857  0.753634572029114  0.711503028869629  0.682833254337311  0.671929717063904  0.641706883907318  0.605344533920288  0.607318222522736  0.595715880393982  0.565727412700653  0.541093587875366  0.521751165390015  0.5  0.5  0.5  0.5  0.5  0.5  0.5  0.5  0.5  0.5  0.5  0.5  
0.5  0.5  0.5  0.5  0.5  0.5  0.5  0.5  0.5  0.5  0.5  0.5  0.5  0.5  0.5  0.5  0.5  0.5  0.5  0.5  0.5  0.5  0.5  0.5  0.5  0.5  0.5  0.5  0.5  0.5  0.5  0.5  0.5  0.5  0.5  0.5  0.5  0.5  0.5  0.5  0.5  0.5  0.5  0.5  0.5  0.5  0.5  0.5  0.5  0.5  0.5  0.566317796707153  0.679202437400818  0.81623899936676  0.970715165138245  1.10774707794189  1.20314621925354  1.25258827209473  1.29553020000458  1.32845115661621  1.33747363090515  1.32350933551788  1.31060874462128  1.28595161437988  1.25461173057556  1.21684062480927  1.17830789089203  1.13786721229553  1.09945619106293  1.051029920578  1.01284444332123  0.974466323852539  0.924324154853821  0.8835728764534  0.844639420509338  0.814207136631012  0.773162186145782  0.739277958869934  0.698535978794098  0.683874666690826  0.657798051834106  0.61887264251709  0.59800511598587  0.574931740760803  0.582740902900696  0.553440630435944  0.529117465019226  0.509962975978851  0.5  0.5  0.5  0.5  0.5  0.5  0.5  0.5  0.5  0.5  0.5  0.5  
0.5  0.5  0.5  0.5  0.5  0.5  0.5  0.5  0.5  0.5  0.5  0.5  0.5  0.5  0.5  0.5  0.5  0.5  0.5  0.5  0.5  0.5  0.5  0.5  0.5  0.5  0.5  0.5  0.5  0.5  0.5  0.5  0.5  0.5  0.5  0.5  0.5  0.5  0.5  0.5  0.5  0.5  0.5  0.5  0.5  0.5  0.5  0.5  0.5  0.5  0.5  0.548350751399994  0.649747490882874  0.769286632537842  0.89894050359726  1.01739966869354  1.11571037769318  1.16970896720886  1.21160387992859  1.23905420303345  1.24849033355713  1.24252867698669  1.24239194393158  1.21184957027435  1.1890115737915  1.15983653068542  1.12738597393036  1.09276783466339  1.0539962053299  1.02072834968567  0.986420214176178  0.943161964416504  0.898459672927856  0.86108809709549  0.833723425865173  0.791149079799652  0.758939027786255  0.728215873241425  0.688009262084961  0.670892059803009  0.649227976799011  0.611091375350952  0.590993165969849  0.578113853931427  0.558845102787018  0.52938437461853  0.5098996758461  0.501742303371429  0.5  0.5  0.5  0.5  0.5  0.5  0.5  0.5  0.5  0.5  0.5  0.5  
0.5  0.5  0.5  0.5  0.5  0.5  0.5  0.5  0.5  0.5  0.5  0.5  0.5  0.5  0.5  0.5  0.5  0.5  0.5  0.5  0.5  0.5  0.5  0.5  0.5  0.5  0.5  0.5  0.5  0.5  0.5  0.5  0.5  0.5  0.5  0.5  0.5  0.5  0.5  0.5  0.5  0.5  0.5  0.5  0.5  0.5  0.5  0.5  0.5  0.5  0.5  0.539547622203827  0.632869243621826  0.73593270778656  0.843313336372375  0.95163756608963  1.01951348781586  1.08223342895508  1.12605834007263  1.15023458003998  1.16662454605103  1.16963350772858  1.16379964351654  1.16382277011871  1.13590490818024  1.11328816413879  1.07801151275635  1.04848885536194  1.01918578147888  0.98986828327179  0.955405473709106  0.912676393985748  0.886226356029511  0.851779758930206  0.806008100509644  0.777937531471252  0.747545897960663  0.712489902973175  0.687929570674896  0.662081658840179  0.641421794891357  0.606384336948395  0.593182861804962  0.572258949279785  0.553403258323669  0.523484170436859  0.5  0.5  0.5  0.5  0.5  0.5  0.5  0.5  0.5  0.5  0.5  0.5  0.5  0.5  
0.5  0.5  0.5  0.5  0.5  0.5  0.5  0.5  0.5  0.5  0.5  0.5  0.5  0.5  0.5  0.5  0.5  0.5  0.5  0.5  0.5  0.5  0.5  0.5  0.5  0.5  0.5  0.5  0.5  0.5  0.5  0.5  0.5  0.5  0.5  0.5  0.5  0.5  0.5  0.5  0.5  0.5  0.5  0.5  0.5  0.5  0.5  0.5  0.5  0.5  0.5  0.5  0.580242991447449  0.713913261890411  0.8043372631073  0.891378879547119  0.95971804857254  1.00788044929504  1.04626870155334  1.07429397106171  1.11438143253326  1.12066614627838  1.10688900947571  1.09272682666779  1.07902479171753  1.06341207027435  1.04344606399536  1.01777005195618  0.98596578836441  0.956574201583862  0.928535103797913  0.896056234836578  0.865293979644775  0.834590911865234  0.790406405925751  0.764272332191467  0.746147453784943  0.702526986598969  0.679004788398743  0.654300332069397  0.630771279335022  0.608211815357208  0.586713254451752  0.566001355648041  0.547590374946594  0.5269775390625  0.5  0.5  0.5  0.5  0.5  0.5  0.5  0.5  0.5  0.5  0.5  0.5  0.5  0.5  
0.5  0.5  0.5  0.5  0.5  0.5  0.5  0.5  0.5  0.5  0.5  0.5  0.5  0.5  0.5  0.5  0.5  0.5  0.5  0.5  0.5  0.5  0.5  0.5  0.5  0.5  0.5  0.5  0.5  0.5  0.5  0.5  0.5  0.5  0.5  0.5  0.5  0.5  0.5  0.5  0.5  0.5  0.5  0.5  0.5  0.5  0.5  0.5  0.5  0.5  0.5  0.5  0.613737344741821  0.690711200237274  0.766222238540649  0.837539315223694  0.897082507610321  0.947895586490631  0.991368293762207  1.02143096923828  1.02768576145172  1.04175305366516  1.04101705551147  1.03704500198364  1.02776944637299  1.02049803733826  0.998523771762848  0.98240453004837  0.961337387561798  0.939276218414307  0.899810433387756  0.872907400131226  0.845396459102631  0.804498612880707  0.775504350662231  0.762430906295776  0.719735324382782  0.693288862705231  0.670794665813446  0.646838903427124  0.620384633541107  0.602081537246704  0.580899655818939  0.560457825660706  0.541730284690857  0.522457182407379  0.5  0.5  0.5  0.5  0.5  0.5  0.5  0.5  0.5  0.5  0.5  0.5  0.5  0.5  
0.5  0.5  0.5  0.5  0.5  0.5  0.5  0.5  0.5  0.5  0.5  0.5  0.5  0.5  0.5  0.5  0.5  0.5  0.5  0.5  0.5  0.5  0.5  0.5  0.5  0.5  0.5  0.5  0.5  0.5  0.5  0.5  0.5  0.5  0.5  0.5  0.5  0.5  0.5  0.5  0.5  0.5  0.5  0.5  0.5  0.5  0.5  0.5  0.5  0.5  0.5  0.531329572200775  0.594154536724091  0.664893090724945  0.729069650173187  0.789457738399506  0.845583915710449  0.888590395450592  0.930092513561249  0.963338196277618  0.981679439544678  0.991669356822968  0.994957387447357  0.986387550830841  0.985533893108368  0.980806469917297  0.963794231414795  0.946650385856628  0.930375218391418  0.909124612808228  0.871115386486053  0.847180724143982  0.836620450019836  0.800934672355652  0.775686204433441  0.750422060489655  0.709322452545166  0.684347629547119  0.677003562450409  0.636743545532227  0.614242732524872  0.59627366065979  0.575576663017273  0.555926859378815  0.536697506904602  0.51795494556427  0.5  0.5  0.5  0.5  0.5  0.5  0.5  0.5  0.5  0.5  0.5  0.5  0.5  0.5  
0.5  0.5  0.5  0.5  0.5  0.5  0.5  0.5  0.5  0.5  0.5  0.5  0.5  0.5  0.5  0.5  0.5  0.5  0.5  0.5  0.5  0.5  0.5  0.5  0.5  0.5  0.5  0.5  0.5  0.5  0.5  0.5  0.5  0.5  0.5  0.5  0.5  0.5  0.5  0.5  0.5  0.5  0.5  0.5  0.5  0.5  0.5  0.5  0.5  0.5  0.5  0.5  0.528747856616974  0.588327884674072  0.690062403678894  0.748439371585846  0.799438297748566  0.845231890678406  0.87601238489151  0.902800619602203  0.920269548892975  0.936069309711456  0.944368541240692  0.930591285228729  0.924869418144226  0.921815514564514  0.911380410194397  0.902059078216553  0.877034485340118  0.864252507686615  0.848853707313538  0.82945317029953  0.807528138160706  0.784697890281677  0.761730134487152  0.722835242748261  0.69893741607666  0.691945374011993  0.669241011142731  0.629780292510986  0.608012855052948  0.590367197990417  0.581276774406433  0.546557307243347  0.531353533267975  0.5  0.5  0.5  0.5  0.5  0.5  0.5  0.5  0.5  0.5  0.5  0.5  0.5  0.5  0.5  
0.5  0.5  0.5  0.5  0.5  0.5  0.5  0.5  0.5  0.5  0.5  0.5  0.5  0.5  0.5  0.5  0.5  0.5  0.5  0.5  0.5  0.5  0.5  0.5  0.5  0.5  0.5  0.5  0.5  0.5  0.5  0.5  0.5  0.5  0.5  0.5  0.5  0.5  0.5  0.5  0.5  0.5  0.5  0.5  0.5  0.5  0.5  0.5  0.5  0.5  0.5  0.5  0.510286688804626  0.564769148826599  0.613391101360321  0.703798770904541  0.743983149528503  0.780350208282471  0.811897933483124  0.839233100414276  0.855543851852417  0.874868988990784  0.883742988109589  0.885985791683197  0.884100675582886  0.884929358959198  0.876728951931  0.876782238483429  0.862171232700348  0.851395428180695  0.834589958190918  0.807659268379211  0.788066267967224  0.768182814121246  0.732880294322968  0.725951910018921  0.704323768615723  0.68262380361557  0.644236981868744  0.622673153877258  0.604356288909912  0.597271382808685  0.561005890369415  0.541537284851074  0.526633739471436  0.5  0.5  0.5  0.5  0.5  0.5  0.5  0.5  0.5  0.5  0.5  0.5  0.5  0.5  0.5  
0.5  0.5  0.5  0.5  0.5  0.5  0.5  0.5  0.5  0.5  0.5  0.5  0.5  0.5  0.5  0.5  0.5  0.5  0.5  0.5  0.5  0.5  0.5  0.5  0.5  0.5  0.5  0.5  0.5  0.5  0.5  0.5  0.5  0.5  0.5  0.5  0.5  0.5  0.5  0.5  0.5  0.5  0.5  0.5  0.5  0.5  0.5  0.5  0.5  0.5  0.5  0.5  0.550605416297913  0.583279669284821  0.626883864402771  0.669135689735413  0.706660747528076  0.74047577381134  0.7701216340065  0.7956463098526  0.817526996135712  0.833038806915283  0.843425750732422  0.854193150997162  0.856009066104889  0.857313334941864  0.851856112480164  0.841604232788086  0.835475206375122  0.823859751224518  0.810542821884155  0.795711517333984  0.762755155563354  0.751264810562134  0.732431173324585  0.713114202022552  0.693108201026917  0.656545460224152  0.635747730731964  0.626186490058899  0.612077951431274  0.574774205684662  0.555296123027802  0.539857625961304  0.521566390991211  0.5  0.5  0.5  0.5  0.5  0.5  0.5  0.5  0.5  0.5  0.5  0.5  0.5  0.5  0.5  
0.5  0.5  0.5  0.5  0.5  0.5  0.5  0.5  0.5  0.5  0.5  0.5  0.5  0.5  0.5  0.5  0.5  0.5  0.5  0.5  0.5  0.5  0.5  0.5  0.5  0.5  0.5  0.5  0.5  0.5  0.5  0.5  0.5  0.5  0.5  0.5  0.5  0.5  0.5  0.5  0.5  0.5  0.5  0.5  0.5  0.5  0.5  0.5  0.5  0.5  0.5  0.5  0.5  0.516597807407379  0.558966457843781  0.630377352237701  0.66838264465332  0.703422248363495  0.731742858886719  0.756000280380249  0.780835568904877  0.795918822288513  0.805598795413971  0.796049952507019  0.799149096012115  0.825368046760559  0.80003035068512  0.794736564159393  0.7853963971138  0.780887961387634  0.775815606117249  0.763140022754669  0.750495851039886  0.734777390956879  0.717853903770447  0.699811637401581  0.6813685297966  0.658650159835815  0.638610482215881  0.623669266700745  0.604645609855652  0.568144142627716  0.549221158027649  0.534075319766998  0.528676748275757  0.5  0.5  0.5  0.5  0.5  0.5  0.5  0.5  0.5  0.5  0.5  0.5  0.5  0.5  0.5  
0.5  0.5  0.5  0.5  0.5  0.5  0.5  0.5  0.5  0.5  0.5  0.5  0.5  0.5  0.5  0.5  0.5  0.5  0.5  0.5  0.5  0.5  0.5  0.5  0.5  0.5  0.5  0.5  0.5  0.5  0.5  0.5  0.5  0.5  0.5  0.5  0.5  0.5  0.5  0.5  0.5  0.5  0.5  0.5  0.5  0.5  0.5  0.5  0.5  0.5  0.5  0.5  0.5  0.5  0.534269690513611  0.568022847175598  0.612728834152222  0.659524261951447  0.685288190841675  0.723793983459473  0.742851376533508  0.746840000152588  0.756299316883087  0.764667868614197  0.768267691135406  0.768292129039764  0.772719979286194  0.771702945232391  0.776141226291656  0.767843306064606  0.762387275695801  0.743944048881531  0.731631636619568  0.717838108539581  0.702484786510468  0.695690512657166  0.668960213661194  0.651186227798462  0.629594922065735  0.615280508995056  0.579851388931274  0.561214089393616  0.553622424602509  0.540996015071869  0.5  0.5  0.5  0.5  0.5  0.5  0.5  0.5  0.5  0.5  0.5  0.5  0.5  0.5  0.5  0.5  
0.5  0.5  0.5  0.5  0.5  0.5  0.5  0.5  0.5  0.5  0.5  0.5  0.5  0.5  0.5  0.5  0.5  0.5  0.5  0.5  0.5  0.5  0.5  0.5  0.5  0.5  0.5  0.5  0.5  0.5  0.5  0.5  0.5  0.5  0.5  0.5  0.5  0.5  0.5  0.5  0.5  0.5  0.5  0.5  0.5  0.5  0.5  0.5  0.5  0.5  0.5  0.5  0.5  0.5  0.549273192882538  0.573137640953064  0.603847622871399  0.631499648094177  0.65584397315979  0.678407967090607  0.696266531944275  0.715650260448456  0.726805448532104  0.741680383682251  0.746796309947968  0.74689769744873  0.755300283432007  0.753612041473389  0.748790323734283  0.747686684131622  0.741069972515106  0.731655061244965  0.733048498630524  0.692388236522675  0.68690812587738  0.672218024730682  0.656508147716522  0.640190303325653  0.623317241668701  0.589673697948456  0.583775162696838  0.565585792064667  0.554023027420044  0.5  0.5  0.5  0.5  0.5  0.5  0.5  0.5  0.5  0.5  0.5  0.5  0.5  0.5  0.5  0.5  0.5  
0.5  0.5  0.5  0.5  0.5  0.5  0.5  0.5  0.5  0.5  0.5  0.5  0.5  0.5  0.5  0.5  0.5  0.5  0.5  0.5  0.5  0.5  0.5  0.5  0.5  0.5  0.5  0.5  0.5  0.5  0.5  0.5  0.5  0.5  0.5  0.5  0.5  0.5  0.5  0.5  0.5  0.5  0.5  0.5  0.5  0.5  0.5  0.5  0.5  0.5  0.5  0.5  0.5  0.5  0.5  0.520649254322052  0.575092911720276  0.602995872497559  0.62814998626709  0.64988762140274  0.667704820632935  0.689174830913544  0.701323390007019  0.708952307701111  0.724524557590485  0.729135453701019  0.731493175029755  0.730397343635559  0.70229971408844  0.70113331079483  0.695476233959198  0.702759325504303  0.693323612213135  0.684063255786896  0.671459376811981  0.658160865306854  0.643759608268738  0.628486096858978  0.622220516204834  0.593141555786133  0.575725674629211  0.558262169361115  0.546821117401123  0.5  0.5  0.5  0.5  0.5  0.5  0.5  0.5  0.5  0.5  0.5  0.5  0.5  0.5  0.5  0.5  0.5  
0.5  0.5  0.5  0.5  0.5  0.5  0.5  0.5  0.5  0.5  0.5  0.5  0.5  0.5  0.5  0.5  0.5  0.5  0.5  0.5  0.5  0.5  0.5  0.5  0.5  0.5  0.5  0.5  0.5  0.5  0.5  0.5  0.5  0.5  0.5  0.5  0.5  0.5  0.5  0.5  0.5  0.5  0.5  0.5  0.5  0.5  0.5  0.5  0.5  0.5  0.5  0.5  0.5  0.5  0.5  0.5  0.535153687000275  0.568299651145935  0.607042789459229  0.629280686378479  0.648355901241302  0.682620644569397  0.660608470439911  0.667460024356842  0.675518691539764  0.680276572704315  0.682680368423462  0.688778638839722  0.690590023994446  0.698901951313019  0.689545094966888  0.682804465293884  0.676620423793793  0.667394876480103  0.656661093235016  0.644571185112  0.64253568649292  0.627921879291534  0.600241899490356  0.583934545516968  0.570632100105286  0.555006742477417  0.521171092987061  0.5  0.5  0.5  0.5  0.5  0.5  0.5  0.5  0.5  0.5  0.5  0.5  0.5  0.5  0.5  0.5  0.5  
